assets/luts/cold_blue.cube
TITLE "Cold Blue"
LUT_3D_SIZE 9
DOMAIN_MIN 0.0 0.0 0.0
DOMAIN_MAX 1.0 1.0 1.0
0.000000 0.000000 0.120000
0.053051 0.000000 0.120266
0.156103 0.000000 0.120531
0.259154 0.003120 0.120797
0.362205 0.010827 0.121063
0.465256 0.018534 0.121329
0.568307 0.026240 0.121594
0.671359 0.033947 0.121860
0.774410 0.041654 0.122126
0.000000 0.099676 0.120894
0.084341 0.107383 0.121160
0.187392 0.115089 0.121425
0.290444 0.122796 0.121691
0.393495 0.130503 0.121957
0.496546 0.138210 0.122223
0.599598 0.145917 0.122489
0.702649 0.153623 0.122754
0.805700 0.161330 0.123020
0.012580 0.219352 0.121788
0.115631 0.227059 0.122054
0.218683 0.234765 0.122319
0.321734 0.242472 0.122585
0.424785 0.250179 0.122851
0.527836 0.257886 0.123117
0.630887 0.265593 0.123382
0.733939 0.273299 0.123648
0.836990 0.281006 0.123914
0.043870 0.339028 0.122682
0.146921 0.346735 0.122948
0.249973 0.354442 0.123214
0.353024 0.362148 0.123479
0.456075 0.369855 0.123745
0.559126 0.377562 0.124011
0.662177 0.385268 0.124276
0.765229 0.392975 0.124542
0.868280 0.400682 0.124808
0.075160 0.458704 0.123576
0.178211 0.466411 0.123842
0.281262 0.474117 0.124107
0.384314 0.481824 0.124373
0.487365 0.489531 0.124639
0.590416 0.497238 0.124905
0.691763 0.504263 0.129263
0.792156 0.510906 0.135906
0.892550 0.517550 0.142550
0.106450 0.578380 0.124470
0.209501 0.586087 0.124736
0.312538 0.593788 0.125038
0.412931 0.600431 0.131681
0.513325 0.607075 0.138325
0.613719 0.613719 0.144969
0.713919 0.620362 0.151935
0.813515 0.627006 0.159907
0.913112 0.633650 0.167880
0.134100 0.696600 0.134100
0.234494 0.703244 0.140744
0.334888 0.709888 0.147388
0.434798 0.716531 0.154838
0.534394 0.723175 0.162810
0.633991 0.729819 0.170782
0.733587 0.736463 0.178755
0.833183 0.743106 0.186727
0.932780 0.749750 0.194700
0.155676 0.812700 0.157740
0.255272 0.819344 0.165712
0.354869 0.825987 0.173685
0.454465 0.832631 0.181657
0.554062 0.839275 0.189630
0.653659 0.845919 0.197603
0.753255 0.852563 0.205575
0.852851 0.859206 0.213547
0.952448 0.865850 0.221520
0.175344 0.928800 0.184560
0.274941 0.935444 0.192533
0.374537 0.942087 0.200505
0.474134 0.948731 0.208478
0.573730 0.955375 0.216450
0.673326 0.962019 0.224422
0.772923 0.968662 0.232395
0.872520 0.975306 0.240368
0.972116 0.981950 0.248340
0.000000 0.000000 0.213840
0.056210 0.000000 0.214106
0.159261 0.000000 0.214372
0.262313 0.005737 0.214637
0.365364 0.013444 0.214903
0.468415 0.021151 0.215169
0.571466 0.028858 0.215435
0.674517 0.036564 0.215700
0.777569 0.044271 0.215966
0.000000 0.102293 0.214734
0.087500 0.110000 0.215000
0.190551 0.117707 0.215266
0.293602 0.125414 0.215531
0.396654 0.133120 0.215797
0.499705 0.140827 0.216063
0.602756 0.148534 0.216329
0.705808 0.156241 0.216594
0.808859 0.163947 0.216860
0.015739 0.221969 0.215628
0.118790 0.229676 0.215894
0.221841 0.237383 0.216160
0.324892 0.245089 0.216425
0.427944 0.252796 0.216691
0.530995 0.260503 0.216957
0.634046 0.268210 0.217223
0.737097 0.275917 0.217489
0.840149 0.283623 0.217754
0.047029 0.341645 0.216522
0.150080 0.349352 0.216788
0.253131 0.357059 0.217054
0.356182 0.364765 0.217319
0.459234 0.372472 0.217585
0.562285 0.380179 0.217851
0.665336 0.387886 0.218117
0.768388 0.395592 0.218382
0.871439 0.403299 0.218648
0.078319 0.461321 0.217416
0.181370 0.469028 0.217682
0.284421 0.476735 0.217948
0.387472 0.484442 0.218214
0.490524 0.492148 0.218479
0.593575 0.499855 0.218745
0.694019 0.506519 0.225269
0.794412 0.513162 0.231912
0.894806 0.519806 0.238556
0.109609 0.580997 0.218310
0.212660 0.588704 0.218576
0.314794 0.596044 0.221044
0.415187 0.602688 0.227687
0.515581 0.609331 0.234331
0.615975 0.615975 0.240975
0.715905 0.622619 0.248392
0.815501 0.629262 0.256365
0.915098 0.635906 0.264338
0.136356 0.698856 0.230106
0.236750 0.705500 0.236750
0.337144 0.712144 0.243394
0.436783 0.718788 0.251295
0.536380 0.725431 0.259267
0.635976 0.732075 0.267240
0.735572 0.738719 0.275212
0.835169 0.745362 0.283185
0.934766 0.752006 0.291157
0.157661 0.814956 0.254197
0.257258 0.821600 0.262170
0.356854 0.828244 0.270142
0.456451 0.834888 0.278115
0.556047 0.841531 0.286087
0.655644 0.848175 0.294060
0.755240 0.854819 0.302032
0.854837 0.861463 0.310005
0.954433 0.868106 0.317977
0.177329 0.931056 0.281017
0.276926 0.937700 0.288990
0.376522 0.944344 0.296962
0.476119 0.950987 0.304935
0.575715 0.957631 0.312907
0.675312 0.964275 0.320880
0.774909 0.970919 0.328852
0.874505 0.977563 0.336825
0.974101 0.984206 0.344797
0.000000 0.000000 0.307681
0.059369 0.000000 0.307946
0.162420 0.000648 0.308212
0.265471 0.008355 0.308478
0.368522 0.016062 0.308743
0.471574 0.023768 0.309009
0.574625 0.031475 0.309275
0.677676 0.039182 0.309541
0.780727 0.046889 0.309806
0.000000 0.104910 0.308575
0.090659 0.112617 0.308840
0.193710 0.120324 0.309106
0.296761 0.128031 0.309372
0.399813 0.135738 0.309638
0.502864 0.143444 0.309903
0.605915 0.151151 0.310169
0.708966 0.158858 0.310435
0.812018 0.166564 0.310700
0.018897 0.224586 0.309468
0.121949 0.232293 0.309734
0.225000 0.240000 0.310000
0.328051 0.247707 0.310266
0.431102 0.255414 0.310532
0.534154 0.263120 0.310797
0.637205 0.270827 0.311063
0.740256 0.278534 0.311329
0.843307 0.286241 0.311595
0.050187 0.344262 0.310362
0.153239 0.351969 0.310628
0.256290 0.359676 0.310894
0.359341 0.367383 0.311160
0.462392 0.375089 0.311425
0.565444 0.382796 0.311691
0.668495 0.390503 0.311957
0.771546 0.398210 0.312223
0.874598 0.405917 0.312489
0.081478 0.463939 0.311256
0.184529 0.471645 0.311522
0.287580 0.479352 0.311788
0.390631 0.487059 0.312054
0.493682 0.494765 0.312319
0.595881 0.502131 0.314631
0.696275 0.508775 0.321275
0.796669 0.515419 0.327919
0.897062 0.522062 0.334562
0.112767 0.583614 0.312150
0.215819 0.591321 0.312416
0.317050 0.598300 0.317050
0.417444 0.604944 0.323694
0.517837 0.611587 0.330337
0.618231 0.618231 0.336981
0.717890 0.624875 0.344850
0.817487 0.631519 0.352823
0.917083 0.638162 0.360795
0.138613 0.701113 0.326113
0.239006 0.707756 0.332756
0.339172 0.714400 0.339780
0.438769 0.721044 0.347752
0.538365 0.727688 0.355725
0.637961 0.734331 0.363698
0.737558 0.740975 0.371670
0.837155 0.747619 0.379642
0.936751 0.754263 0.387615
0.159647 0.817213 0.350655
0.259243 0.823856 0.358627
0.358840 0.830500 0.366600
0.458436 0.837144 0.374572
0.558033 0.843788 0.382545
0.657629 0.850431 0.390517
0.757226 0.857075 0.398490
0.856822 0.863719 0.406462
0.956419 0.870362 0.414435
0.179315 0.933312 0.377475
0.278911 0.939956 0.385447
0.378508 0.946600 0.393420
0.478104 0.953244 0.401392
0.577701 0.959888 0.409365
0.677297 0.966531 0.417337
0.776894 0.973175 0.425310
0.876490 0.979819 0.433282
0.976087 0.986463 0.441255
0.000000 0.000000 0.401521
0.062527 0.000000 0.401787
0.165579 0.003265 0.402052
0.268630 0.010972 0.402318
0.371681 0.018679 0.402584
0.474733 0.026386 0.402849
0.577784 0.034092 0.403115
0.680835 0.041799 0.403381
0.783886 0.049506 0.403647
0.000000 0.107528 0.402415
0.093817 0.115235 0.402680
0.196869 0.122941 0.402946
0.299920 0.130648 0.403212
0.402971 0.138355 0.403478
0.506022 0.146061 0.403743
0.609074 0.153768 0.404009
0.712125 0.161475 0.404275
0.815176 0.169182 0.404541
0.022056 0.227204 0.403309
0.125108 0.234911 0.403575
0.228159 0.242617 0.403840
0.331210 0.250324 0.404106
0.434261 0.258031 0.404372
0.537313 0.265738 0.404637
0.640364 0.273444 0.404903
0.743415 0.281151 0.405169
0.846466 0.288858 0.405435
0.053346 0.346880 0.404203
0.156397 0.354586 0.404469
0.259449 0.362293 0.404734
0.362500 0.370000 0.405000
0.465551 0.377707 0.405266
0.568603 0.385414 0.405531
0.671654 0.393120 0.405797
0.774705 0.400827 0.406063
0.876969 0.408219 0.408219
0.084636 0.466556 0.405097
0.187688 0.474262 0.405362
0.290739 0.481969 0.405628
0.393790 0.489676 0.405894
0.496841 0.497383 0.406160
0.598137 0.504387 0.410637
0.698531 0.511031 0.417281
0.798925 0.517675 0.423925
0.899319 0.524319 0.430569
0.115926 0.586232 0.405991
0.218912 0.593912 0.406412
0.319306 0.600556 0.413056
0.419700 0.607200 0.419700
0.520094 0.613844 0.426344
0.620279 0.620487 0.433335
0.719875 0.627131 0.441307
0.819472 0.633775 0.449280
0.919069 0.640419 0.457252
0.140869 0.703369 0.422119
0.241262 0.710012 0.428762
0.341158 0.716656 0.436238
0.440754 0.723300 0.444210
0.540350 0.729944 0.452182
0.639947 0.736587 0.460155
0.739544 0.743231 0.468128
0.839140 0.749875 0.476100
0.938736 0.756519 0.484073
0.161632 0.819469 0.447112
0.261229 0.826113 0.455085
0.360825 0.832756 0.463057
0.460422 0.839400 0.471030
0.560018 0.846044 0.479002
0.659615 0.852688 0.486975
0.759212 0.859331 0.494947
0.858808 0.865975 0.502920
0.958404 0.872619 0.510892
0.181300 0.935569 0.473932
0.280897 0.942213 0.481905
0.380493 0.948856 0.489877
0.480090 0.955500 0.497850
0.579686 0.962144 0.505822
0.679283 0.968787 0.513795
0.778879 0.975431 0.521767
0.878476 0.982075 0.529740
0.978073 0.988719 0.537712
0.000000 0.000000 0.495361
0.065686 0.000000 0.495627
0.168738 0.005882 0.495893
0.271789 0.013589 0.496158
0.374840 0.021296 0.496424
0.477891 0.029003 0.496690
0.580942 0.036709 0.496955
0.683994 0.044416 0.497221
0.787045 0.052123 0.497487
0.000000 0.110145 0.496255
0.096976 0.117852 0.496521
0.200027 0.125558 0.496787
0.303079 0.133265 0.497052
0.406130 0.140972 0.497318
0.509181 0.148679 0.497584
0.612233 0.156386 0.497850
0.715284 0.164092 0.498115
0.818335 0.171799 0.498381
0.025215 0.229821 0.497149
0.128266 0.237528 0.497415
0.231318 0.245235 0.497681
0.334369 0.252941 0.497946
0.437420 0.260648 0.498212
0.540471 0.268355 0.498478
0.643522 0.276062 0.498744
0.746574 0.283768 0.499009
0.849625 0.291475 0.499275
0.056505 0.349497 0.498043
0.159556 0.357204 0.498309
0.262607 0.364911 0.498574
0.365659 0.372617 0.498840
0.468710 0.380324 0.499106
0.571761 0.388031 0.499372
0.674813 0.395738 0.499638
0.777864 0.403444 0.499903
0.879225 0.410475 0.504225
0.087795 0.469173 0.498937
0.190846 0.476880 0.499203
0.293897 0.484586 0.499468
0.396949 0.492293 0.499734
0.500000 0.500000 0.500000
0.600394 0.506644 0.506644
0.700788 0.513288 0.513288
0.801181 0.519931 0.519931
0.901386 0.526575 0.526890
0.119085 0.588849 0.499831
0.221169 0.596169 0.502419
0.321562 0.602812 0.509062
0.421956 0.609456 0.515706
0.522350 0.616100 0.522350
0.622264 0.622744 0.529792
0.721861 0.629387 0.537765
0.821458 0.636031 0.545738
0.921054 0.642675 0.553710
0.143125 0.705625 0.518125
0.243519 0.712269 0.524769
0.343143 0.718913 0.532695
0.442740 0.725556 0.540667
0.542336 0.732200 0.548640
0.641933 0.738844 0.556613
0.741529 0.745487 0.564585
0.841126 0.752131 0.572558
0.940722 0.758775 0.580530
0.163618 0.821725 0.543570
0.263214 0.828369 0.551542
0.362811 0.835012 0.559515
0.462407 0.841656 0.567488
0.562004 0.848300 0.575460
0.661601 0.854944 0.583433
0.761197 0.861587 0.591405
0.860793 0.868231 0.599378
0.960390 0.874875 0.607350
0.183286 0.937825 0.570390
0.282882 0.944469 0.578363
0.382479 0.951113 0.586335
0.482075 0.957756 0.594307
0.581672 0.964400 0.602280
0.681268 0.971044 0.610252
0.780865 0.977688 0.618225
0.880462 0.984331 0.626197
0.980058 0.990975 0.634170
0.000000 0.000000 0.589201
0.068845 0.000793 0.589467
0.171896 0.008500 0.589733
0.274947 0.016207 0.589998
0.377999 0.023913 0.590264
0.481050 0.031620 0.590530
0.584101 0.039327 0.590796
0.687152 0.047033 0.591062
0.790204 0.054740 0.591327
0.000000 0.112762 0.590095
0.100135 0.120469 0.590361
0.203186 0.128176 0.590627
0.306237 0.135883 0.590892
0.409289 0.143589 0.591158
0.512340 0.151296 0.591424
0.615391 0.159003 0.591690
0.718442 0.166710 0.591955
0.821494 0.174416 0.592221
0.028374 0.232438 0.590989
0.131425 0.240145 0.591255
0.234476 0.247852 0.591521
0.337527 0.255558 0.591787
0.440579 0.263265 0.592052
0.543630 0.270972 0.592318
0.646681 0.278679 0.592584
0.749732 0.286385 0.592849
0.852784 0.294092 0.593115
0.059664 0.352114 0.591883
0.162715 0.359821 0.592149
0.265766 0.367528 0.592415
0.368818 0.375235 0.592681
0.471869 0.382941 0.592946
0.574920 0.390648 0.593212
0.677971 0.398355 0.593478
0.781022 0.406061 0.593743
0.881481 0.412731 0.600231
0.090954 0.471790 0.592777
0.194005 0.479497 0.593043
0.297056 0.487204 0.593309
0.400108 0.494911 0.593575
0.502256 0.502256 0.596006
0.602650 0.508900 0.602650
0.703044 0.515544 0.609294
0.803438 0.522188 0.615938
0.903371 0.528831 0.623347
0.122244 0.591466 0.593671
0.223425 0.598425 0.598425
0.323819 0.605069 0.605069
0.424212 0.611712 0.611712
0.524606 0.618356 0.618356
0.624250 0.625000 0.626250
0.723846 0.631644 0.634222
0.823443 0.638288 0.642195
0.923040 0.644931 0.650168
0.145381 0.707881 0.614131
0.245532 0.714525 0.621180
0.345129 0.721169 0.629153
0.444725 0.727812 0.637125
0.544322 0.734456 0.645097
0.643918 0.741100 0.653070
0.743514 0.747744 0.661042
0.843111 0.754387 0.669015
0.942708 0.761031 0.676988
0.165604 0.823981 0.640027
0.265200 0.830625 0.648000
0.364797 0.837269 0.655972
0.464393 0.843912 0.663945
0.563990 0.850556 0.671918
0.663586 0.857200 0.679890
0.763182 0.863844 0.687863
0.862779 0.870487 0.695835
0.962375 0.877131 0.703807
0.185271 0.940081 0.666847
0.284868 0.946725 0.674820
0.384464 0.953369 0.682793
0.484061 0.960012 0.690765
0.583658 0.966656 0.698738
0.683254 0.973300 0.706710
0.782851 0.979944 0.714682
0.882447 0.986587 0.722655
0.982043 0.993231 0.730627
0.000000 0.000000 0.683041
0.072004 0.003410 0.683307
0.175055 0.011117 0.683573
0.278106 0.018824 0.683839
0.381157 0.026530 0.684105
0.484209 0.034237 0.684370
0.587260 0.041944 0.684636
0.690311 0.049651 0.684902
0.793362 0.057358 0.685168
0.000242 0.115380 0.683935
0.103294 0.123086 0.684201
0.206345 0.130793 0.684467
0.309396 0.138500 0.684733
0.412447 0.146207 0.684998
0.515499 0.153913 0.685264
0.618550 0.161620 0.685530
0.721601 0.169327 0.685796
0.824653 0.177033 0.686061
0.031532 0.235056 0.684829
0.134584 0.242762 0.685095
0.237635 0.250469 0.685361
0.340686 0.258176 0.685627
0.443738 0.265883 0.685892
0.546789 0.273589 0.686158
0.649840 0.281296 0.686424
0.752891 0.289003 0.686690
0.855942 0.296709 0.686955
0.062823 0.354732 0.685724
0.165874 0.362438 0.685989
0.268925 0.370145 0.686255
0.371976 0.377852 0.686521
0.475027 0.385558 0.686787
0.578079 0.393265 0.687052
0.681130 0.400972 0.687318
0.783344 0.408344 0.689594
0.883738 0.414988 0.696238
0.094113 0.474408 0.686617
0.197164 0.482114 0.686883
0.300215 0.489821 0.687149
0.403266 0.497528 0.687415
0.504513 0.504513 0.692013
0.604906 0.511156 0.698656
0.705300 0.517800 0.705300
0.805694 0.524444 0.711944
0.905357 0.531088 0.719805
0.125287 0.594037 0.687787
0.225681 0.600681 0.694431
0.326075 0.607325 0.701075
0.426469 0.613969 0.707719
0.526639 0.620613 0.714735
0.626235 0.627256 0.722707
0.725832 0.633900 0.730680
0.825429 0.640544 0.738652
0.925025 0.647188 0.746625
0.147637 0.710137 0.710137
0.247518 0.716781 0.717638
0.347114 0.723425 0.725610
0.446711 0.730069 0.733583
0.546307 0.736712 0.741555
0.645904 0.743356 0.749528
0.745500 0.750000 0.757500
0.845097 0.756644 0.765473
0.944693 0.763288 0.773445
0.167589 0.826237 0.736485
0.267186 0.832881 0.744457
0.366782 0.839525 0.752430
0.466379 0.846169 0.760402
0.565975 0.852812 0.768375
0.665571 0.859456 0.776348
0.765168 0.866100 0.784320
0.864764 0.872744 0.792292
0.964361 0.879387 0.800265
0.187257 0.942338 0.763305
0.286853 0.948981 0.771277
0.386450 0.955625 0.779250
0.486046 0.962269 0.787223
0.585643 0.968912 0.795195
0.685240 0.975556 0.803168
0.784836 0.982200 0.811140
0.884433 0.988844 0.819113
0.984029 0.995487 0.827085
0.000000 0.000000 0.776882
0.075162 0.006027 0.777147
0.178214 0.013734 0.777413
0.281265 0.021441 0.777679
0.384316 0.029148 0.777945
0.487368 0.036855 0.778210
0.590419 0.044561 0.778476
0.693470 0.052268 0.778742
0.796521 0.059975 0.779008
0.003401 0.117997 0.777776
0.106452 0.125703 0.778041
0.209504 0.133410 0.778307
0.312555 0.141117 0.778573
0.415606 0.148824 0.778839
0.518657 0.156530 0.779104
0.621709 0.164237 0.779370
0.724760 0.171944 0.779636
0.827811 0.179651 0.779902
0.034691 0.237673 0.778670
0.137742 0.245379 0.778936
0.240794 0.253086 0.779201
0.343845 0.260793 0.779467
0.446896 0.268500 0.779733
0.549948 0.276206 0.779998
0.652999 0.283913 0.780264
0.756050 0.291620 0.780530
0.859101 0.299327 0.780796
0.065981 0.357349 0.779564
0.169033 0.365055 0.779829
0.272084 0.372762 0.780095
0.375135 0.380469 0.780361
0.478186 0.388176 0.780627
0.581237 0.395883 0.780892
0.684289 0.403589 0.781158
0.785600 0.410600 0.785600
0.885994 0.417244 0.792244
0.097271 0.477025 0.780458
0.200322 0.484731 0.780724
0.303374 0.492438 0.780989
0.406375 0.500125 0.781375
0.506769 0.506769 0.788019
0.607163 0.513413 0.794663
0.707556 0.520056 0.801306
0.807746 0.526700 0.808290
0.907343 0.533344 0.816263
0.127544 0.596294 0.783794
0.227938 0.602938 0.790438
0.328331 0.609581 0.797081
0.428725 0.616225 0.803725
0.528624 0.622869 0.811192
0.628221 0.629512 0.819165
0.727818 0.636156 0.827137
0.827414 0.642800 0.835110
0.927010 0.649444 0.843082
0.149894 0.712394 0.806144
0.249503 0.719037 0.814095
0.349100 0.725681 0.822068
0.448696 0.732325 0.830040
0.548292 0.738969 0.838012
0.647889 0.745613 0.845985
0.747485 0.752256 0.853957
0.847082 0.758900 0.861930
0.946678 0.765544 0.869903
0.169575 0.828494 0.832943
0.269171 0.835137 0.840915
0.368767 0.841781 0.848887
0.468364 0.848425 0.856860
0.567961 0.855069 0.864833
0.667557 0.861712 0.872805
0.767153 0.868356 0.880777
0.866750 0.875000 0.888750
0.966346 0.881644 0.896722
0.189243 0.944594 0.859762
0.288839 0.951237 0.867735
0.388436 0.957881 0.875707
0.488032 0.964525 0.883680
0.587628 0.971169 0.891652
0.687225 0.977812 0.899625
0.786822 0.984456 0.907598
0.886418 0.991100 0.915570
0.986014 0.997744 0.923542
0.000000 0.000938 0.870722
0.078321 0.008645 0.870988
0.181373 0.016352 0.871254
0.284424 0.024058 0.871519
0.387475 0.031765 0.871785
0.490526 0.039472 0.872051
0.593578 0.047179 0.872317
0.696629 0.054885 0.872582
0.799680 0.062592 0.872848
0.006560 0.120614 0.871616
0.109611 0.128321 0.871882
0.212663 0.136027 0.872147
0.315714 0.143734 0.872413
0.418765 0.151441 0.872679
0.521816 0.159148 0.872945
0.624868 0.166855 0.873210
0.727919 0.174561 0.873476
0.830970 0.182268 0.873742
0.037850 0.240290 0.872510
0.140901 0.247997 0.872776
0.243952 0.255703 0.873042
0.347004 0.263410 0.873307
0.450055 0.271117 0.873573
0.553106 0.278824 0.873839
0.656157 0.286531 0.874104
0.759209 0.294237 0.874370
0.862260 0.301944 0.874636
0.069140 0.359966 0.873404
0.172191 0.367673 0.873670
0.275243 0.375380 0.873935
0.378294 0.383086 0.874201
0.481345 0.390793 0.874467
0.584396 0.398500 0.874733
0.687447 0.406206 0.874999
0.787856 0.412856 0.881606
0.888250 0.419500 0.888250
0.100430 0.479642 0.874298
0.203481 0.487349 0.874564
0.306532 0.495055 0.874829
0.408631 0.502381 0.877381
0.509025 0.509025 0.884025
0.609419 0.515669 0.890669
0.709812 0.522312 0.897312
0.809732 0.528956 0.904748
0.909328 0.535600 0.912720
0.129800 0.598550 0.879800
0.230194 0.605194 0.886444
0.330588 0.611838 0.893088
0.430981 0.618481 0.899731
0.530610 0.625125 0.907650
0.630207 0.631769 0.915623
0.729803 0.638413 0.923595
0.829399 0.645056 0.931567
0.928996 0.651700 0.939540
0.151892 0.714650 0.902580
0.251489 0.721294 0.910553
0.351085 0.727938 0.918525
0.450682 0.734581 0.926497
0.550278 0.741225 0.934470
0.649875 0.747869 0.942443
0.749471 0.754513 0.950415
0.849067 0.761156 0.958387
0.948664 0.767800 0.966360
0.171560 0.830750 0.929400
0.271156 0.837394 0.937372
0.370753 0.844037 0.945345
0.470349 0.850681 0.953318
0.569946 0.857325 0.961290
0.669542 0.863969 0.969262
0.769139 0.870613 0.977235
0.868735 0.877256 0.985208
0.968332 0.883900 0.993180
0.191228 0.946850 0.956220
0.290825 0.953494 0.964193
0.390421 0.960137 0.972165
0.490018 0.966781 0.980137
0.589614 0.973425 0.988110
0.689211 0.980069 0.996083
0.788807 0.986712 1.000000
0.888403 0.993356 1.000000
0.988000 1.000000 1.000000
