assets/luts/cold_blue.cube
TITLE "Cold Blue"
LUT_3D_SIZE 17
DOMAIN_MIN 0.0 0.0 0.0
DOMAIN_MAX 1.0 1.0 1.0
0.000000 0.000000 0.120000
0.001526 0.000000 0.120133
0.053051 0.000000 0.120266
0.104577 0.000000 0.120399
0.156103 0.000000 0.120531
0.207628 0.000000 0.120664
0.259154 0.003120 0.120797
0.310679 0.006974 0.120930
0.362205 0.010827 0.121063
0.413731 0.014680 0.121196
0.465256 0.018534 0.121329
0.516782 0.022387 0.121462
0.568307 0.026240 0.121594
0.619833 0.030094 0.121727
0.671359 0.033947 0.121860
0.722884 0.037801 0.121993
0.774410 0.041654 0.122126
0.000000 0.039838 0.120447
0.017171 0.043691 0.120580
0.068696 0.047545 0.120713
0.120222 0.051398 0.120846
0.171747 0.055251 0.120979
0.223273 0.059105 0.121111
0.274799 0.062958 0.121244
0.326324 0.066812 0.121377
0.377850 0.070665 0.121510
0.429376 0.074518 0.121643
0.480901 0.078372 0.121776
0.532427 0.082225 0.121909
0.583952 0.086079 0.122042
0.635478 0.089932 0.122174
0.687004 0.093785 0.122307
0.738529 0.097639 0.122440
0.790055 0.101492 0.122573
0.000000 0.099676 0.120894
0.032816 0.103529 0.121027
0.084341 0.107383 0.121160
0.135867 0.111236 0.121293
0.187392 0.115089 0.121425
0.238918 0.118943 0.121558
0.290444 0.122796 0.121691
0.341969 0.126650 0.121824
0.393495 0.130503 0.121957
0.445021 0.134356 0.122090
0.496546 0.138210 0.122223
0.548072 0.142063 0.122356
0.599598 0.145917 0.122489
0.651123 0.149770 0.122621
0.702649 0.153623 0.122754
0.754174 0.157477 0.122887
0.805700 0.161330 0.123020
0.000000 0.159514 0.121341
0.048461 0.163367 0.121474
0.099986 0.167221 0.121607
0.151512 0.171074 0.121740
0.203038 0.174928 0.121872
0.254563 0.178781 0.122005
0.306089 0.182634 0.122138
0.357614 0.186488 0.122271
0.409140 0.190341 0.122404
0.460666 0.194194 0.122537
0.512191 0.198048 0.122670
0.563717 0.201901 0.122803
0.615242 0.205755 0.122936
0.666768 0.209608 0.123068
0.718294 0.213461 0.123201
0.769819 0.217315 0.123334
0.821345 0.221168 0.123467
0.012580 0.219352 0.121788
0.064106 0.223205 0.121921
0.115631 0.227059 0.122054
0.167157 0.230912 0.122187
0.218683 0.234765 0.122319
0.270208 0.238619 0.122452
0.321734 0.242472 0.122585
0.373259 0.246326 0.122718
0.424785 0.250179 0.122851
0.476311 0.254032 0.122984
0.527836 0.257886 0.123117
0.579362 0.261739 0.123250
0.630887 0.265593 0.123382
0.682413 0.269446 0.123515
0.733939 0.273299 0.123648
0.785464 0.277153 0.123781
0.836990 0.281006 0.123914
0.028225 0.279190 0.122235
0.079751 0.283043 0.122368
0.131276 0.286897 0.122501
0.182802 0.290750 0.122634
0.234328 0.294604 0.122767
0.285853 0.298457 0.122899
0.337379 0.302310 0.123032
0.388904 0.306164 0.123165
0.440430 0.310017 0.123298
0.491956 0.313870 0.123431
0.543481 0.317724 0.123564
0.595007 0.321577 0.123697
0.646533 0.325431 0.123830
0.698058 0.329284 0.123962
0.749584 0.333137 0.124095
0.801109 0.336991 0.124228
0.852635 0.340844 0.124361
0.043870 0.339028 0.122682
0.095396 0.342881 0.122815
0.146921 0.346735 0.122948
0.198447 0.350588 0.123081
0.249973 0.354442 0.123214
0.301498 0.358295 0.123346
0.353024 0.362148 0.123479
0.404549 0.366002 0.123612
0.456075 0.369855 0.123745
0.507601 0.373708 0.123878
0.559126 0.377562 0.124011
0.610652 0.381415 0.124144
0.662177 0.385268 0.124276
0.713703 0.389122 0.124409
0.765229 0.392975 0.124542
0.816754 0.396829 0.124675
0.868280 0.400682 0.124808
0.059515 0.398866 0.123129
0.111041 0.402719 0.123262
0.162566 0.406573 0.123395
0.214092 0.410426 0.123528
0.265618 0.414280 0.123661
0.317143 0.418133 0.123793
0.368669 0.421986 0.123926
0.420194 0.425840 0.124059
0.471720 0.429693 0.124192
0.523246 0.433546 0.124325
0.574771 0.437400 0.124458
0.626297 0.441253 0.124591
0.677822 0.445107 0.124724
0.729348 0.448960 0.124856
0.780874 0.452813 0.124989
0.831178 0.456178 0.128053
0.881375 0.459500 0.131375
0.075160 0.458704 0.123576
0.126686 0.462557 0.123709
0.178211 0.466411 0.123842
0.229737 0.470264 0.123975
0.281262 0.474117 0.124107
0.332788 0.477971 0.124240
0.384314 0.481824 0.124373
0.435839 0.485678 0.124506
0.487365 0.489531 0.124639
0.538891 0.493384 0.124772
0.590416 0.497238 0.124905
0.641566 0.500941 0.125941
0.691763 0.504263 0.129263
0.741959 0.507584 0.132584
0.792156 0.510906 0.135906
0.842353 0.514228 0.139228
0.892550 0.517550 0.142550
0.090805 0.518542 0.124023
0.142331 0.522395 0.124156
0.193856 0.526249 0.124289
0.245382 0.530102 0.124422
0.296907 0.533956 0.124554
0.348433 0.537809 0.124687
0.399959 0.541662 0.124820
0.451484 0.545516 0.124953
0.502150 0.549025 0.127150
0.552347 0.552347 0.130472
0.602544 0.555669 0.133794
0.652741 0.558991 0.137116
0.702937 0.562312 0.140437
0.753134 0.565634 0.143759
0.803331 0.568956 0.147081
0.853480 0.572278 0.150484
0.903278 0.575600 0.154470
0.106450 0.578380 0.124470
0.157976 0.582233 0.124603
0.209501 0.586087 0.124736
0.261027 0.589940 0.124869
0.312538 0.593788 0.125038
0.362734 0.597109 0.128359
0.412931 0.600431 0.131681
0.463128 0.603753 0.135003
0.513325 0.607075 0.138325
0.563522 0.610397 0.141647
0.613719 0.613719 0.144969
0.663916 0.617041 0.148291
0.713919 0.620362 0.151935
0.763717 0.623684 0.155921
0.813515 0.627006 0.159907
0.863314 0.630328 0.163894
0.913112 0.633650 0.167880
0.122095 0.638218 0.124917
0.173122 0.641872 0.126247
0.223319 0.645194 0.129569
0.273516 0.648516 0.132891
0.323712 0.651837 0.136212
0.373909 0.655159 0.139534
0.424106 0.658481 0.142856
0.474303 0.661803 0.146178
0.524500 0.665125 0.149500
0.574358 0.668447 0.153386
0.624157 0.671769 0.157373
0.673955 0.675091 0.161359
0.723753 0.678412 0.165345
0.773551 0.681734 0.169331
0.823349 0.685056 0.173317
0.873148 0.688378 0.177304
0.922946 0.691700 0.181290
0.134100 0.696600 0.134100
0.184297 0.699922 0.137422
0.234494 0.703244 0.140744
0.284691 0.706566 0.144066
0.334888 0.709888 0.147388
0.384999 0.713209 0.150851
0.434798 0.716531 0.154838
0.484596 0.719853 0.158824
0.534394 0.723175 0.162810
0.584192 0.726497 0.166796
0.633991 0.729819 0.170782
0.683789 0.733141 0.174769
0.733587 0.736463 0.178755
0.783385 0.739784 0.182741
0.833183 0.743106 0.186727
0.882982 0.746428 0.190714
0.932780 0.749750 0.194700
0.145275 0.754650 0.145275
0.195472 0.757972 0.148597
0.245439 0.761294 0.152302
0.295237 0.764616 0.156289
0.345035 0.767937 0.160275
0.394833 0.771259 0.164261
0.444632 0.774581 0.168247
0.494430 0.777903 0.172234
0.544228 0.781225 0.176220
0.594026 0.784547 0.180206
0.643825 0.787869 0.184193
0.693623 0.791191 0.188179
0.743421 0.794512 0.192165
0.793219 0.797834 0.196151
0.843017 0.801156 0.200138
0.892816 0.804478 0.204124
0.942614 0.807800 0.208110
0.155676 0.812700 0.157740
0.205474 0.816022 0.161726
0.255272 0.819344 0.165712
0.305071 0.822666 0.169699
0.354869 0.825987 0.173685
0.404667 0.829309 0.177671
0.454465 0.832631 0.181657
0.504264 0.835953 0.185644
0.554062 0.839275 0.189630
0.603860 0.842597 0.193616
0.653659 0.845919 0.197603
0.703457 0.849241 0.201589
0.753255 0.852563 0.205575
0.803053 0.855884 0.209561
0.852851 0.859206 0.213547
0.902650 0.862528 0.217534
0.952448 0.865850 0.221520
0.165510 0.870750 0.171150
0.215308 0.874072 0.175136
0.265106 0.877394 0.179122
0.314905 0.880716 0.183109
0.364703 0.884038 0.187095
0.414501 0.887359 0.191081
0.464299 0.890681 0.195067
0.514098 0.894003 0.199054
0.563896 0.897325 0.203040
0.613694 0.900647 0.207026
0.663493 0.903969 0.211012
0.713291 0.907291 0.214999
0.763089 0.910613 0.218985
0.812887 0.913934 0.222971
0.862685 0.917256 0.226958
0.912484 0.920578 0.230944
0.962282 0.923900 0.234930
0.175344 0.928800 0.184560
0.225142 0.932122 0.188546
0.274941 0.935444 0.192533
0.324739 0.938766 0.196519
0.374537 0.942087 0.200505
0.424335 0.945409 0.204491
0.474134 0.948731 0.208478
0.523932 0.952053 0.212464
0.573730 0.955375 0.216450
0.623528 0.958697 0.220436
0.673326 0.962019 0.224422
0.723125 0.965341 0.228409
0.772923 0.968662 0.232395
0.822721 0.971984 0.236381
0.872520 0.975306 0.240368
0.922318 0.978628 0.244354
0.972116 0.981950 0.248340
0.000000 0.000000 0.166920
0.003105 0.000000 0.167053
0.054631 0.000000 0.167186
0.106156 0.000000 0.167319
0.157682 0.000000 0.167452
0.209208 0.000576 0.167584
0.260733 0.004429 0.167717
0.312259 0.008282 0.167850
0.363784 0.012136 0.167983
0.415310 0.015989 0.168116
0.466836 0.019842 0.168249
0.518361 0.023696 0.168382
0.569887 0.027549 0.168515
0.621412 0.031403 0.168648
0.672938 0.035256 0.168780
0.724464 0.039109 0.168913
0.775989 0.042963 0.169046
0.000000 0.041147 0.167367
0.018750 0.045000 0.167500
0.070276 0.048853 0.167633
0.121801 0.052707 0.167766
0.173327 0.056560 0.167899
0.224853 0.060414 0.168032
0.276378 0.064267 0.168164
0.327904 0.068120 0.168297
0.379429 0.071974 0.168430
0.430955 0.075827 0.168563
0.482481 0.079680 0.168696
0.534006 0.083534 0.168829
0.585532 0.087387 0.168962
0.637058 0.091240 0.169094
0.688583 0.095094 0.169227
0.740109 0.098947 0.169360
0.791634 0.102801 0.169493
0.000000 0.100985 0.167814
0.034395 0.104838 0.167947
0.085921 0.108691 0.168080
0.137446 0.112545 0.168213
0.188972 0.116398 0.168346
0.240498 0.120251 0.168479
0.292023 0.124105 0.168611
0.343549 0.127958 0.168744
0.395074 0.131812 0.168877
0.446600 0.135665 0.169010
0.498126 0.139518 0.169143
0.549651 0.143372 0.169276
0.601177 0.147225 0.169409
0.652702 0.151079 0.169542
0.704228 0.154932 0.169674
0.755754 0.158785 0.169807
0.807279 0.162639 0.169940
0.000000 0.160823 0.168261
0.050040 0.164676 0.168394
0.101566 0.168529 0.168527
0.153091 0.172383 0.168660
0.204617 0.176236 0.168793
0.256142 0.180089 0.168926
0.307668 0.183943 0.169058
0.359194 0.187796 0.169191
0.410719 0.191650 0.169324
0.462245 0.195503 0.169457
0.513771 0.199356 0.169590
0.565296 0.203210 0.169723
0.616822 0.207063 0.169856
0.668347 0.210917 0.169989
0.719873 0.214770 0.170121
0.771399 0.218623 0.170254
0.822924 0.222477 0.170387
0.014159 0.220661 0.168708
0.065685 0.224514 0.168841
0.117211 0.228367 0.168974
0.168736 0.232221 0.169107
0.220262 0.236074 0.169240
0.271787 0.239928 0.169372
0.323313 0.243781 0.169505
0.374839 0.247634 0.169638
0.426364 0.251488 0.169771
0.477890 0.255341 0.169904
0.529416 0.259194 0.170037
0.580941 0.263048 0.170170
0.632467 0.266901 0.170303
0.683992 0.270755 0.170435
0.735518 0.274608 0.170568
0.787044 0.278461 0.170701
0.838569 0.282315 0.170834
0.029804 0.280499 0.169155
0.081330 0.284352 0.169288
0.132856 0.288205 0.169421
0.184381 0.292059 0.169554
0.235907 0.295912 0.169687
0.287432 0.299765 0.169819
0.338958 0.303619 0.169952
0.390484 0.307472 0.170085
0.442009 0.311326 0.170218
0.493535 0.315179 0.170351
0.545061 0.319032 0.170484
0.596586 0.322886 0.170617
0.648112 0.326739 0.170750
0.699638 0.330593 0.170882
0.751163 0.334446 0.171015
0.802689 0.338299 0.171148
0.854214 0.342153 0.171281
0.045449 0.340337 0.169602
0.096975 0.344190 0.169735
0.148501 0.348043 0.169868
0.200026 0.351897 0.170001
0.251552 0.355750 0.170134
0.303077 0.359604 0.170267
0.354603 0.363457 0.170399
0.406129 0.367310 0.170532
0.457654 0.371164 0.170665
0.509180 0.375017 0.170798
0.560706 0.378870 0.170931
0.612231 0.382724 0.171064
0.663757 0.386577 0.171197
0.715283 0.390430 0.171329
0.766808 0.394284 0.171462
0.818334 0.398137 0.171595
0.869859 0.401991 0.171728
0.061094 0.400175 0.170049
0.112620 0.404028 0.170182
0.164146 0.407881 0.170315
0.215671 0.411735 0.170448
0.267197 0.415588 0.170581
0.318723 0.419442 0.170714
0.370248 0.423295 0.170846
0.421774 0.427148 0.170979
0.473299 0.431002 0.171112
0.524825 0.434855 0.171245
0.576351 0.438708 0.171378
0.627876 0.442562 0.171511
0.679402 0.446415 0.171644
0.730927 0.450268 0.171776
0.782109 0.453984 0.172734
0.832306 0.457306 0.176056
0.882503 0.460628 0.179378
0.076739 0.460013 0.170496
0.128265 0.463866 0.170629
0.179791 0.467719 0.170762
0.231316 0.471573 0.170895
0.282842 0.475426 0.171028
0.334367 0.479279 0.171161
0.385893 0.483133 0.171293
0.437419 0.486986 0.171426
0.488944 0.490840 0.171559
0.540470 0.494693 0.171692
0.591996 0.498546 0.171825
0.642694 0.502069 0.173944
0.692891 0.505391 0.177266
0.743088 0.508713 0.180588
0.793284 0.512034 0.183909
0.843481 0.515356 0.187231
0.893678 0.518678 0.190553
0.092384 0.519851 0.170943
0.143910 0.523704 0.171076
0.195436 0.527557 0.171209
0.246961 0.531411 0.171342
0.298487 0.535264 0.171475
0.350013 0.539118 0.171607
0.401538 0.542971 0.171740
0.453064 0.546824 0.171873
0.503278 0.550153 0.175153
0.553475 0.553475 0.178475
0.603672 0.556797 0.181797
0.653869 0.560119 0.185119
0.704066 0.563441 0.188441
0.754263 0.566763 0.191763
0.804459 0.570084 0.195084
0.854472 0.573406 0.198713
0.904271 0.576728 0.202699
0.108029 0.579689 0.171390
0.159555 0.583542 0.171523
0.211081 0.587395 0.171656
0.262606 0.591249 0.171789
0.313666 0.594916 0.173041
0.363862 0.598237 0.176362
0.414059 0.601559 0.179684
0.464256 0.604881 0.183006
0.514453 0.608203 0.186328
0.564650 0.611525 0.189650
0.614847 0.614847 0.192972
0.665044 0.618169 0.196294
0.714912 0.621491 0.200164
0.764710 0.624812 0.204150
0.814508 0.628134 0.208136
0.864307 0.631456 0.212122
0.914105 0.634778 0.216109
0.123674 0.639527 0.171837
0.174250 0.643000 0.174250
0.224447 0.646322 0.177572
0.274644 0.649644 0.180894
0.324841 0.652966 0.184216
0.375038 0.656288 0.187538
0.425234 0.659609 0.190859
0.475431 0.662931 0.194181
0.525553 0.666253 0.197629
0.575351 0.669575 0.201615
0.625149 0.672897 0.205601
0.674948 0.676219 0.209587
0.724746 0.679541 0.213574
0.774544 0.682863 0.217560
0.824342 0.686184 0.221546
0.874140 0.689506 0.225532
0.923939 0.692828 0.229519
0.135228 0.697728 0.182103
0.185425 0.701050 0.185425
0.235622 0.704372 0.188747
0.285819 0.707694 0.192069
0.336016 0.711016 0.195391
0.385992 0.714338 0.199080
0.435790 0.717659 0.203066
0.485589 0.720981 0.207053
0.535387 0.724303 0.211039
0.585185 0.727625 0.215025
0.634983 0.730947 0.219011
0.684782 0.734269 0.222998
0.734580 0.737591 0.226984
0.784378 0.740912 0.230970
0.834176 0.744234 0.234956
0.883974 0.747556 0.238943
0.933773 0.750878 0.242929
0.146403 0.755778 0.193278
0.196600 0.759100 0.196600
0.246431 0.762422 0.200531
0.296229 0.765744 0.204517
0.346028 0.769066 0.208504
0.395826 0.772388 0.212490
0.445624 0.775709 0.216476
0.495422 0.779031 0.220462
0.545221 0.782353 0.224449
0.595019 0.785675 0.228435
0.644817 0.788997 0.232421
0.694615 0.792319 0.236407
0.744414 0.795641 0.240394
0.794212 0.798963 0.244380
0.844010 0.802284 0.248366
0.893809 0.805606 0.252352
0.943607 0.808928 0.256339
0.156669 0.813828 0.205969
0.206467 0.817150 0.209955
0.256265 0.820472 0.213941
0.306063 0.823794 0.217927
0.355862 0.827116 0.221914
0.405660 0.830437 0.225900
0.455458 0.833759 0.229886
0.505256 0.837081 0.233872
0.555055 0.840403 0.237859
0.604853 0.843725 0.241845
0.654651 0.847047 0.245831
0.704450 0.850369 0.249817
0.754248 0.853691 0.253804
0.804046 0.857012 0.257790
0.853844 0.860334 0.261776
0.903643 0.863656 0.265763
0.953441 0.866978 0.269749
0.166503 0.871878 0.219379
0.216301 0.875200 0.223365
0.266099 0.878522 0.227351
0.315898 0.881844 0.231338
0.365696 0.885166 0.235324
0.415494 0.888487 0.239310
0.465292 0.891809 0.243296
0.515091 0.895131 0.247283
0.564889 0.898453 0.251269
0.614687 0.901775 0.255255
0.664485 0.905097 0.259241
0.714284 0.908419 0.263228
0.764082 0.911741 0.267214
0.813880 0.915063 0.271200
0.863678 0.918384 0.275186
0.913476 0.921706 0.279172
0.963275 0.925028 0.283159
0.176337 0.929928 0.232789
0.226135 0.933250 0.236775
0.275933 0.936572 0.240761
0.325731 0.939894 0.244747
0.375530 0.943216 0.248734
0.425328 0.946538 0.252720
0.475126 0.949859 0.256706
0.524925 0.953181 0.260692
0.574723 0.956503 0.264679
0.624521 0.959825 0.268665
0.674319 0.963147 0.272651
0.724117 0.966469 0.276637
0.773916 0.969791 0.280624
0.823714 0.973113 0.284610
0.873512 0.976434 0.288596
0.923311 0.979756 0.292582
0.973109 0.983078 0.296569
0.000000 0.000000 0.213840
0.004684 0.000000 0.213973
0.056210 0.000000 0.214106
0.107736 0.000000 0.214239
0.159261 0.000000 0.214372
0.210787 0.001884 0.214505
0.262313 0.005737 0.214637
0.313838 0.009591 0.214770
0.365364 0.013444 0.214903
0.416889 0.017298 0.215036
0.468415 0.021151 0.215169
0.519941 0.025004 0.215302
0.571466 0.028858 0.215435
0.622992 0.032711 0.215568
0.674517 0.036564 0.215700
0.726043 0.040418 0.215833
0.777569 0.044271 0.215966
0.000000 0.042455 0.214287
0.020329 0.046309 0.214420
0.071855 0.050162 0.214553
0.123381 0.054015 0.214686
0.174906 0.057869 0.214819
0.226432 0.061722 0.214952
0.277958 0.065576 0.215085
0.329483 0.069429 0.215217
0.381009 0.073282 0.215350
0.432534 0.077136 0.215483
0.484060 0.080989 0.215616
0.535586 0.084842 0.215749
0.587111 0.088696 0.215882
0.638637 0.092549 0.216015
0.690163 0.096403 0.216147
0.741688 0.100256 0.216280
0.793214 0.104109 0.216413
0.000000 0.102293 0.214734
0.035974 0.106147 0.214867
0.087500 0.110000 0.215000
0.139026 0.113853 0.215133
0.190551 0.117707 0.215266
0.242077 0.121560 0.215399
0.293602 0.125414 0.215531
0.345128 0.129267 0.215664
0.396654 0.133120 0.215797
0.448179 0.136974 0.215930
0.499705 0.140827 0.216063
0.551231 0.144680 0.216196
0.602756 0.148534 0.216329
0.654282 0.152387 0.216462
0.705808 0.156241 0.216594
0.757333 0.160094 0.216727
0.808859 0.163947 0.216860
0.000094 0.162131 0.215181
0.051619 0.165985 0.215314
0.103145 0.169838 0.215447
0.154671 0.173691 0.215580
0.206196 0.177545 0.215713
0.257722 0.181398 0.215846
0.309248 0.185251 0.215979
0.360773 0.189105 0.216111
0.412299 0.192958 0.216244
0.463824 0.196812 0.216377
0.515350 0.200665 0.216510
0.566876 0.204518 0.216643
0.618401 0.208372 0.216776
0.669927 0.212225 0.216909
0.721452 0.216079 0.217041
0.772978 0.219932 0.217174
0.824504 0.223785 0.217307
0.015739 0.221969 0.215628
0.067264 0.225823 0.215761
0.118790 0.229676 0.215894
0.170316 0.233529 0.216027
0.221841 0.237383 0.216160
0.273367 0.241236 0.216293
0.324892 0.245089 0.216425
0.376418 0.248943 0.216558
0.427944 0.252796 0.216691
0.479469 0.256650 0.216824
0.530995 0.260503 0.216957
0.582521 0.264356 0.217090
0.634046 0.268210 0.217223
0.685572 0.272063 0.217356
0.737097 0.275917 0.217489
0.788623 0.279770 0.217621
0.840149 0.283623 0.217754
0.031384 0.281807 0.216075
0.082909 0.285661 0.216208
0.134435 0.289514 0.216341
0.185961 0.293367 0.216474
0.237486 0.297221 0.216607
0.289012 0.301074 0.216740
0.340537 0.304927 0.216872
0.392063 0.308781 0.217005
0.443589 0.312634 0.217138
0.495114 0.316488 0.217271
0.546640 0.320341 0.217404
0.598166 0.324194 0.217537
0.649691 0.328048 0.217670
0.701217 0.331901 0.217803
0.752742 0.335755 0.217936
0.804268 0.339608 0.218068
0.855794 0.343461 0.218201
0.047029 0.341645 0.216522
0.098554 0.345499 0.216655
0.150080 0.349352 0.216788
0.201606 0.353205 0.216921
0.253131 0.357059 0.217054
0.304657 0.360912 0.217187
0.356182 0.364765 0.217319
0.407708 0.368619 0.217452
0.459234 0.372472 0.217585
0.510759 0.376326 0.217718
0.562285 0.380179 0.217851
0.613811 0.384032 0.217984
0.665336 0.387886 0.218117
0.716862 0.391739 0.218250
0.768388 0.395592 0.218382
0.819913 0.399446 0.218515
0.871439 0.403299 0.218648
0.062674 0.401483 0.216969
0.114199 0.405337 0.217102
0.165725 0.409190 0.217235
0.217251 0.413043 0.217368
0.268776 0.416897 0.217501
0.320302 0.420750 0.217634
0.371828 0.424604 0.217767
0.423353 0.428457 0.217899
0.474879 0.432310 0.218032
0.526404 0.436164 0.218165
0.577930 0.440017 0.218298
0.629456 0.443870 0.218431
0.680981 0.447724 0.218564
0.732507 0.451577 0.218697
0.783238 0.455112 0.220737
0.833434 0.458434 0.224059
0.883631 0.461756 0.227381
0.078319 0.461321 0.217416
0.129844 0.465175 0.217549
0.181370 0.469028 0.217682
0.232896 0.472881 0.217815
0.284421 0.476735 0.217948
0.335947 0.480588 0.218081
0.387472 0.484442 0.218214
0.438998 0.488295 0.218346
0.490524 0.492148 0.218479
0.542049 0.496002 0.218612
0.593575 0.499855 0.218745
0.643822 0.503197 0.221947
0.694019 0.506519 0.225269
0.744216 0.509841 0.228591
0.794412 0.513162 0.231912
0.844609 0.516484 0.235234
0.894806 0.519806 0.238556
0.093964 0.521159 0.217863
0.145489 0.525013 0.217996
0.197015 0.528866 0.218129
0.248541 0.532719 0.218262
0.300066 0.536573 0.218395
0.351592 0.540426 0.218528
0.403118 0.544280 0.218661
0.454209 0.547959 0.219834
0.504406 0.551281 0.223156
0.554603 0.554603 0.226478
0.604800 0.557925 0.229800
0.654997 0.561247 0.233122
0.705194 0.564569 0.236444
0.755391 0.567891 0.239766
0.805588 0.571213 0.243088
0.855465 0.574534 0.246941
0.905263 0.577856 0.250927
0.109609 0.580997 0.218310
0.161134 0.584851 0.218443
0.212660 0.588704 0.218576
0.264186 0.592557 0.218709
0.314794 0.596044 0.221044
0.364991 0.599366 0.224366
0.415187 0.602688 0.227687
0.465384 0.606009 0.231009
0.515581 0.609331 0.234331
0.565778 0.612653 0.237653
0.615975 0.615975 0.240975
0.666106 0.619297 0.244406
0.715905 0.622619 0.248392
0.765703 0.625941 0.252379
0.815501 0.629262 0.256365
0.865299 0.632584 0.260351
0.915098 0.635906 0.264338
0.125181 0.640806 0.218931
0.175378 0.644128 0.222253
0.225575 0.647450 0.225575
0.275772 0.650772 0.228897
0.325969 0.654094 0.232219
0.376166 0.657416 0.235541
0.426362 0.660737 0.238862
0.476559 0.664059 0.242184
0.526545 0.667381 0.245857
0.576344 0.670703 0.249844
0.626142 0.674025 0.253830
0.675940 0.677347 0.257816
0.725738 0.680669 0.261802
0.775537 0.683991 0.265789
0.825335 0.687312 0.269775
0.875133 0.690634 0.273761
0.924931 0.693956 0.277747
0.136356 0.698856 0.230106
0.186553 0.702178 0.233428
0.236750 0.705500 0.236750
0.286947 0.708822 0.240072
0.337144 0.712144 0.243394
0.386985 0.715466 0.247309
0.436783 0.718788 0.251295
0.486581 0.722109 0.255281
0.536380 0.725431 0.259267
0.586178 0.728753 0.263254
0.635976 0.732075 0.267240
0.685774 0.735397 0.271226
0.735572 0.738719 0.275212
0.785371 0.742041 0.279199
0.835169 0.745362 0.283185
0.884967 0.748684 0.287171
0.934766 0.752006 0.291157
0.147531 0.756906 0.241281
0.197626 0.760228 0.244774
0.247424 0.763550 0.248760
0.297222 0.766872 0.252746
0.347021 0.770194 0.256733
0.396819 0.773516 0.260719
0.446617 0.776837 0.264705
0.496415 0.780159 0.268691
0.546214 0.783481 0.272678
0.596012 0.786803 0.276664
0.645810 0.790125 0.280650
0.695608 0.793447 0.284636
0.745407 0.796769 0.288622
0.795205 0.800091 0.292609
0.845003 0.803412 0.296595
0.894801 0.806734 0.300581
0.944599 0.810056 0.304567
0.157661 0.814956 0.254197
0.207460 0.818278 0.258184
0.257258 0.821600 0.262170
0.307056 0.824922 0.266156
0.356854 0.828244 0.270142
0.406653 0.831566 0.274129
0.456451 0.834888 0.278115
0.506249 0.838209 0.282101
0.556047 0.841531 0.286087
0.605846 0.844853 0.290074
0.655644 0.848175 0.294060
0.705442 0.851497 0.298046
0.755240 0.854819 0.302032
0.805039 0.858141 0.306019
0.854837 0.861463 0.310005
0.904635 0.864784 0.313991
0.954433 0.868106 0.317977
0.167495 0.873006 0.267607
0.217294 0.876328 0.271594
0.267092 0.879650 0.275580
0.316890 0.882972 0.279566
0.366688 0.886294 0.283552
0.416487 0.889616 0.287539
0.466285 0.892937 0.291525
0.516083 0.896259 0.295511
0.565882 0.899581 0.299497
0.615680 0.902903 0.303484
0.665478 0.906225 0.307470
0.715276 0.909547 0.311456
0.765074 0.912869 0.315443
0.814873 0.916191 0.319429
0.864671 0.919512 0.323415
0.914469 0.922834 0.327401
0.964268 0.926156 0.331388
0.177329 0.931056 0.281017
0.227128 0.934378 0.285004
0.276926 0.937700 0.288990
0.326724 0.941022 0.292976
0.376522 0.944344 0.296962
0.426321 0.947666 0.300949
0.476119 0.950987 0.304935
0.525917 0.954309 0.308921
0.575715 0.957631 0.312907
0.625514 0.960953 0.316894
0.675312 0.964275 0.320880
0.725110 0.967597 0.324866
0.774909 0.970919 0.328852
0.824707 0.974241 0.332839
0.874505 0.977563 0.336825
0.924303 0.980884 0.340811
0.974101 0.984206 0.344797
0.000000 0.000000 0.260760
0.006264 0.000000 0.260893
0.057789 0.000000 0.261026
0.109315 0.000000 0.261159
0.160841 0.000000 0.261292
0.212366 0.003193 0.261425
0.263892 0.007046 0.261558
0.315417 0.010900 0.261690
0.366943 0.014753 0.261823
0.418469 0.018606 0.261956
0.469994 0.022460 0.262089
0.521520 0.026313 0.262222
0.573046 0.030166 0.262355
0.624571 0.034020 0.262488
0.676097 0.037873 0.262621
0.727622 0.041726 0.262753
0.779148 0.045580 0.262886
0.000000 0.043764 0.261207
