assets/luts/cold_blue.cube
TITLE "Cold Blue"
LUT_3D_SIZE 5
DOMAIN_MIN 0.0 0.0 0.0
DOMAIN_MAX 1.0 1.0 1.0
0.000000 0.000000 0.120000
0.156103 0.000000 0.120531
0.362205 0.010827 0.121063
0.568307 0.026240 0.121594
0.774410 0.041654 0.122126
0.012580 0.219352 0.121788
0.218683 0.234765 0.122319
0.424785 0.250179 0.122851
0.630887 0.265593 0.123382
0.836990 0.281006 0.123914
0.075160 0.458704 0.123576
0.281262 0.474117 0.124107
0.487365 0.489531 0.124639
0.691763 0.504263 0.129263
0.892550 0.517550 0.142550
0.134100 0.696600 0.134100
0.334888 0.709888 0.147388
0.534394 0.723175 0.162810
0.733587 0.736463 0.178755
0.932780 0.749750 0.194700
0.175344 0.928800 0.184560
0.374537 0.942087 0.200505
0.573730 0.955375 0.216450
0.772923 0.968662 0.232395
0.972116 0.981950 0.248340
0.000000 0.000000 0.307681
0.162420 0.000648 0.308212
0.368522 0.016062 0.308743
0.574625 0.031475 0.309275
0.780727 0.046889 0.309806
0.018897 0.224586 0.309468
0.225000 0.240000 0.310000
0.431102 0.255414 0.310532
0.637205 0.270827 0.311063
0.843307 0.286241 0.311595
0.081478 0.463939 0.311256
0.287580 0.479352 0.311788
0.493682 0.494765 0.312319
0.696275 0.508775 0.321275
0.897062 0.522062 0.334562
0.138613 0.701113 0.326113
0.339172 0.714400 0.339780
0.538365 0.727688 0.355725
0.737558 0.740975 0.371670
0.936751 0.754263 0.387615
0.179315 0.933312 0.377475
0.378508 0.946600 0.393420
0.577701 0.959888 0.409365
0.776894 0.973175 0.425310
0.976087 0.986463 0.441255
0.000000 0.000000 0.495361
0.168738 0.005882 0.495893
0.374840 0.021296 0.496424
0.580942 0.036709 0.496955
0.787045 0.052123 0.497487
0.025215 0.229821 0.497149
0.231318 0.245235 0.497681
0.437420 0.260648 0.498212
0.643522 0.276062 0.498744
0.849625 0.291475 0.499275
0.087795 0.469173 0.498937
0.293897 0.484586 0.499468
0.500000 0.500000 0.500000
0.700788 0.513288 0.513288
0.901386 0.526575 0.526890
0.143125 0.705625 0.518125
0.343143 0.718913 0.532695
0.542336 0.732200 0.548640
0.741529 0.745487 0.564585
0.940722 0.758775 0.580530
0.183286 0.937825 0.570390
0.382479 0.951113 0.586335
0.581672 0.964400 0.602280
0.780865 0.977688 0.618225
0.980058 0.990975 0.634170
0.000000 0.000000 0.683041
0.175055 0.011117 0.683573
0.381157 0.026530 0.684105
0.587260 0.041944 0.684636
0.793362 0.057358 0.685168
0.031532 0.235056 0.684829
0.237635 0.250469 0.685361
0.443738 0.265883 0.685892
0.649840 0.281296 0.686424
0.855942 0.296709 0.686955
0.094113 0.474408 0.686617
0.300215 0.489821 0.687149
0.504513 0.504513 0.692013
0.705300 0.517800 0.705300
0.905357 0.531088 0.719805
0.147637 0.710137 0.710137
0.347114 0.723425 0.725610
0.546307 0.736712 0.741555
0.745500 0.750000 0.757500
0.944693 0.763288 0.773445
0.187257 0.942338 0.763305
0.386450 0.955625 0.779250
0.585643 0.968912 0.795195
0.784836 0.982200 0.811140
0.984029 0.995487 0.827085
0.000000 0.000938 0.870722
0.181373 0.016352 0.871254
0.387475 0.031765 0.871785
0.593578 0.047179 0.872317
0.799680 0.062592 0.872848
0.037850 0.240290 0.872510
0.243952 0.255703 0.873042
0.450055 0.271117 0.873573
0.656157 0.286531 0.874104
0.862260 0.301944 0.874636
0.100430 0.479642 0.874298
0.306532 0.495055 0.874829
0.509025 0.509025 0.884025
0.709812 0.522312 0.897312
0.909328 0.535600 0.912720
0.151892 0.714650 0.902580
0.351085 0.727938 0.918525
0.550278 0.741225 0.934470
0.749471 0.754513 0.950415
0.948664 0.767800 0.966360
0.191228 0.946850 0.956220
0.390421 0.960137 0.972165
0.589614 0.973425 0.988110
0.788807 0.986712 1.000000
0.988000 1.000000 1.000000
