assets/luts/faded_film.cube
TITLE "Faded Film"
LUT_3D_SIZE 9
DOMAIN_MIN 0.0 0.0 0.0
DOMAIN_MAX 1.0 1.0 1.0
0.060000 0.070000 0.060000
0.138780 0.079780 0.069780
0.217559 0.089559 0.079559
0.296339 0.099339 0.089339
0.375118 0.109118 0.099118
0.453898 0.118898 0.108898
0.532678 0.128678 0.118678
0.611457 0.138457 0.128457
0.690237 0.148237 0.138237
0.092899 0.171899 0.092899
0.171679 0.181679 0.102679
0.250458 0.191458 0.112458
0.329238 0.201238 0.122238
0.408018 0.211018 0.132018
0.486797 0.220797 0.141797
0.565577 0.230577 0.151577
0.644356 0.240356 0.161356
0.723136 0.250136 0.171136
0.125798 0.273798 0.125798
0.204578 0.283578 0.135578
0.283358 0.293358 0.145358
0.362137 0.303137 0.155137
0.440917 0.312917 0.164917
0.519696 0.322696 0.174696
0.598476 0.332476 0.184476
0.677256 0.342256 0.194256
0.756035 0.352035 0.204035
0.158698 0.375698 0.158698
0.237477 0.385477 0.168477
0.316257 0.395257 0.178257
0.395036 0.405036 0.188036
0.473816 0.414816 0.197816
0.552596 0.424596 0.207596
0.631375 0.434375 0.217375
0.710155 0.444155 0.227155
0.788934 0.453934 0.236934
0.191597 0.477597 0.191597
0.270376 0.487376 0.201376
0.349156 0.497156 0.211156
0.427936 0.506936 0.220936
0.506715 0.516715 0.230715
0.585495 0.526495 0.240495
0.664274 0.536274 0.250274
0.743054 0.546054 0.260054
0.821834 0.555834 0.269834
0.224496 0.579496 0.224496
0.303276 0.589276 0.234276
0.382055 0.599055 0.244055
0.460835 0.608835 0.253835
0.539614 0.618614 0.263614
0.618394 0.628394 0.273394
0.697174 0.638174 0.283174
0.775953 0.647953 0.292953
0.854733 0.657733 0.302733
0.257395 0.681395 0.257395
0.336175 0.691175 0.267175
0.414954 0.700954 0.276954
0.493734 0.710734 0.286734
0.572514 0.720514 0.296514
0.651293 0.730293 0.306293
0.730073 0.740073 0.316073
0.808852 0.749852 0.325852
0.887632 0.759632 0.335632
0.290294 0.783294 0.290294
0.369074 0.793074 0.300074
0.447854 0.802854 0.309854
0.526633 0.812633 0.319633
0.605413 0.822413 0.329413
0.684192 0.832192 0.339192
0.762972 0.841972 0.348972
0.841752 0.851752 0.358752
0.920531 0.861531 0.368531
0.323194 0.885194 0.323194
0.401973 0.894973 0.332973
0.480753 0.904753 0.342753
0.559532 0.914532 0.352532
0.638312 0.924312 0.362312
0.717092 0.934092 0.372092
0.795871 0.943871 0.381871
0.874651 0.953651 0.391651
0.953430 0.963430 0.401430
0.063321 0.073321 0.132321
0.142101 0.083101 0.142101
0.220880 0.092880 0.151880
0.299660 0.102660 0.161660
0.378440 0.112440 0.171440
0.457219 0.122219 0.181219
0.535999 0.131999 0.190999
0.614778 0.141778 0.200778
0.693558 0.151558 0.210558
0.096220 0.175220 0.165220
0.175000 0.185000 0.175000
0.253780 0.194780 0.184780
0.332559 0.204559 0.194559
0.411339 0.214339 0.204339
0.490118 0.224118 0.214118
0.568898 0.233898 0.223898
0.647678 0.243678 0.233678
0.726457 0.253457 0.243457
0.129120 0.277120 0.198120
0.207899 0.286899 0.207899
0.286679 0.296679 0.217679
0.365458 0.306458 0.227458
0.444238 0.316238 0.237238
0.523018 0.326018 0.247018
0.601797 0.335797 0.256797
0.680577 0.345577 0.266577
0.759356 0.355356 0.276356
0.162019 0.379019 0.231019
0.240798 0.388798 0.240798
0.319578 0.398578 0.250578
0.398358 0.408358 0.260358
0.477137 0.418137 0.270137
0.555917 0.427917 0.279917
0.634696 0.437696 0.289696
0.713476 0.447476 0.299476
0.792256 0.457256 0.309256
0.194918 0.480918 0.263918
0.273698 0.490698 0.273698
0.352477 0.500477 0.283477
0.431257 0.510257 0.293257
0.510036 0.520036 0.303036
0.588816 0.529816 0.312816
0.667596 0.539596 0.322596
0.746375 0.549375 0.332375
0.825155 0.559155 0.342155
0.227817 0.582817 0.296817
0.306597 0.592597 0.306597
0.385376 0.602376 0.316376
0.464156 0.612156 0.326156
0.542936 0.621936 0.335936
0.621715 0.631715 0.345715
0.700495 0.641495 0.355495
0.779274 0.651274 0.365274
0.858054 0.661054 0.375054
0.260716 0.684716 0.329716
0.339496 0.694496 0.339496
0.418276 0.704276 0.349276
0.497055 0.714055 0.359055
0.575835 0.723835 0.368835
0.654614 0.733614 0.378614
0.733394 0.743394 0.388394
0.812174 0.753174 0.398174
0.890953 0.762953 0.407953
0.293616 0.786616 0.362616
0.372395 0.796395 0.372395
0.451175 0.806175 0.382175
0.529954 0.815954 0.391954
0.608734 0.825734 0.401734
0.687514 0.835514 0.411514
0.766293 0.845293 0.421293
0.845073 0.855073 0.431073
0.923852 0.864852 0.440852
0.326515 0.888515 0.395515
0.405294 0.898294 0.405294
0.484074 0.908074 0.415074
0.562854 0.917854 0.424854
0.641633 0.927633 0.434633
0.720413 0.937413 0.444413
0.799192 0.947192 0.454192
0.877972 0.956972 0.463972
0.956752 0.966752 0.473752
0.066642 0.076642 0.204642
0.145422 0.086422 0.214422
0.224202 0.096202 0.224202
0.302981 0.105981 0.233981
0.381761 0.115761 0.243761
0.460540 0.125540 0.253540
0.539320 0.135320 0.263320
0.618100 0.145100 0.273100
0.696879 0.154879 0.282879
0.099542 0.178542 0.237542
0.178321 0.188321 0.247321
0.257101 0.198101 0.257101
0.335880 0.207880 0.266880
0.414660 0.217660 0.276660
0.493440 0.227440 0.286440
0.572219 0.237219 0.296219
0.650999 0.246999 0.305999
0.729778 0.256778 0.315778
0.132441 0.280441 0.270441
0.211220 0.290220 0.280220
0.290000 0.300000 0.290000
0.368780 0.309780 0.299780
0.447559 0.319559 0.309559
0.526339 0.329339 0.319339
0.605118 0.339118 0.329118
0.683898 0.348898 0.338898
0.762678 0.358678 0.348678
0.165340 0.382340 0.303340
0.244120 0.392120 0.313120
0.322899 0.401899 0.322899
0.401679 0.411679 0.332679
0.480458 0.421458 0.342458
0.559238 0.431238 0.352238
0.638018 0.441018 0.362018
0.716797 0.450797 0.371797
0.795577 0.460577 0.381577
0.198239 0.484239 0.336239
0.277019 0.494019 0.346019
0.355798 0.503798 0.355798
0.434578 0.513578 0.365578
0.513358 0.523358 0.375358
0.592137 0.533137 0.385137
0.670917 0.542917 0.394917
0.749696 0.552696 0.404696
0.828476 0.562476 0.414476
0.231138 0.586138 0.369138
0.309918 0.595918 0.378918
0.388698 0.605698 0.388698
0.467477 0.615477 0.398477
0.546257 0.625257 0.408257
0.625036 0.635036 0.418036
0.703816 0.644816 0.427816
0.782596 0.654596 0.437596
0.861375 0.664375 0.447375
0.264038 0.688038 0.402038
0.342817 0.697817 0.411817
0.421597 0.707597 0.421597
0.500376 0.717376 0.431376
0.579156 0.727156 0.441156
0.657936 0.736936 0.450936
0.736715 0.746715 0.460715
0.815495 0.756495 0.470495
0.894274 0.766274 0.480274
0.296937 0.789937 0.434937
0.375716 0.799716 0.444716
0.454496 0.809496 0.454496
0.533276 0.819276 0.464276
0.612055 0.829055 0.474055
0.690835 0.838835 0.483835
0.769614 0.848614 0.493614
0.848394 0.858394 0.503394
0.927174 0.868174 0.513174
0.329836 0.891836 0.467836
0.408616 0.901616 0.477616
0.487395 0.911395 0.487395
0.566175 0.921175 0.497175
0.644954 0.930954 0.506954
0.723734 0.940734 0.516734
0.802514 0.950514 0.526514
0.881293 0.960293 0.536293
0.960073 0.970073 0.546073
0.069964 0.079964 0.276964
0.148743 0.089743 0.286743
0.227523 0.099523 0.296523
0.306302 0.109302 0.306302
0.385082 0.119082 0.316082
0.463862 0.128862 0.325862
0.542641 0.138641 0.335641
0.621421 0.148421 0.345421
0.700200 0.158200 0.355200
0.102863 0.181863 0.309863
0.181642 0.191642 0.319642
0.260422 0.201422 0.329422
0.339202 0.211202 0.339202
0.417981 0.220981 0.348981
0.496761 0.230761 0.358761
0.575540 0.240540 0.368540
0.654320 0.250320 0.378320
0.733100 0.260100 0.388100
0.135762 0.283762 0.342762
0.214542 0.293542 0.352542
0.293321 0.303321 0.362321
0.372101 0.313101 0.372101
0.450880 0.322880 0.381880
0.529660 0.332660 0.391660
0.608440 0.342440 0.401440
0.687219 0.352219 0.411219
0.765999 0.361999 0.420999
0.168661 0.385661 0.375661
0.247441 0.395441 0.385441
0.326220 0.405220 0.395220
0.405000 0.415000 0.405000
0.483780 0.424780 0.414780
0.562559 0.434559 0.424559
0.641339 0.444339 0.434339
0.720118 0.454118 0.444118
0.798898 0.463898 0.453898
0.201560 0.487560 0.408560
0.280340 0.497340 0.418340
0.359120 0.507120 0.428120
0.437899 0.516899 0.437899
0.516679 0.526679 0.447679
0.595458 0.536458 0.457458
0.674238 0.546238 0.467238
0.753018 0.556018 0.477018
0.831797 0.565797 0.486797
0.234460 0.589460 0.441460
0.313239 0.599239 0.451239
0.392019 0.609019 0.461019
0.470798 0.618798 0.470798
0.549578 0.628578 0.480578
0.628358 0.638358 0.490358
0.707137 0.648137 0.500137
0.785917 0.657917 0.509917
0.864696 0.667696 0.519696
0.267359 0.691359 0.474359
0.346138 0.701138 0.484138
0.424918 0.710918 0.493918
0.503698 0.720698 0.503698
0.582477 0.730477 0.513477
0.661257 0.740257 0.523257
0.740036 0.750036 0.533036
0.818816 0.759816 0.542816
0.897596 0.769596 0.552596
0.300258 0.793258 0.507258
0.379038 0.803038 0.517038
0.457817 0.812817 0.526817
0.536597 0.822597 0.536597
0.615376 0.832376 0.546376
0.694156 0.842156 0.556156
0.772936 0.851936 0.565936
0.851715 0.861715 0.575715
0.930495 0.871495 0.585495
0.333157 0.895157 0.540157
0.411937 0.904937 0.549937
0.490716 0.914716 0.559716
0.569496 0.924496 0.569496
0.648276 0.934276 0.579276
0.727055 0.944055 0.589055
0.805835 0.953835 0.598835
0.884614 0.963614 0.608614
0.963394 0.973394 0.618394
0.073285 0.083285 0.349285
0.152064 0.093064 0.359064
0.230844 0.102844 0.368844
0.309624 0.112624 0.378624
0.388403 0.122403 0.388403
0.467183 0.132183 0.398183
0.545962 0.141962 0.407962
0.624742 0.151742 0.417742
0.703522 0.161522 0.427522
0.106184 0.185184 0.382184
0.184964 0.194964 0.391964
0.263743 0.204743 0.401743
0.342523 0.214523 0.411523
0.421302 0.224302 0.421302
0.500082 0.234082 0.431082
0.578862 0.243862 0.440862
0.657641 0.253641 0.450641
0.736421 0.263421 0.460421
0.139083 0.287083 0.415083
0.217863 0.296863 0.424863
0.296642 0.306642 0.434642
0.375422 0.316422 0.444422
0.454202 0.326202 0.454202
0.532981 0.335981 0.463981
0.611761 0.345761 0.473761
0.690540 0.355540 0.483540
0.769320 0.365320 0.493320
0.171982 0.388982 0.447982
0.250762 0.398762 0.457762
0.329542 0.408542 0.467542
0.408321 0.418321 0.477321
0.487101 0.428101 0.487101
0.565880 0.437880 0.496880
0.644660 0.447660 0.506660
0.723440 0.457440 0.516440
0.802219 0.467219 0.526219
0.204882 0.490882 0.480882
0.283661 0.500661 0.490661
0.362441 0.510441 0.500441
0.441220 0.520220 0.510220
0.520000 0.530000 0.520000
0.598780 0.539780 0.529780
0.677559 0.549559 0.539559
0.756339 0.559339 0.549339
0.835118 0.569118 0.559118
0.237781 0.592781 0.513781
0.316560 0.602560 0.523560
0.395340 0.612340 0.533340
0.474120 0.622120 0.543120
0.552899 0.631899 0.552899
0.631679 0.641679 0.562679
0.710458 0.651458 0.572458
0.789238 0.661238 0.582238
0.868018 0.671018 0.592018
0.270680 0.694680 0.546680
0.349460 0.704460 0.556460
0.428239 0.714239 0.566239
0.507019 0.724019 0.576019
0.585798 0.733798 0.585798
0.664578 0.743578 0.595578
0.743358 0.753358 0.605358
0.822137 0.763137 0.615137
0.900917 0.772917 0.624917
0.303579 0.796579 0.579579
0.382359 0.806359 0.589359
0.461138 0.816138 0.599138
0.539918 0.825918 0.608918
0.618698 0.835698 0.618698
0.697477 0.845477 0.628477
0.776257 0.855257 0.638257
0.855036 0.865036 0.648036
0.933816 0.874816 0.657816
0.336478 0.898478 0.612478
0.415258 0.908258 0.622258
0.494038 0.918038 0.632038
0.572817 0.927817 0.641817
0.651597 0.937597 0.651597
0.730376 0.947376 0.661376
0.809156 0.957156 0.671156
0.887936 0.966936 0.680936
0.966715 0.976715 0.690715
0.076606 0.086606 0.421606
0.155386 0.096386 0.431386
0.234165 0.106165 0.441165
0.312945 0.115945 0.450945
0.391724 0.125724 0.460724
0.470504 0.135504 0.470504
0.549284 0.145284 0.480284
0.628063 0.155063 0.490063
0.706843 0.164843 0.499843
0.109505 0.188505 0.454505
0.188285 0.198285 0.464285
0.267064 0.208064 0.474064
0.345844 0.217844 0.483844
0.424624 0.227624 0.493624
0.503403 0.237403 0.503403
0.582183 0.247183 0.513183
0.660962 0.256962 0.522962
0.739742 0.266742 0.532742
0.142404 0.290404 0.487404
0.221184 0.300184 0.497184
0.299964 0.309964 0.506964
0.378743 0.319743 0.516743
0.457523 0.329523 0.526523
0.536302 0.339302 0.536302
0.615082 0.349082 0.546082
0.693862 0.358862 0.555862
0.772641 0.368641 0.565641
0.175304 0.392304 0.520304
0.254083 0.402083 0.530083
0.332863 0.411863 0.539863
0.411642 0.421642 0.549642
0.490422 0.431422 0.559422
0.569202 0.441202 0.569202
0.647981 0.450981 0.578981
0.726761 0.460761 0.588761
0.805540 0.470540 0.598540
0.208203 0.494203 0.553203
0.286982 0.503982 0.562982
0.365762 0.513762 0.572762
0.444542 0.523542 0.582542
0.523321 0.533321 0.592321
0.602101 0.543101 0.602101
0.680880 0.552880 0.611880
0.759660 0.562660 0.621660
0.838440 0.572440 0.631440
0.241102 0.596102 0.586102
0.319882 0.605882 0.595882
0.398661 0.615661 0.605661
0.477441 0.625441 0.615441
0.556220 0.635220 0.625220
0.635000 0.645000 0.635000
0.713780 0.654780 0.644780
0.792559 0.664559 0.654559
0.871339 0.674339 0.664339
0.274001 0.698001 0.619001
0.352781 0.707781 0.628781
0.431560 0.717560 0.638560
0.510340 0.727340 0.648340
0.589120 0.737120 0.658120
0.667899 0.746899 0.667899
0.746679 0.756679 0.677679
0.825458 0.766458 0.687458
0.904238 0.776238 0.697238
0.306900 0.799900 0.651900
0.385680 0.809680 0.661680
0.464460 0.819460 0.671460
0.543239 0.829239 0.681239
0.622019 0.839019 0.691019
0.700798 0.848798 0.700798
0.779578 0.858578 0.710578
0.858358 0.868358 0.720358
0.937137 0.878137 0.730137
0.339800 0.901800 0.684800
0.418579 0.911579 0.694579
0.497359 0.921359 0.704359
0.576138 0.931138 0.714138
0.654918 0.940918 0.723918
0.733698 0.950698 0.733698
0.812477 0.960477 0.743477
0.891257 0.970257 0.753257
0.970036 0.980036 0.763036
0.079927 0.089927 0.493927
0.158707 0.099707 0.503707
0.237486 0.109486 0.513486
0.316266 0.119266 0.523266
0.395046 0.129046 0.533046
0.473825 0.138825 0.542825
0.552605 0.148605 0.552605
0.631384 0.158384 0.562384
0.710164 0.168164 0.572164
0.112826 0.191826 0.526826
0.191606 0.201606 0.536606
0.270386 0.211386 0.546386
0.349165 0.221165 0.556165
0.427945 0.230945 0.565945
0.506724 0.240724 0.575724
0.585504 0.250504 0.585504
0.664284 0.260284 0.595284
0.743063 0.270063 0.605063
0.145726 0.293726 0.559726
0.224505 0.303505 0.569505
0.303285 0.313285 0.579285
0.382064 0.323064 0.589064
0.460844 0.332844 0.598844
0.539624 0.342624 0.608624
0.618403 0.352403 0.618403
0.697183 0.362183 0.628183
0.775962 0.371962 0.637962
0.178625 0.395625 0.592625
0.257404 0.405404 0.602404
0.336184 0.415184 0.612184
0.414964 0.424964 0.621964
0.493743 0.434743 0.631743
0.572523 0.444523 0.641523
0.651302 0.454302 0.651302
0.730082 0.464082 0.661082
0.808862 0.473862 0.670862
0.211524 0.497524 0.625524
0.290304 0.507304 0.635304
0.369083 0.517083 0.645083
0.447863 0.526863 0.654863
0.526642 0.536642 0.664642
0.605422 0.546422 0.674422
0.684202 0.556202 0.684202
0.762981 0.565981 0.693981
0.841761 0.575761 0.703761
0.244423 0.599423 0.658423
0.323203 0.609203 0.668203
0.401982 0.618982 0.677982
0.480762 0.628762 0.687762
0.559542 0.638542 0.697542
0.638321 0.648321 0.707321
0.717101 0.658101 0.717101
0.795880 0.667880 0.726880
0.874660 0.677660 0.736660
0.277322 0.701322 0.691322
0.356102 0.711102 0.701102
0.434882 0.720882 0.710882
0.513661 0.730661 0.720661
0.592441 0.740441 0.730441
0.671220 0.750220 0.740220
0.750000 0.760000 0.750000
0.828780 0.769780 0.759780
0.907559 0.779559 0.769559
0.310222 0.803222 0.724222
0.389001 0.813001 0.734001
0.467781 0.822781 0.743781
0.546560 0.832560 0.753560
0.625340 0.842340 0.763340
0.704120 0.852120 0.773120
0.782899 0.861899 0.782899
0.861679 0.871679 0.792679
0.940458 0.881458 0.802458
0.343121 0.905121 0.757121
0.421900 0.914900 0.766900
0.500680 0.924680 0.776680
0.579460 0.934460 0.786460
0.658239 0.944239 0.796239
0.737019 0.954019 0.806019
0.815798 0.963798 0.815798
0.894578 0.973578 0.825578
0.973358 0.983358 0.835358
0.083248 0.093248 0.566248
0.162028 0.103028 0.576028
0.240808 0.112808 0.585808
0.319587 0.122587 0.595587
0.398367 0.132367 0.605367
0.477146 0.142146 0.615146
0.555926 0.151926 0.624926
0.634706 0.161706 0.634706
0.713485 0.171485 0.644485
0.116148 0.195148 0.599148
0.194927 0.204927 0.608927
0.273707 0.214707 0.618707
0.352486 0.224486 0.628486
0.431266 0.234266 0.638266
0.510046 0.244046 0.648046
0.588825 0.253825 0.657825
0.667605 0.263605 0.667605
0.746384 0.273384 0.677384
0.149047 0.297047 0.632047
0.227826 0.306826 0.641826
0.306606 0.316606 0.651606
0.385386 0.326386 0.661386
0.464165 0.336165 0.671165
0.542945 0.345945 0.680945
0.621724 0.355724 0.690724
0.700504 0.365504 0.700504
0.779284 0.375284 0.710284
0.181946 0.398946 0.664946
0.260726 0.408726 0.674726
0.339505 0.418505 0.684505
0.418285 0.428285 0.694285
0.497064 0.438064 0.704064
0.575844 0.447844 0.713844
0.654624 0.457624 0.723624
0.733403 0.467403 0.733403
0.812183 0.477183 0.743183
0.214845 0.500845 0.697845
0.293625 0.510625 0.707625
0.372404 0.520404 0.717404
0.451184 0.530184 0.727184
0.529964 0.539964 0.736964
0.608743 0.549743 0.746743
0.687523 0.559523 0.756523
0.766302 0.569302 0.766302
0.845082 0.579082 0.776082
0.247744 0.602744 0.730744
0.326524 0.612524 0.740524
0.405304 0.622304 0.750304
0.484083 0.632083 0.760083
0.562863 0.641863 0.769863
0.641642 0.651642 0.779642
0.720422 0.661422 0.789422
0.799202 0.671202 0.799202
0.877981 0.680981 0.808981
0.280644 0.704644 0.763644
0.359423 0.714423 0.773423
0.438203 0.724203 0.783203
0.516982 0.733982 0.792982
0.595762 0.743762 0.802762
0.674542 0.753542 0.812542
0.753321 0.763321 0.822321
0.832101 0.773101 0.832101
0.910880 0.782880 0.841880
0.313543 0.806543 0.796543
0.392322 0.816322 0.806322
0.471102 0.826102 0.816102
0.549882 0.835882 0.825882
0.628661 0.845661 0.835661
0.707441 0.855441 0.845441
0.786220 0.865220 0.855220
0.865000 0.875000 0.865000
0.943780 0.884780 0.874780
0.346442 0.908442 0.829442
0.425222 0.918222 0.839222
0.504001 0.928001 0.849001
0.582781 0.937781 0.858781
0.661560 0.947560 0.868560
0.740340 0.957340 0.878340
0.819120 0.967120 0.888120
0.897899 0.976899 0.897899
0.976679 0.986679 0.907679
0.086570 0.096570 0.638570
0.165349 0.106349 0.648349
0.244129 0.116129 0.658129
0.322908 0.125908 0.667908
0.401688 0.135688 0.677688
0.480468 0.145468 0.687468
0.559247 0.155247 0.697247
0.638027 0.165027 0.707027
0.716806 0.174806 0.716806
0.119469 0.198469 0.671469
0.198248 0.208248 0.681248
0.277028 0.218028 0.691028
0.355808 0.227808 0.700808
0.434587 0.237587 0.710587
0.513367 0.247367 0.720367
0.592146 0.257146 0.730146
0.670926 0.266926 0.739926
0.749706 0.276706 0.749706
0.152368 0.300368 0.704368
0.231148 0.310148 0.714148
0.309927 0.319927 0.723927
0.388707 0.329707 0.733707
0.467486 0.339486 0.743486
0.546266 0.349266 0.753266
0.625046 0.359046 0.763046
0.703825 0.368825 0.772825
0.782605 0.378605 0.782605
0.185267 0.402267 0.737267
0.264047 0.412047 0.747047
0.342826 0.421826 0.756826
0.421606 0.431606 0.766606
0.500386 0.441386 0.776386
0.579165 0.451165 0.786165
0.657945 0.460945 0.795945
0.736724 0.470724 0.805724
0.815504 0.480504 0.815504
0.218166 0.504166 0.770166
0.296946 0.513946 0.779946
0.375726 0.523726 0.789726
0.454505 0.533505 0.799505
0.533285 0.543285 0.809285
0.612064 0.553064 0.819064
0.690844 0.562844 0.828844
0.769624 0.572624 0.838624
0.848403 0.582403 0.848403
0.251066 0.606066 0.803066
0.329845 0.615845 0.812845
0.408625 0.625625 0.822625
0.487404 0.635404 0.832404
0.566184 0.645184 0.842184
0.644964 0.654964 0.851964
0.723743 0.664743 0.861743
0.802523 0.674523 0.871523
0.881302 0.684302 0.881302
0.283965 0.707965 0.835965
0.362744 0.717744 0.845744
0.441524 0.727524 0.855524
0.520304 0.737304 0.865304
0.599083 0.747083 0.875083
0.677863 0.756863 0.884863
0.756642 0.766642 0.894642
0.835422 0.776422 0.904422
0.914202 0.786202 0.914202
0.316864 0.809864 0.868864
0.395644 0.819644 0.878644
0.474423 0.829423 0.888423
0.553203 0.839203 0.898203
0.631982 0.848982 0.907982
0.710762 0.858762 0.917762
0.789542 0.868542 0.927542
0.868321 0.878321 0.937321
0.947101 0.888101 0.947101
0.349763 0.911763 0.901763
0.428543 0.921543 0.911543
0.507322 0.931322 0.921322
0.586102 0.941102 0.931102
0.664882 0.950882 0.940882
0.743661 0.960661 0.950661
0.822441 0.970441 0.960441
0.901220 0.980220 0.970220
0.980000 0.990000 0.980000
