assets/luts/faded_film.cube
TITLE "Faded Film"
LUT_3D_SIZE 17
DOMAIN_MIN 0.0 0.0 0.0
DOMAIN_MAX 1.0 1.0 1.0
0.060000 0.070000 0.060000
0.099390 0.074890 0.064890
0.138780 0.079780 0.069780
0.178169 0.084669 0.074669
0.217559 0.089559 0.079559
0.256949 0.094449 0.084449
0.296339 0.099339 0.089339
0.335729 0.104229 0.094229
0.375118 0.109118 0.099118
0.414508 0.114008 0.104008
0.453898 0.118898 0.108898
0.493288 0.123788 0.113788
0.532678 0.128678 0.118678
0.572067 0.133567 0.123567
0.611457 0.138457 0.128457
0.650847 0.143347 0.133347
0.690237 0.148237 0.138237
0.076450 0.120950 0.076450
0.115839 0.125839 0.081339
0.155229 0.130729 0.086229
0.194619 0.135619 0.091119
0.234009 0.140509 0.096009
0.273399 0.145399 0.100899
0.312788 0.150288 0.105788
0.352178 0.155178 0.110678
0.391568 0.160068 0.115568
0.430958 0.164958 0.120458
0.470348 0.169848 0.125348
0.509737 0.174737 0.130237
0.549127 0.179627 0.135127
0.588517 0.184517 0.140017
0.627907 0.189407 0.144907
0.667297 0.194297 0.149797
0.706686 0.199186 0.154686
0.092899 0.171899 0.092899
0.132289 0.176789 0.097789
0.171679 0.181679 0.102679
0.211069 0.186569 0.107569
0.250458 0.191458 0.112458
0.289848 0.196348 0.117348
0.329238 0.201238 0.122238
0.368628 0.206128 0.127128
0.408018 0.211018 0.132018
0.447407 0.215907 0.136907
0.486797 0.220797 0.141797
0.526187 0.225687 0.146687
0.565577 0.230577 0.151577
0.604967 0.235467 0.156467
0.644356 0.240356 0.161356
0.683746 0.245246 0.166246
0.723136 0.250136 0.171136
0.109349 0.222849 0.109349
0.148739 0.227739 0.114239
0.188128 0.232628 0.119128
0.227518 0.237518 0.124018
0.266908 0.242408 0.128908
0.306298 0.247298 0.133798
0.345688 0.252188 0.138688
0.385077 0.257077 0.143577
0.424467 0.261967 0.148467
0.463857 0.266857 0.153357
0.503247 0.271747 0.158247
0.542637 0.276637 0.163137
0.582026 0.281526 0.168026
0.621416 0.286416 0.172916
0.660806 0.291306 0.177806
0.700196 0.296196 0.182696
0.739586 0.301086 0.187586
0.125798 0.273798 0.125798
0.165188 0.278688 0.130688
0.204578 0.283578 0.135578
0.243968 0.288468 0.140468
0.283358 0.293358 0.145358
0.322747 0.298247 0.150247
0.362137 0.303137 0.155137
0.401527 0.308027 0.160027
0.440917 0.312917 0.164917
0.480307 0.317807 0.169807
0.519696 0.322696 0.174696
0.559086 0.327586 0.179586
0.598476 0.332476 0.184476
0.637866 0.337366 0.189366
0.677256 0.342256 0.194256
0.716645 0.347145 0.199145
0.756035 0.352035 0.204035
0.142248 0.324748 0.142248
0.181638 0.329638 0.147138
0.221028 0.334528 0.152028
0.260417 0.339417 0.156917
0.299807 0.344307 0.161807
0.339197 0.349197 0.166697
0.378587 0.354087 0.171587
0.417977 0.358977 0.176477
0.457366 0.363866 0.181366
0.496756 0.368756 0.186256
0.536146 0.373646 0.191146
0.575536 0.378536 0.196036
0.614926 0.383426 0.200926
0.654315 0.388315 0.205815
0.693705 0.393205 0.210705
0.733095 0.398095 0.215595
0.772485 0.402985 0.220485
0.158698 0.375698 0.158698
0.198087 0.380587 0.163587
0.237477 0.385477 0.168477
0.276867 0.390367 0.173367
0.316257 0.395257 0.178257
0.355647 0.400147 0.183147
0.395036 0.405036 0.188036
0.434426 0.409926 0.192926
0.473816 0.414816 0.197816
0.513206 0.419706 0.202706
0.552596 0.424596 0.207596
0.591985 0.429485 0.212485
0.631375 0.434375 0.217375
0.670765 0.439265 0.222265
0.710155 0.444155 0.227155
0.749545 0.449045 0.232045
0.788934 0.453934 0.236934
0.175147 0.426647 0.175147
0.214537 0.431537 0.180037
0.253927 0.436427 0.184927
0.293317 0.441317 0.189817
0.332706 0.446206 0.194706
0.372096 0.451096 0.199596
0.411486 0.455986 0.204486
0.450876 0.460876 0.209376
0.490266 0.465766 0.214266
0.529655 0.470655 0.219155
0.569045 0.475545 0.224045
0.608435 0.480435 0.228935
0.647825 0.485325 0.233825
0.687215 0.490215 0.238715
0.726604 0.495104 0.243604
0.765994 0.499994 0.248494
0.805384 0.504884 0.253384
0.191597 0.477597 0.191597
0.230987 0.482487 0.196487
0.270376 0.487376 0.201376
0.309766 0.492266 0.206266
0.349156 0.497156 0.211156
0.388546 0.502046 0.216046
0.427936 0.506936 0.220936
0.467325 0.511825 0.225825
0.506715 0.516715 0.230715
0.546105 0.521605 0.235605
0.585495 0.526495 0.240495
0.624885 0.531385 0.245385
0.664274 0.536274 0.250274
0.703664 0.541164 0.255164
0.743054 0.546054 0.260054
0.782444 0.550944 0.264944
0.821834 0.555834 0.269834
0.208046 0.528546 0.208046
0.247436 0.533436 0.212936
0.286826 0.538326 0.217826
0.326216 0.543216 0.222716
0.365606 0.548106 0.227606
0.404995 0.552995 0.232495
0.444385 0.557885 0.237385
0.483775 0.562775 0.242275
0.523165 0.567665 0.247165
0.562555 0.572555 0.252055
0.601944 0.577444 0.256944
0.641334 0.582334 0.261834
0.680724 0.587224 0.266724
0.720114 0.592114 0.271614
0.759504 0.597004 0.276504
0.798893 0.601893 0.281393
0.838283 0.606783 0.286283
0.224496 0.579496 0.224496
0.263886 0.584386 0.229386
0.303276 0.589276 0.234276
0.342665 0.594165 0.239165
0.382055 0.599055 0.244055
0.421445 0.603945 0.248945
0.460835 0.608835 0.253835
0.500225 0.613725 0.258725
0.539614 0.618614 0.263614
0.579004 0.623504 0.268504
0.618394 0.628394 0.273394
0.657784 0.633284 0.278284
0.697174 0.638174 0.283174
0.736563 0.643063 0.288063
0.775953 0.647953 0.292953
0.815343 0.652843 0.297843
0.854733 0.657733 0.302733
0.240946 0.630446 0.240946
0.280335 0.635335 0.245835
0.319725 0.640225 0.250725
0.359115 0.645115 0.255615
0.398505 0.650005 0.260505
0.437895 0.654895 0.265395
0.477284 0.659784 0.270284
0.516674 0.664674 0.275174
0.556064 0.669564 0.280064
0.595454 0.674454 0.284954
0.634844 0.679344 0.289844
0.674233 0.684233 0.294733
0.713623 0.689123 0.299623
0.753013 0.694013 0.304513
0.792403 0.698903 0.309403
0.831793 0.703793 0.314293
0.871182 0.708682 0.319182
0.257395 0.681395 0.257395
0.296785 0.686285 0.262285
0.336175 0.691175 0.267175
0.375565 0.696065 0.272065
0.414954 0.700954 0.276954
0.454344 0.705844 0.281844
0.493734 0.710734 0.286734
0.533124 0.715624 0.291624
0.572514 0.720514 0.296514
0.611903 0.725403 0.301403
0.651293 0.730293 0.306293
0.690683 0.735183 0.311183
0.730073 0.740073 0.316073
0.769463 0.744963 0.320963
0.808852 0.749852 0.325852
0.848242 0.754742 0.330742
0.887632 0.759632 0.335632
0.273845 0.732345 0.273845
0.313235 0.737235 0.278735
0.352624 0.742124 0.283624
0.392014 0.747014 0.288514
0.431404 0.751904 0.293404
0.470794 0.756794 0.298294
0.510184 0.761684 0.303184
0.549573 0.766573 0.308073
0.588963 0.771463 0.312963
0.628353 0.776353 0.317853
0.667743 0.781243 0.322743
0.707133 0.786133 0.327633
0.746522 0.791022 0.332522
0.785912 0.795912 0.337412
0.825302 0.800802 0.342302
0.864692 0.805692 0.347192
0.904082 0.810582 0.352082
0.290294 0.783294 0.290294
0.329684 0.788184 0.295184
0.369074 0.793074 0.300074
0.408464 0.797964 0.304964
0.447854 0.802854 0.309854
0.487243 0.807743 0.314743
0.526633 0.812633 0.319633
0.566023 0.817523 0.324523
0.605413 0.822413 0.329413
0.644803 0.827303 0.334303
0.684192 0.832192 0.339192
0.723582 0.837082 0.344082
0.762972 0.841972 0.348972
0.802362 0.846862 0.353862
0.841752 0.851752 0.358752
0.881141 0.856641 0.363641
0.920531 0.861531 0.368531
0.306744 0.834244 0.306744
0.346134 0.839134 0.311634
0.385524 0.844024 0.316524
0.424913 0.848913 0.321413
0.464303 0.853803 0.326303
0.503693 0.858693 0.331193
0.543083 0.863583 0.336083
0.582473 0.868473 0.340973
0.621862 0.873362 0.345862
0.661252 0.878252 0.350752
0.700642 0.883142 0.355642
0.740032 0.888032 0.360532
0.779422 0.892922 0.365422
0.818811 0.897811 0.370311
0.858201 0.902701 0.375201
0.897591 0.907591 0.380091
0.936981 0.912481 0.384981
0.323194 0.885194 0.323194
0.362583 0.890083 0.328083
0.401973 0.894973 0.332973
0.441363 0.899863 0.337863
0.480753 0.904753 0.342753
0.520143 0.909643 0.347643
0.559532 0.914532 0.352532
0.598922 0.919422 0.357422
0.638312 0.924312 0.362312
0.677702 0.929202 0.367202
0.717092 0.934092 0.372092
0.756481 0.938981 0.376981
0.795871 0.943871 0.381871
0.835261 0.948761 0.386761
0.874651 0.953651 0.391651
0.914041 0.958541 0.396541
0.953430 0.963430 0.401430
0.061661 0.071661 0.096161
0.101050 0.076550 0.101050
0.140440 0.081440 0.105940
0.179830 0.086330 0.110830
0.219220 0.091220 0.115720
0.258610 0.096110 0.120610
0.297999 0.100999 0.125499
0.337389 0.105889 0.130389
0.376779 0.110779 0.135279
0.416169 0.115669 0.140169
0.455559 0.120559 0.145059
0.494948 0.125448 0.149948
0.534338 0.130338 0.154838
0.573728 0.135228 0.159728
0.613118 0.140118 0.164618
0.652508 0.145008 0.169508
0.691897 0.149897 0.174397
0.078110 0.122610 0.112610
0.117500 0.127500 0.117500
0.156890 0.132390 0.122390
0.196280 0.137280 0.127280
0.235669 0.142169 0.132169
0.275059 0.147059 0.137059
0.314449 0.151949 0.141949
0.353839 0.156839 0.146839
0.393229 0.161729 0.151729
0.432618 0.166618 0.156618
0.472008 0.171508 0.161508
0.511398 0.176398 0.166398
0.550788 0.181288 0.171288
0.590178 0.186178 0.176178
0.629567 0.191067 0.181067
0.668957 0.195957 0.185957
0.708347 0.200847 0.190847
0.094560 0.173560 0.129060
0.133950 0.178450 0.133950
0.173339 0.183339 0.138839
0.212729 0.188229 0.143729
0.252119 0.193119 0.148619
0.291509 0.198009 0.153509
0.330899 0.202899 0.158399
0.370288 0.207788 0.163288
0.409678 0.212678 0.168178
0.449068 0.217568 0.173068
0.488458 0.222458 0.177958
0.527848 0.227348 0.182848
0.567237 0.232237 0.187737
0.606627 0.237127 0.192627
0.646017 0.242017 0.197517
0.685407 0.246907 0.202407
0.724797 0.251797 0.207297
0.111009 0.224509 0.145509
0.150399 0.229399 0.150399
0.189789 0.234289 0.155289
0.229179 0.239179 0.160179
0.268569 0.244069 0.165069
0.307958 0.248958 0.169958
0.347348 0.253848 0.174848
0.386738 0.258738 0.179738
0.426128 0.263628 0.184628
0.465518 0.268518 0.189518
0.504907 0.273407 0.194407
0.544297 0.278297 0.199297
0.583687 0.283187 0.204187
0.623077 0.288077 0.209077
0.662467 0.292967 0.213967
0.701856 0.297856 0.218856
0.741246 0.302746 0.223746
0.127459 0.275459 0.161959
0.166849 0.280349 0.166849
0.206239 0.285239 0.171739
0.245628 0.290128 0.176628
0.285018 0.295018 0.181518
0.324408 0.299908 0.186408
0.363798 0.304798 0.191298
0.403188 0.309688 0.196188
0.442577 0.314577 0.201077
0.481967 0.319467 0.205967
0.521357 0.324357 0.210857
0.560747 0.329247 0.215747
0.600137 0.334137 0.220637
0.639526 0.339026 0.225526
0.678916 0.343916 0.230416
0.718306 0.348806 0.235306
0.757696 0.353696 0.240196
0.143909 0.326409 0.178409
0.183298 0.331298 0.183298
0.222688 0.336188 0.188188
0.262078 0.341078 0.193078
0.301468 0.345968 0.197968
0.340858 0.350858 0.202858
0.380247 0.355747 0.207747
0.419637 0.360637 0.212637
0.459027 0.365527 0.217527
0.498417 0.370417 0.222417
0.537807 0.375307 0.227307
0.577196 0.380196 0.232196
0.616586 0.385086 0.237086
0.655976 0.389976 0.241976
0.695366 0.394866 0.246866
0.734756 0.399756 0.251756
0.774145 0.404645 0.256645
0.160358 0.377358 0.194858
0.199748 0.382248 0.199748
0.239138 0.387138 0.204638
0.278528 0.392028 0.209528
0.317917 0.396917 0.214417
0.357307 0.401807 0.219307
0.396697 0.406697 0.224197
0.436087 0.411587 0.229087
0.475477 0.416477 0.233977
0.514866 0.421366 0.238866
0.554256 0.426256 0.243756
0.593646 0.431146 0.248646
0.633036 0.436036 0.253536
0.672426 0.440926 0.258426
0.711815 0.445815 0.263315
0.751205 0.450705 0.268205
0.790595 0.455595 0.273095
0.176808 0.428308 0.211308
0.216198 0.433198 0.216198
0.255587 0.438087 0.221087
0.294977 0.442977 0.225977
0.334367 0.447867 0.230867
0.373757 0.452757 0.235757
0.413147 0.457647 0.240647
0.452536 0.462536 0.245536
0.491926 0.467426 0.250426
0.531316 0.472316 0.255316
0.570706 0.477206 0.260206
0.610096 0.482096 0.265096
0.649485 0.486985 0.269985
0.688875 0.491875 0.274875
0.728265 0.496765 0.279765
0.767655 0.501655 0.284655
0.807045 0.506545 0.289545
0.193257 0.479257 0.227757
0.232647 0.484147 0.232647
0.272037 0.489037 0.237537
0.311427 0.493927 0.242427
0.350817 0.498817 0.247317
0.390206 0.503706 0.252206
0.429596 0.508596 0.257096
0.468986 0.513486 0.261986
0.508376 0.518376 0.266876
0.547766 0.523266 0.271766
0.587155 0.528155 0.276655
0.626545 0.533045 0.281545
0.665935 0.537935 0.286435
0.705325 0.542825 0.291325
0.744715 0.547715 0.296215
0.784104 0.552604 0.301104
0.823494 0.557494 0.305994
0.209707 0.530207 0.244207
0.249097 0.535097 0.249097
0.288487 0.539987 0.253987
0.327876 0.544876 0.258876
0.367266 0.549766 0.263766
0.406656 0.554656 0.268656
0.446046 0.559546 0.273546
0.485436 0.564436 0.278436
0.524825 0.569325 0.283325
0.564215 0.574215 0.288215
0.603605 0.579105 0.293105
0.642995 0.583995 0.297995
0.682385 0.588885 0.302885
0.721774 0.593774 0.307774
0.761164 0.598664 0.312664
0.800554 0.603554 0.317554
0.839944 0.608444 0.322444
0.226157 0.581157 0.260657
0.265546 0.586046 0.265546
0.304936 0.590936 0.270436
0.344326 0.595826 0.275326
0.383716 0.600716 0.280216
0.423106 0.605606 0.285106
0.462495 0.610495 0.289995
0.501885 0.615385 0.294885
0.541275 0.620275 0.299775
0.580665 0.625165 0.304665
0.620055 0.630055 0.309555
0.659444 0.634944 0.314444
0.698834 0.639834 0.319334
0.738224 0.644724 0.324224
0.777614 0.649614 0.329114
0.817004 0.654504 0.334004
0.856393 0.659393 0.338893
0.242606 0.632106 0.277106
0.281996 0.636996 0.281996
0.321386 0.641886 0.286886
0.360776 0.646776 0.291776
0.400165 0.651665 0.296665
0.439555 0.656555 0.301555
0.478945 0.661445 0.306445
0.518335 0.666335 0.311335
0.557725 0.671225 0.316225
0.597114 0.676114 0.321114
0.636504 0.681004 0.326004
0.675894 0.685894 0.330894
0.715284 0.690784 0.335784
0.754674 0.695674 0.340674
0.794063 0.700563 0.345563
0.833453 0.705453 0.350453
0.872843 0.710343 0.355343
0.259056 0.683056 0.293556
0.298446 0.687946 0.298446
0.337835 0.692835 0.303335
0.377225 0.697725 0.308225
0.416615 0.702615 0.313115
0.456005 0.707505 0.318005
0.495395 0.712395 0.322895
0.534784 0.717284 0.327784
0.574174 0.722174 0.332674
0.613564 0.727064 0.337564
0.652954 0.731954 0.342454
0.692344 0.736844 0.347344
0.731733 0.741733 0.352233
0.771123 0.746623 0.357123
0.810513 0.751513 0.362013
0.849903 0.756403 0.366903
0.889293 0.761293 0.371793
0.275505 0.734005 0.310005
0.314895 0.738895 0.314895
0.354285 0.743785 0.319785
0.393675 0.748675 0.324675
0.433065 0.753565 0.329565
0.472454 0.758454 0.334454
0.511844 0.763344 0.339344
0.551234 0.768234 0.344234
0.590624 0.773124 0.349124
0.630014 0.778014 0.354014
0.669403 0.782903 0.358903
0.708793 0.787793 0.363793
0.748183 0.792683 0.368683
0.787573 0.797573 0.373573
0.826963 0.802463 0.378463
0.866352 0.807352 0.383352
0.905742 0.812242 0.388242
0.291955 0.784955 0.326455
0.331345 0.789845 0.331345
0.370735 0.794735 0.336235
0.410124 0.799624 0.341124
0.449514 0.804514 0.346014
0.488904 0.809404 0.350904
0.528294 0.814294 0.355794
0.567684 0.819184 0.360684
0.607073 0.824073 0.365573
0.646463 0.828963 0.370463
0.685853 0.833853 0.375353
0.725243 0.838743 0.380243
0.764633 0.843633 0.385133
0.804022 0.848522 0.390022
0.843412 0.853412 0.394912
0.882802 0.858302 0.399802
0.922192 0.863192 0.404692
0.308405 0.835905 0.342905
0.347794 0.840794 0.347794
0.387184 0.845684 0.352684
0.426574 0.850574 0.357574
0.465964 0.855464 0.362464
0.505354 0.860354 0.367354
0.544743 0.865243 0.372243
0.584133 0.870133 0.377133
0.623523 0.875023 0.382023
0.662913 0.879913 0.386913
0.702303 0.884803 0.391803
0.741692 0.889692 0.396692
0.781082 0.894582 0.401582
0.820472 0.899472 0.406472
0.859862 0.904362 0.411362
0.899252 0.909252 0.416252
0.938641 0.914141 0.421141
0.324854 0.886854 0.359354
0.364244 0.891744 0.364244
0.403634 0.896634 0.369134
0.443024 0.901524 0.374024
0.482413 0.906413 0.378913
0.521803 0.911303 0.383803
0.561193 0.916193 0.388693
0.600583 0.921083 0.393583
0.639973 0.925973 0.398473
0.679362 0.930862 0.403362
0.718752 0.935752 0.408252
0.758142 0.940642 0.413142
0.797532 0.945532 0.418032
0.836922 0.950422 0.422922
0.876311 0.955311 0.427811
0.915701 0.960201 0.432701
0.955091 0.965091 0.437591
0.063321 0.073321 0.132321
0.102711 0.078211 0.137211
0.142101 0.083101 0.142101
0.181491 0.087991 0.146991
0.220880 0.092880 0.151880
0.260270 0.097770 0.156770
0.299660 0.102660 0.161660
0.339050 0.107550 0.166550
0.378440 0.112440 0.171440
0.417829 0.117329 0.176329
0.457219 0.122219 0.181219
0.496609 0.127109 0.186109
0.535999 0.131999 0.190999
0.575389 0.136889 0.195889
0.614778 0.141778 0.200778
0.654168 0.146668 0.205668
0.693558 0.151558 0.210558
0.079771 0.124271 0.148771
0.119161 0.129161 0.153661
0.158550 0.134050 0.158550
0.197940 0.138940 0.163440
0.237330 0.143830 0.168330
0.276720 0.148720 0.173220
0.316110 0.153610 0.178110
0.355499 0.158499 0.182999
0.394889 0.163389 0.187889
0.434279 0.168279 0.192779
0.473669 0.173169 0.197669
0.513059 0.178059 0.202559
0.552448 0.182948 0.207448
0.591838 0.187838 0.212338
0.631228 0.192728 0.217228
0.670618 0.197618 0.222118
0.710008 0.202508 0.227008
0.096220 0.175220 0.165220
0.135610 0.180110 0.170110
0.175000 0.185000 0.175000
0.214390 0.189890 0.179890
0.253780 0.194780 0.184780
0.293169 0.199669 0.189669
0.332559 0.204559 0.194559
0.371949 0.209449 0.199449
0.411339 0.214339 0.204339
0.450729 0.219229 0.209229
0.490118 0.224118 0.214118
0.529508 0.229008 0.219008
0.568898 0.233898 0.223898
0.608288 0.238788 0.228788
0.647678 0.243678 0.233678
0.687067 0.248567 0.238567
0.726457 0.253457 0.243457
0.112670 0.226170 0.181670
0.152060 0.231060 0.186560
0.191450 0.235950 0.191450
0.230839 0.240839 0.196339
0.270229 0.245729 0.201229
0.309619 0.250619 0.206119
0.349009 0.255509 0.211009
0.388399 0.260399 0.215899
0.427788 0.265288 0.220788
0.467178 0.270178 0.225678
0.506568 0.275068 0.230568
0.545958 0.279958 0.235458
0.585348 0.284848 0.240348
0.624737 0.289737 0.245237
0.664127 0.294627 0.250127
0.703517 0.299517 0.255017
0.742907 0.304407 0.259907
0.129120 0.277120 0.198120
0.168509 0.282009 0.203009
0.207899 0.286899 0.207899
0.247289 0.291789 0.212789
0.286679 0.296679 0.217679
0.326069 0.301569 0.222569
0.365458 0.306458 0.227458
0.404848 0.311348 0.232348
0.444238 0.316238 0.237238
0.483628 0.321128 0.242128
0.523018 0.326018 0.247018
0.562407 0.330907 0.251907
0.601797 0.335797 0.256797
0.641187 0.340687 0.261687
0.680577 0.345577 0.266577
0.719967 0.350467 0.271467
0.759356 0.355356 0.276356
0.145569 0.328069 0.214569
0.184959 0.332959 0.219459
0.224349 0.337849 0.224349
0.263739 0.342739 0.229239
0.303128 0.347628 0.234128
0.342518 0.352518 0.239018
0.381908 0.357408 0.243908
0.421298 0.362298 0.248798
0.460688 0.367188 0.253688
0.500077 0.372077 0.258577
0.539467 0.376967 0.263467
0.578857 0.381857 0.268357
0.618247 0.386747 0.273247
0.657637 0.391637 0.278137
0.697026 0.396526 0.283026
0.736416 0.401416 0.287916
0.775806 0.406306 0.292806
0.162019 0.379019 0.231019
0.201409 0.383909 0.235909
0.240798 0.388798 0.240798
0.280188 0.393688 0.245688
0.319578 0.398578 0.250578
0.358968 0.403468 0.255468
0.398358 0.408358 0.260358
0.437747 0.413247 0.265247
0.477137 0.418137 0.270137
0.516527 0.423027 0.275027
0.555917 0.427917 0.279917
0.595307 0.432807 0.284807
0.634696 0.437696 0.289696
0.674086 0.442586 0.294586
0.713476 0.447476 0.299476
0.752866 0.452366 0.304366
0.792256 0.457256 0.309256
0.178468 0.429968 0.247468
0.217858 0.434858 0.252358
0.257248 0.439748 0.257248
0.296638 0.444638 0.262138
0.336028 0.449528 0.267028
0.375417 0.454417 0.271917
0.414807 0.459307 0.276807
0.454197 0.464197 0.281697
0.493587 0.469087 0.286587
0.532977 0.473977 0.291477
0.572366 0.478866 0.296366
0.611756 0.483756 0.301256
0.651146 0.488646 0.306146
0.690536 0.493536 0.311036
0.729926 0.498426 0.315926
0.769315 0.503315 0.320815
0.808705 0.508205 0.325705
0.194918 0.480918 0.263918
0.234308 0.485808 0.268808
0.273698 0.490698 0.273698
0.313087 0.495587 0.278587
0.352477 0.500477 0.283477
0.391867 0.505367 0.288367
0.431257 0.510257 0.293257
0.470647 0.515147 0.298147
0.510036 0.520036 0.303036
0.549426 0.524926 0.307926
0.588816 0.529816 0.312816
0.628206 0.534706 0.317706
0.667596 0.539596 0.322596
0.706985 0.544485 0.327485
0.746375 0.549375 0.332375
0.785765 0.554265 0.337265
0.825155 0.559155 0.342155
0.211368 0.531868 0.280368
0.250757 0.536757 0.285257
0.290147 0.541647 0.290147
0.329537 0.546537 0.295037
0.368927 0.551427 0.299927
0.408317 0.556317 0.304817
0.447706 0.561206 0.309706
0.487096 0.566096 0.314596
0.526486 0.570986 0.319486
0.565876 0.575876 0.324376
0.605266 0.580766 0.329266
0.644655 0.585655 0.334155
0.684045 0.590545 0.339045
0.723435 0.595435 0.343935
0.762825 0.600325 0.348825
0.802215 0.605215 0.353715
0.841604 0.610104 0.358604
0.227817 0.582817 0.296817
0.267207 0.587707 0.301707
0.306597 0.592597 0.306597
0.345987 0.597487 0.311487
0.385376 0.602376 0.316376
0.424766 0.607266 0.321266
0.464156 0.612156 0.326156
0.503546 0.617046 0.331046
0.542936 0.621936 0.335936
0.582325 0.626825 0.340825
0.621715 0.631715 0.345715
0.661105 0.636605 0.350605
0.700495 0.641495 0.355495
0.739885 0.646385 0.360385
0.779274 0.651274 0.365274
0.818664 0.656164 0.370164
0.858054 0.661054 0.375054
0.244267 0.633767 0.313267
0.283657 0.638657 0.318157
0.323046 0.643546 0.323046
0.362436 0.648436 0.327936
0.401826 0.653326 0.332826
0.441216 0.658216 0.337716
0.480606 0.663106 0.342606
0.519995 0.667995 0.347495
0.559385 0.672885 0.352385
0.598775 0.677775 0.357275
0.638165 0.682665 0.362165
0.677555 0.687555 0.367055
0.716944 0.692444 0.371944
0.756334 0.697334 0.376834
0.795724 0.702224 0.381724
0.835114 0.707114 0.386614
0.874504 0.712004 0.391504
0.260716 0.684716 0.329716
0.300106 0.689606 0.334606
0.339496 0.694496 0.339496
0.378886 0.699386 0.344386
0.418276 0.704276 0.349276
0.457665 0.709165 0.354165
0.497055 0.714055 0.359055
0.536445 0.718945 0.363945
0.575835 0.723835 0.368835
0.615225 0.728725 0.373725
0.654614 0.733614 0.378614
0.694004 0.738504 0.383504
0.733394 0.743394 0.388394
0.772784 0.748284 0.393284
0.812174 0.753174 0.398174
0.851563 0.758063 0.403063
0.890953 0.762953 0.407953
0.277166 0.735666 0.346166
0.316556 0.740556 0.351056
0.355946 0.745446 0.355946
0.395335 0.750335 0.360835
0.434725 0.755225 0.365725
0.474115 0.760115 0.370615
0.513505 0.765005 0.375505
0.552895 0.769895 0.380395
0.592284 0.774784 0.385284
0.631674 0.779674 0.390174
0.671064 0.784564 0.395064
0.710454 0.789454 0.399954
0.749844 0.794344 0.404844
0.789233 0.799233 0.409733
0.828623 0.804123 0.414623
0.868013 0.809013 0.419513
0.907403 0.813903 0.424403
0.293616 0.786616 0.362616
0.333005 0.791505 0.367505
0.372395 0.796395 0.372395
0.411785 0.801285 0.377285
0.451175 0.806175 0.382175
0.490565 0.811065 0.387065
0.529954 0.815954 0.391954
0.569344 0.820844 0.396844
0.608734 0.825734 0.401734
0.648124 0.830624 0.406624
0.687514 0.835514 0.411514
0.726903 0.840403 0.416403
0.766293 0.845293 0.421293
0.805683 0.850183 0.426183
0.845073 0.855073 0.431073
0.884463 0.859963 0.435963
0.923852 0.864852 0.440852
0.310065 0.837565 0.379065
0.349455 0.842455 0.383955
0.388845 0.847345 0.388845
0.428235 0.852235 0.393735
0.467624 0.857124 0.398624
0.507014 0.862014 0.403514
0.546404 0.866904 0.408404
0.585794 0.871794 0.413294
0.625184 0.876684 0.418184
0.664573 0.881573 0.423073
0.703963 0.886463 0.427963
0.743353 0.891353 0.432853
0.782743 0.896243 0.437743
0.822133 0.901133 0.442633
0.861522 0.906022 0.447522
0.900912 0.910912 0.452412
0.940302 0.915802 0.457302
0.326515 0.888515 0.395515
0.365905 0.893405 0.400405
0.405294 0.898294 0.405294
0.444684 0.903184 0.410184
0.484074 0.908074 0.415074
0.523464 0.912964 0.419964
0.562854 0.917854 0.424854
0.602243 0.922743 0.429743
0.641633 0.927633 0.434633
0.681023 0.932523 0.439523
0.720413 0.937413 0.444413
0.759803 0.942303 0.449303
0.799192 0.947192 0.454192
0.838582 0.952082 0.459082
0.877972 0.956972 0.463972
0.917362 0.961862 0.468862
0.956752 0.966752 0.473752
0.064982 0.074982 0.168482
0.104372 0.079872 0.173372
0.143761 0.084761 0.178261
0.183151 0.089651 0.183151
0.222541 0.094541 0.188041
0.261931 0.099431 0.192931
0.301321 0.104321 0.197821
0.340710 0.109210 0.202710
0.380100 0.114100 0.207600
0.419490 0.118990 0.212490
0.458880 0.123880 0.217380
0.498270 0.128770 0.222270
0.537659 0.133659 0.227159
0.577049 0.138549 0.232049
0.616439 0.143439 0.236939
0.655829 0.148329 0.241829
0.695219 0.153219 0.246719
0.081431 0.125931 0.184931
