assets/luts/faded_film.cube
TITLE "Faded Film"
LUT_3D_SIZE 5
DOMAIN_MIN 0.0 0.0 0.0
DOMAIN_MAX 1.0 1.0 1.0
0.060000 0.070000 0.060000
0.217559 0.089559 0.079559
0.375118 0.109118 0.099118
0.532678 0.128678 0.118678
0.690237 0.148237 0.138237
0.125798 0.273798 0.125798
0.283358 0.293358 0.145358
0.440917 0.312917 0.164917
0.598476 0.332476 0.184476
0.756035 0.352035 0.204035
0.191597 0.477597 0.191597
0.349156 0.497156 0.211156
0.506715 0.516715 0.230715
0.664274 0.536274 0.250274
0.821834 0.555834 0.269834
0.257395 0.681395 0.257395
0.414954 0.700954 0.276954
0.572514 0.720514 0.296514
0.730073 0.740073 0.316073
0.887632 0.759632 0.335632
0.323194 0.885194 0.323194
0.480753 0.904753 0.342753
0.638312 0.924312 0.362312
0.795871 0.943871 0.381871
0.953430 0.963430 0.401430
0.066642 0.076642 0.204642
0.224202 0.096202 0.224202
0.381761 0.115761 0.243761
0.539320 0.135320 0.263320
0.696879 0.154879 0.282879
0.132441 0.280441 0.270441
0.290000 0.300000 0.290000
0.447559 0.319559 0.309559
0.605118 0.339118 0.329118
0.762678 0.358678 0.348678
0.198239 0.484239 0.336239
0.355798 0.503798 0.355798
0.513358 0.523358 0.375358
0.670917 0.542917 0.394917
0.828476 0.562476 0.414476
0.264038 0.688038 0.402038
0.421597 0.707597 0.421597
0.579156 0.727156 0.441156
0.736715 0.746715 0.460715
0.894274 0.766274 0.480274
0.329836 0.891836 0.467836
0.487395 0.911395 0.487395
0.644954 0.930954 0.506954
0.802514 0.950514 0.526514
0.960073 0.970073 0.546073
0.073285 0.083285 0.349285
0.230844 0.102844 0.368844
0.388403 0.122403 0.388403
0.545962 0.141962 0.407962
0.703522 0.161522 0.427522
0.139083 0.287083 0.415083
0.296642 0.306642 0.434642
0.454202 0.326202 0.454202
0.611761 0.345761 0.473761
0.769320 0.365320 0.493320
0.204882 0.490882 0.480882
0.362441 0.510441 0.500441
0.520000 0.530000 0.520000
0.677559 0.549559 0.539559
0.835118 0.569118 0.559118
0.270680 0.694680 0.546680
0.428239 0.714239 0.566239
0.585798 0.733798 0.585798
0.743358 0.753358 0.605358
0.900917 0.772917 0.624917
0.336478 0.898478 0.612478
0.494038 0.918038 0.632038
0.651597 0.937597 0.651597
0.809156 0.957156 0.671156
0.966715 0.976715 0.690715
0.079927 0.089927 0.493927
0.237486 0.109486 0.513486
0.395046 0.129046 0.533046
0.552605 0.148605 0.552605
0.710164 0.168164 0.572164
0.145726 0.293726 0.559726
0.303285 0.313285 0.579285
0.460844 0.332844 0.598844
0.618403 0.352403 0.618403
0.775962 0.371962 0.637962
0.211524 0.497524 0.625524
0.369083 0.517083 0.645083
0.526642 0.536642 0.664642
0.684202 0.556202 0.684202
0.841761 0.575761 0.703761
0.277322 0.701322 0.691322
0.434882 0.720882 0.710882
0.592441 0.740441 0.730441
0.750000 0.760000 0.750000
0.907559 0.779559 0.769559
0.343121 0.905121 0.757121
0.500680 0.924680 0.776680
0.658239 0.944239 0.796239
0.815798 0.963798 0.815798
0.973358 0.983358 0.835358
0.086570 0.096570 0.638570
0.244129 0.116129 0.658129
0.401688 0.135688 0.677688
0.559247 0.155247 0.697247
0.716806 0.174806 0.716806
0.152368 0.300368 0.704368
0.309927 0.319927 0.723927
0.467486 0.339486 0.743486
0.625046 0.359046 0.763046
0.782605 0.378605 0.782605
0.218166 0.504166 0.770166
0.375726 0.523726 0.789726
0.533285 0.543285 0.809285
0.690844 0.562844 0.828844
0.848403 0.582403 0.848403
0.283965 0.707965 0.835965
0.441524 0.727524 0.855524
0.599083 0.747083 0.875083
0.756642 0.766642 0.894642
0.914202 0.786202 0.914202
0.349763 0.911763 0.901763
0.507322 0.931322 0.921322
0.664882 0.950882 0.940882
0.822441 0.970441 0.960441
0.980000 0.990000 0.980000
