assets/luts/film_noir.cube
TITLE "Film Noir"
LUT_3D_SIZE 9
DOMAIN_MIN 0.0 0.0 0.0
DOMAIN_MAX 1.0 1.0 1.0
0.000000 0.000000 0.000000
0.003064 0.002860 0.002568
0.010669 0.009958 0.008942
0.022136 0.020660 0.018552
0.037152 0.034675 0.031137
0.055516 0.051815 0.046528
0.077080 0.071942 0.064601
0.101730 0.094948 0.085259
0.129370 0.120745 0.108424
0.027204 0.025390 0.022799
0.043459 0.040561 0.036422
0.063003 0.058803 0.052802
0.085702 0.079989 0.071827
0.111451 0.104021 0.093406
0.140159 0.130815 0.117467
0.171754 0.160304 0.143946
0.206170 0.192425 0.172790
0.243350 0.227127 0.203951
0.094729 0.088413 0.079392
0.121564 0.113460 0.101882
0.151331 0.141243 0.126830
0.183960 0.171696 0.154176
0.219389 0.204763 0.183869
0.257563 0.240392 0.215862
0.298433 0.278538 0.250116
0.341957 0.319160 0.286593
0.388094 0.362221 0.325260
0.196537 0.183435 0.164717
0.232971 0.217440 0.195252
0.272132 0.253990 0.228073
0.313974 0.293042 0.263140
0.358453 0.334556 0.300418
0.405532 0.378497 0.339875
0.455175 0.424830 0.381480
0.507349 0.473526 0.425207
0.560763 0.523379 0.469973
0.329864 0.307873 0.276457
0.375294 0.350274 0.314532
0.423310 0.395090 0.354774
0.473879 0.442287 0.397155
0.526963 0.491832 0.441645
0.579553 0.540916 0.485721
0.629096 0.587156 0.527242
0.675650 0.630607 0.566259
0.719269 0.671318 0.602816
0.492916 0.460055 0.413110
0.546466 0.510035 0.457991
0.597940 0.558077 0.501130
0.646388 0.603295 0.541734
0.691867 0.645743 0.579851
0.734431 0.685468 0.615523
0.774126 0.722517 0.648791
0.810998 0.756931 0.679693
0.845088 0.788749 0.708264
0.663286 0.619067 0.555897
0.707698 0.660518 0.593118
0.749212 0.699264 0.627911
0.787874 0.735349 0.660314
0.823729 0.768813 0.690363
0.856816 0.799695 0.718093
0.887173 0.828028 0.743536
0.914836 0.853847 0.766720
0.939838 0.877183 0.787674
0.801250 0.747834 0.671524
0.836093 0.780353 0.700725
0.868182 0.810303 0.727619
0.897554 0.837717 0.752236
0.924245 0.862629 0.774605
0.948286 0.885067 0.794754
0.969709 0.905061 0.812708
0.988541 0.922639 0.828492
1.000000 0.937824 0.842128
0.907580 0.847075 0.760639
0.933303 0.871082 0.782197
0.956387 0.892628 0.801543
0.976863 0.911739 0.818704
0.994760 0.928443 0.833704
1.000000 0.942763 0.846563
1.000000 0.954725 0.857305
1.000000 0.964351 0.865948
1.000000 0.971663 0.872513
0.000439 0.000409 0.000368
0.005186 0.004840 0.004346
0.014149 0.013206 0.011858
0.026849 0.025059 0.022502
0.043021 0.040153 0.036056
0.062487 0.058321 0.052370
0.085110 0.079436 0.071331
0.110785 0.103400 0.092849
0.139423 0.130128 0.116849
0.032345 0.030189 0.027108
0.049734 0.046419 0.041682
0.070364 0.065673 0.058972
0.094110 0.087836 0.078873
0.120872 0.112814 0.101303
0.150569 0.140531 0.126191
0.183128 0.170920 0.153479
0.218489 0.203923 0.183115
0.256597 0.239490 0.215052
0.103508 0.096608 0.086750
0.131348 0.122592 0.110082
0.162095 0.151288 0.135851
0.195681 0.182635 0.163999
0.232047 0.216578 0.194478
0.271142 0.253066 0.227243
0.312919 0.292058 0.262256
0.357334 0.333512 0.299480
0.404350 0.377393 0.338884
0.208602 0.194695 0.174828
0.245967 0.229569 0.206144
0.286044 0.266974 0.239732
0.328785 0.306866 0.275554
0.374152 0.349208 0.313575
0.422105 0.393965 0.353765
0.472612 0.441104 0.396093
0.525638 0.490595 0.440535
0.578304 0.539750 0.484674
0.345000 0.322000 0.289143
0.391312 0.365225 0.327957
0.440199 0.410852 0.368929
0.491626 0.458851 0.412030
0.545169 0.508824 0.456903
0.596717 0.556936 0.500106
0.645238 0.602222 0.540771
0.690790 0.644737 0.578948
0.733424 0.684529 0.614679
0.510974 0.476909 0.428245
0.564290 0.526670 0.472929
0.614729 0.573747 0.515202
0.662163 0.618019 0.554956
0.706646 0.659537 0.592237
0.748231 0.698348 0.627088
0.786962 0.734498 0.659549
0.822885 0.768026 0.689656
0.856039 0.798970 0.717442
0.678697 0.633450 0.568812
0.722119 0.673978 0.605204
0.762659 0.711815 0.639181
0.800363 0.747006 0.670781
0.835274 0.779589 0.700039
0.867430 0.809601 0.726989
0.896868 0.837077 0.751661
0.923624 0.862049 0.774085
0.947730 0.884548 0.794288
0.813394 0.759168 0.681702
0.847297 0.790811 0.710116
0.878460 0.819896 0.736233
0.906918 0.846457 0.760083
0.932705 0.870525 0.781696
0.955854 0.892130 0.801096
0.976393 0.911300 0.818311
0.994353 0.928063 0.833362
1.000000 0.942441 0.846274
0.916613 0.855506 0.768209
0.941437 0.878674 0.789013
0.963632 0.899390 0.807615
0.983229 0.917680 0.824040
1.000000 0.933572 0.838310
1.000000 0.947089 0.850447
1.000000 0.958255 0.860474
1.000000 0.967093 0.868410
1.000000 0.973623 0.874273
0.001527 0.001425 0.001280
0.007789 0.007269 0.006528
0.018059 0.016855 0.015135
0.031962 0.029831 0.026787
0.049270 0.045985 0.041293
0.069822 0.065167 0.058517
0.093492 0.087260 0.078356
0.120182 0.112170 0.100724
0.149808 0.139821 0.125554
0.037878 0.035353 0.031746
0.056384 0.052625 0.047255
0.078084 0.072878 0.065442
0.102864 0.096007 0.086210
0.130632 0.121923 0.109482
0.161309 0.150555 0.135192
0.194826 0.181838 0.163283
0.231125 0.215717 0.193705
0.270154 0.252144 0.226415
0.112632 0.105124 0.094397
0.141467 0.132036 0.118563
0.173185 0.161640 0.145146
0.207722 0.193874 0.174091
0.245021 0.228686 0.205351
0.285031 0.266029 0.238883
0.327709 0.305861 0.274651
0.373011 0.348144 0.312619
0.420902 0.392842 0.352756
0.220984 0.206252 0.185206
0.259276 0.241991 0.217298
0.300262 0.280245 0.251648
0.343900 0.320973 0.288221
0.390149 0.364139 0.326982
0.438973 0.409708 0.367901
0.490339 0.457649 0.410950
0.543869 0.507611 0.455814
0.595492 0.555793 0.499079
0.360437 0.336408 0.302081
0.407628 0.380452 0.341631
0.457381 0.426889 0.383329
0.509664 0.475686 0.427147
0.563018 0.525483 0.471863
0.613532 0.572629 0.514198
0.661038 0.616969 0.554013
0.705593 0.658554 0.591354
0.747248 0.697431 0.626265
0.529303 0.494016 0.443606
0.581760 0.542976 0.487570
0.631172 0.589094 0.528982
0.677598 0.632425 0.567892
0.721091 0.673019 0.604343
0.761702 0.710921 0.638378
0.799475 0.746176 0.670036
0.834453 0.778823 0.699351
0.866676 0.808897 0.726357
0.693769 0.647518 0.581445
0.736207 0.687127 0.617012
0.775780 0.724061 0.650177
0.812530 0.758362 0.680978
0.846501 0.790067 0.709448
0.877730 0.819215 0.735621
0.906254 0.845837 0.759527
0.932106 0.869966 0.781194
0.955319 0.891631 0.800648
0.825217 0.770203 0.691611
0.858186 0.800973 0.719241
0.888426 0.829197 0.744585
0.915973 0.854908 0.767673
0.940861 0.878137 0.788531
0.963120 0.898912 0.807186
0.982780 0.917262 0.823664
0.999870 0.933212 0.837986
1.000000 0.946787 0.850176
0.925340 0.863651 0.775523
0.949267 0.885983 0.795576
0.970577 0.905872 0.813436
0.989298 0.923345 0.829126
1.000000 0.938428 0.842670
1.000000 0.951144 0.854088
1.000000 0.961517 0.863403
1.000000 0.969568 0.870633
1.000000 0.975319 0.875797
0.003168 0.002957 0.002655
0.010850 0.010127 0.009094
0.022386 0.020894 0.018762
0.037467 0.034969 0.031401
0.055892 0.052166 0.046843
0.077516 0.072348 0.064966
0.102222 0.095408 0.085672
0.129918 0.121257 0.108884
0.160524 0.149822 0.134534
0.043796 0.040877 0.036706
0.063401 0.059174 0.053136
0.086159 0.080415 0.072210
0.111964 0.104500 0.093836
0.140727 0.131346 0.117943
0.172376 0.160884 0.144467
0.206844 0.193055 0.173355
0.244076 0.227804 0.204559
0.284021 0.265086 0.238036
0.122097 0.113957 0.102329
0.151919 0.141791 0.127323
0.184601 0.172294 0.154713
0.220082 0.205410 0.184449
0.258307 0.241086 0.216486
0.299228 0.279279 0.250781
0.342801 0.319948 0.287300
0.388987 0.363054 0.326008
0.437748 0.408565 0.366875
0.233683 0.218104 0.195849
0.272895 0.254702 0.228712
0.314786 0.293801 0.263821
0.359315 0.335361 0.301140
0.406443 0.379346 0.340638
0.456134 0.425725 0.382283
0.508355 0.474465 0.426050
0.561744 0.524295 0.470795
0.612332 0.571510 0.513193
0.376174 0.351095 0.315269
0.424238 0.395956 0.355552
0.474854 0.443197 0.397973
0.527981 0.492782 0.442498
0.580513 0.541813 0.486526
0.629999 0.587999 0.527999
0.676498 0.631398 0.566969
0.720062 0.672058 0.603481
0.760742 0.710026 0.637575
0.547463 0.510965 0.458826
0.598879 0.558954 0.501918
0.647271 0.604119 0.542474
0.692695 0.646515 0.580544
0.735204 0.686190 0.616171
0.774845 0.723189 0.649394
0.811665 0.757554 0.680252
0.845703 0.789323 0.708779
0.876999 0.818532 0.735008
0.708506 0.661272 0.593795
0.749965 0.699968 0.628542
0.788574 0.736003 0.660901
0.824377 0.769418 0.690906
0.857412 0.800251 0.718593
0.887718 0.828537 0.743993
0.915331 0.854309 0.767135
0.940284 0.877598 0.788047
0.962607 0.898433 0.806756
0.836722 0.780940 0.701253
0.868759 0.810842 0.728103
0.898081 0.838209 0.752678
0.924722 0.863074 0.775005
0.948713 0.885466 0.795112
0.970087 0.905414 0.813025
0.988871 0.922946 0.828768
1.000000 0.938087 0.842364
1.000000 0.950861 0.853834
0.933761 0.871510 0.782581
0.956796 0.893010 0.801886
0.977224 0.912076 0.819007
0.995072 0.928734 0.833965
1.000000 0.943010 0.846785
1.000000 0.954928 0.857486
1.000000 0.964510 0.866091
1.000000 0.971778 0.872617
1.000000 0.976752 0.877084
0.005318 0.004963 0.004457
0.014355 0.013398 0.012030
0.027122 0.025313 0.022730
0.043357 0.040467 0.036338
0.062884 0.058691 0.052702
0.085566 0.079861 0.071712
0.111297 0.103877 0.093277
0.139989 0.130657 0.117324
0.171568 0.160130 0.143790
0.050093 0.046754 0.041983
0.070782 0.066063 0.059322
0.094586 0.088280 0.079272
0.121404 0.113311 0.101748
0.151155 0.141078 0.126683
0.183768 0.171517 0.154015
0.219181 0.204569 0.183695
0.257340 0.240184 0.215675
0.298195 0.278315 0.249916
0.131900 0.123107 0.110545
0.162701 0.151854 0.136359
0.196340 0.183250 0.164551
0.232758 0.217241 0.195073
0.271904 0.253777 0.227881
0.313730 0.292815 0.262936
0.358195 0.334315 0.300201
0.405259 0.378242 0.339646
0.454888 0.424562 0.381239
0.246696 0.230250 0.206755
0.286823 0.267702 0.240385
0.329615 0.307641 0.276249
0.375030 0.350028 0.314311
0.423032 0.394830 0.354541
0.473586 0.442014 0.396910
0.526657 0.491547 0.441389
0.579265 0.540647 0.485479
0.628825 0.586903 0.527015
0.392209 0.366061 0.328708
0.441143 0.411734 0.369720
0.492618 0.459777 0.412861
0.546167 0.509756 0.457740
0.597658 0.557814 0.500894
0.646123 0.603048 0.541512
0.691619 0.645511 0.579642
0.734198 0.685252 0.615328
0.773910 0.722316 0.648610
0.565267 0.527582 0.473747
0.615649 0.574606 0.515973
0.663027 0.618825 0.555680
0.707455 0.660292 0.592915
0.748985 0.699053 0.627721
0.787664 0.735153 0.660137
0.823534 0.768632 0.690200
0.856637 0.799528 0.717943
0.887009 0.827875 0.743398
0.722908 0.674714 0.605866
0.763395 0.712502 0.639797
0.801046 0.747643 0.671353
0.835904 0.780177 0.700567
0.868008 0.810141 0.727474
0.897396 0.837570 0.752103
0.924102 0.862495 0.774485
0.948158 0.884947 0.794647
0.969595 0.904955 0.812613
0.847909 0.791381 0.710628
0.879020 0.820419 0.736703
0.907428 0.846932 0.760511
0.933165 0.870954 0.782081
0.956264 0.892513 0.801440
0.976755 0.911638 0.818614
0.994666 0.928355 0.833625
1.000000 0.942689 0.846496
1.000000 0.954665 0.857250
0.941878 0.879086 0.789384
0.964024 0.899756 0.807944
0.983573 0.918001 0.824328
1.000000 0.933848 0.838558
1.000000 0.947321 0.850655
1.000000 0.958443 0.860643
1.000000 0.967237 0.868539
1.000000 0.973724 0.874364
1.000000 0.977923 0.878135
0.007946 0.007417 0.006660
0.018287 0.017068 0.015327
0.032256 0.030106 0.027034
0.049627 0.046319 0.041592
0.070238 0.065556 0.058867
0.093967 0.087703 0.078753
0.120713 0.112665 0.101169
0.150393 0.140367 0.126044
0.182937 0.170741 0.153318
0.056763 0.052979 0.047573
0.078522 0.073287 0.065809
0.103360 0.096469 0.086625
0.131183 0.122437 0.109944
0.161913 0.151119 0.135699
0.195483 0.182451 0.163834
0.231834 0.216379 0.194299
0.270914 0.252853 0.227052
0.312676 0.291830 0.262052
0.142038 0.132569 0.119041
0.173809 0.162222 0.145669
0.208398 0.194505 0.174658
0.245749 0.229365 0.205961
0.285810 0.266756 0.239536
0.328537 0.306634 0.275345
0.373889 0.348963 0.313354
0.421828 0.393706 0.353532
0.472319 0.440831 0.395849
0.260022 0.242687 0.217923
0.301059 0.280988 0.252316
0.344746 0.321763 0.288930
0.391044 0.364974 0.327732
0.439916 0.410588 0.368691
0.491329 0.458574 0.411781
0.544869 0.508544 0.456652
0.596435 0.556672 0.499869
0.644973 0.601975 0.540549
0.408540 0.381304 0.342396
0.458341 0.427785 0.384134
0.510672 0.476627 0.427991
0.563996 0.526397 0.472683
0.614453 0.573489 0.514970
0.661904 0.617777 0.554738
0.706404 0.659310 0.592033
0.748004 0.698137 0.626898
0.786751 0.734301 0.659373
0.582717 0.543870 0.488373
0.632073 0.589935 0.529737
0.678443 0.633214 0.568600
0.721882 0.673756 0.605006
0.762438 0.711609 0.638996
0.800158 0.746814 0.670609
0.835084 0.779412 0.699880
0.867256 0.809439 0.726843
0.896710 0.836929 0.751528
0.736978 0.687846 0.617658
0.776497 0.724730 0.650778
0.813195 0.758982 0.681535
0.847114 0.790639 0.709962
0.878291 0.819739 0.736092
0.906765 0.846314 0.759955
0.932567 0.870396 0.781580
0.955730 0.892015 0.800993
0.976285 0.911199 0.818220
0.858780 0.801528 0.719739
0.888969 0.829704 0.745041
0.916466 0.855368 0.768086
0.941304 0.878550 0.788902
0.963514 0.899280 0.807516
0.983126 0.917584 0.823953
1.000000 0.933489 0.838235
1.000000 0.947019 0.850385
1.000000 0.958199 0.860423
0.949692 0.886380 0.795933
0.970953 0.906223 0.813751
0.989626 0.923651 0.829401
1.000000 0.938689 0.842904
1.000000 0.951360 0.854283
1.000000 0.961689 0.863558
1.000000 0.969697 0.870749
1.000000 0.975405 0.875874
1.000000 0.978833 0.878952
0.011033 0.010298 0.009247
0.022638 0.021129 0.018973
0.037783 0.035264 0.031666
0.056270 0.052519 0.047160
0.077953 0.072756 0.065332
0.102716 0.095868 0.086086
0.130467 0.121769 0.109344
0.161127 0.150386 0.135040
0.194629 0.181654 0.163118
0.063801 0.059547 0.053471
0.086617 0.080842 0.072593
0.112478 0.104979 0.094267
0.141297 0.131877 0.118420
0.172998 0.161465 0.144989
0.207519 0.193685 0.173921
0.244803 0.228482 0.205168
0.284798 0.265811 0.238688
0.327460 0.305630 0.274443
0.152508 0.142341 0.127816
0.185243 0.172893 0.155251
0.220776 0.206057 0.185031
0.259052 0.241782 0.217110
0.300023 0.280022 0.251448
0.343646 0.320736 0.288008
0.389880 0.363888 0.326757
0.438690 0.409444 0.367664
0.490042 0.457372 0.410701
0.273659 0.255415 0.229352
0.315600 0.294560 0.264503
0.360178 0.336166 0.301863
0.407354 0.380197 0.341401
0.457093 0.426620 0.383087
0.509362 0.475404 0.426894
0.562724 0.525209 0.471616
0.613255 0.572371 0.513966
0.660778 0.616726 0.553795
0.425167 0.396823 0.356331
0.475831 0.444109 0.398792
0.528998 0.493731 0.443351
0.581472 0.542708 0.487329
0.630902 0.588841 0.528756
0.677344 0.632188 0.567679
0.720854 0.672797 0.604144
0.761480 0.710715 0.638193
0.799269 0.745985 0.669864
0.599817 0.559829 0.502704
0.648152 0.604942 0.543214
0.693521 0.647287 0.581237
0.735976 0.686911 0.616818
0.775564 0.723860 0.649997
0.812331 0.758175 0.680810
0.846317 0.789896 0.709294
0.877561 0.819057 0.735480
0.906100 0.845694 0.759398
0.750718 0.700670 0.629173
0.789274 0.736656 0.661487
0.825024 0.770022 0.691448
0.858007 0.800807 0.719092
0.888263 0.829045 0.744449
0.915825 0.854770 0.767549
0.940728 0.878013 0.788419
0.963002 0.898802 0.807087
0.982677 0.917165 0.823577
0.869336 0.811380 0.728586
0.898607 0.838700 0.753118
0.925198 0.863518 0.775404
0.949140 0.885864 0.795469
0.970464 0.905766 0.813341
0.989200 0.923253 0.829044
1.000000 0.938349 0.842599
1.000000 0.951079 0.854030
1.000000 0.961465 0.863356
0.957205 0.893391 0.802229
0.977583 0.912411 0.819308
0.995383 0.929024 0.834226
1.000000 0.943256 0.847006
1.000000 0.955130 0.857668
1.000000 0.964668 0.866233
1.000000 0.971893 0.872720
1.000000 0.976824 0.877148
1.000000 0.979482 0.879535
0.014561 0.013591 0.012204
0.027396 0.025569 0.022960
0.043695 0.040782 0.036620
0.063282 0.059063 0.053036
0.086022 0.080287 0.072095
0.111810 0.104356 0.093707
0.140557 0.131187 0.117800
0.172189 0.160710 0.144311
0.206642 0.192866 0.173185
0.071202 0.066455 0.059674
0.095063 0.088725 0.079671
0.121937 0.113808 0.102195
0.151743 0.141627 0.127175
0.184409 0.172115 0.154552
0.219874 0.205215 0.184275
0.258083 0.240878 0.216299
0.298989 0.279057 0.250582
0.342548 0.319711 0.287088
0.163308 0.152420 0.136867
0.196999 0.183866 0.165104
0.233469 0.217905 0.195670
0.272666 0.254488 0.228520
0.314543 0.293573 0.263617
0.359057 0.335119 0.300924
0.406169 0.379091 0.340409
0.455846 0.425456 0.382042
0.508053 0.474183 0.425797
0.287604 0.268430 0.241039
0.330445 0.308416 0.276945
0.375910 0.350849 0.315048
0.423960 0.395696 0.355319
0.474561 0.442924 0.397728
0.527676 0.492497 0.442243
0.580225 0.541544 0.486284
0.629728 0.587747 0.527772
0.676243 0.631161 0.566756
0.442088 0.412616 0.370512
0.493611 0.460703 0.413693
0.547164 0.510686 0.458575
0.598597 0.558691 0.501681
0.647006 0.603872 0.542253
0.692447 0.646284 0.580336
0.734972 0.685974 0.615976
0.774630 0.722988 0.649213
0.811465 0.757367 0.680085
0.616568 0.575464 0.516743
0.663890 0.619631 0.556403
0.708263 0.661046 0.593592
0.749739 0.699757 0.628353
0.788364 0.735807 0.660725
0.824182 0.769237 0.690743
0.857233 0.800084 0.718443
0.887555 0.828385 0.743856
0.915183 0.854171 0.767010
0.764129 0.713187 0.640413
0.801727 0.748279 0.671924
0.836533 0.780764 0.701094
0.868586 0.810681 0.727958
0.897923 0.838062 0.752545
0.924579 0.862940 0.774885
0.948585 0.885346 0.795005
0.969974 0.905309 0.812930
0.988772 0.922854 0.828685
0.879579 0.820941 0.737171
0.907936 0.847407 0.760937
0.933624 0.871382 0.782466
0.956674 0.892895 0.801784
0.977116 0.911975 0.818916
0.994979 0.928647 0.833887
1.000000 0.942936 0.846718
1.000000 0.954867 0.857432
1.000000 0.964463 0.866048
0.964416 0.900122 0.808273
0.983916 0.918322 0.824615
1.000000 0.934123 0.838805
1.000000 0.947552 0.850863
1.000000 0.958630 0.860811
1.000000 0.967380 0.868668
1.000000 0.973824 0.874454
1.000000 0.977981 0.878187
1.000000 0.979871 0.879884
0.018518 0.017283 0.015520
0.032552 0.030382 0.027282
0.049985 0.046653 0.041893
0.070656 0.065946 0.059217
0.094443 0.088146 0.079152
0.121245 0.113162 0.101614
0.150979 0.140914 0.126535
0.183576 0.171338 0.153854
0.218973 0.204375 0.183521
0.078961 0.073697 0.066177
0.103856 0.096932 0.087041
0.131734 0.122952 0.110406
0.162519 0.151684 0.136206
0.196142 0.183066 0.164386
0.232545 0.217042 0.194895
0.271675 0.253564 0.227690
0.313487 0.292588 0.262732
0.357937 0.334074 0.299985
0.174434 0.162805 0.146193
0.209076 0.195137 0.175225
0.246478 0.230046 0.206572
0.286589 0.267483 0.240189
0.329366 0.307408 0.276040
0.374767 0.349782 0.314090
0.422754 0.394570 0.354308
0.473294 0.441741 0.396665
0.526352 0.491262 0.441133
0.301856 0.281733 0.252984
0.345593 0.322553 0.289640
0.391940 0.365810 0.328483
0.440860 0.411469 0.369483
0.492321 0.459499 0.412612
0.545867 0.509476 0.457489
0.597376 0.557551 0.500658
0.645857 0.602800 0.541290
0.691370 0.645279 0.579434
0.459303 0.428682 0.384939
0.511680 0.477568 0.428837
0.564974 0.527309 0.473502
0.615373 0.574348 0.515741
0.662768 0.618583 0.555463
0.707213 0.660065 0.592712
0.748759 0.698842 0.627531
0.787453 0.734957 0.659961
0.823339 0.768450 0.690037
0.632973 0.590775 0.530491
0.679287 0.634002 0.569308
0.722671 0.674493 0.605667
0.763174 0.712296 0.639613
0.800841 0.747452 0.671181
0.835715 0.780001 0.700409
0.867835 0.809979 0.727328
0.897238 0.837422 0.751971
0.923959 0.862361 0.774365
0.777213 0.725399 0.651379
0.813859 0.759601 0.682091
0.847725 0.791210 0.710475
0.878852 0.820262 0.736562
0.907275 0.846790 0.760383
0.933027 0.870825 0.781966
0.956141 0.892398 0.801337
0.976647 0.911537 0.818523
0.994572 0.928267 0.833546
0.889511 0.830210 0.745495
0.916958 0.855827 0.768498
0.941746 0.878963 0.789273
0.963907 0.899646 0.807846
0.983470 0.917905 0.824241
1.000000 0.933765 0.838483
1.000000 0.947251 0.850593
1.000000 0.958387 0.860592
1.000000 0.967194 0.868500
0.971328 0.906573 0.814066
0.989953 0.923956 0.829675
1.000000 0.938949 0.843138
1.000000 0.951576 0.854477
1.000000 0.961861 0.863712
1.000000 0.969826 0.870864
1.000000 0.975491 0.875951
1.000000 0.978876 0.878990
1.000000 0.980000 0.880000
