assets/luts/film_noir.cube
TITLE "Film Noir"
LUT_3D_SIZE 17
DOMAIN_MIN 0.0 0.0 0.0
DOMAIN_MAX 1.0 1.0 1.0
0.000000 0.000000 0.000000
0.000880 0.000821 0.000737
0.003064 0.002860 0.002568
0.006357 0.005933 0.005328
0.010669 0.009958 0.008942
0.015943 0.014880 0.013362
0.022136 0.020660 0.018552
0.029214 0.027267 0.024484
0.037152 0.034675 0.031137
0.045925 0.042864 0.038490
0.055516 0.051815 0.046528
0.065906 0.061512 0.055235
0.077080 0.071942 0.064601
0.089026 0.083091 0.074612
0.101730 0.094948 0.085259
0.115181 0.107502 0.096533
0.129370 0.120745 0.108424
0.007812 0.007291 0.006547
0.012480 0.011648 0.010460
0.018093 0.016887 0.015164
0.024612 0.022971 0.020627
0.032006 0.029872 0.026824
0.040250 0.037567 0.033734
0.049323 0.046035 0.041338
0.059207 0.055260 0.049621
0.069884 0.065225 0.058569
0.081341 0.075918 0.068171
0.093564 0.087326 0.078415
0.106541 0.099438 0.089291
0.120262 0.112244 0.100791
0.134717 0.125736 0.112905
0.149896 0.139903 0.125627
0.165791 0.154738 0.138949
0.182394 0.170235 0.152864
0.027204 0.025390 0.022799
0.034910 0.032583 0.029258
0.043459 0.040561 0.036422
0.052829 0.049307 0.044275
0.063003 0.058803 0.052802
0.073965 0.069034 0.061990
0.085702 0.079989 0.071827
0.098201 0.091655 0.082302
0.111451 0.104021 0.093406
0.125440 0.117077 0.105131
0.140159 0.130815 0.117467
0.155600 0.145227 0.130408
0.171754 0.160304 0.143946
0.188613 0.176039 0.158076
0.206170 0.192425 0.172790
0.224418 0.209457 0.188084
0.243350 0.227127 0.203951
0.056441 0.052678 0.047303
0.066903 0.062443 0.056071
0.078150 0.072940 0.065497
0.090165 0.084154 0.075567
0.102939 0.096076 0.086272
0.116459 0.108695 0.097603
0.130715 0.122000 0.109551
0.145698 0.135985 0.122109
0.161399 0.150639 0.135268
0.177811 0.165957 0.149022
0.194924 0.181930 0.163365
0.212734 0.198551 0.178291
0.231232 0.215816 0.193794
0.250412 0.233718 0.209869
0.270268 0.252250 0.226510
0.290795 0.271409 0.243714
0.311987 0.291188 0.261475
0.094729 0.088413 0.079392
0.107775 0.100590 0.090326
0.121564 0.113460 0.101882
0.136086 0.127013 0.114053
0.151331 0.141243 0.126830
0.167292 0.156139 0.140207
0.183960 0.171696 0.154176
0.201328 0.187906 0.168732
0.219389 0.204763 0.183869
0.238136 0.222260 0.199580
0.257563 0.240392 0.215862
0.277664 0.259153 0.232709
0.298433 0.278538 0.250116
0.319866 0.298542 0.268078
0.341957 0.319160 0.286593
0.364701 0.340388 0.305654
0.388094 0.362221 0.325260
0.141553 0.132116 0.118635
0.157060 0.146589 0.131631
0.173279 0.161727 0.145224
0.190203 0.177522 0.159408
0.207823 0.193969 0.174176
0.226135 0.211059 0.189522
0.245130 0.228788 0.205442
0.264803 0.247149 0.221930
0.285148 0.266138 0.238981
0.306160 0.285749 0.256591
0.327833 0.305977 0.274755
0.350162 0.326818 0.293469
0.373143 0.348267 0.312729
0.396770 0.370319 0.332531
0.421041 0.392971 0.352872
0.445949 0.416219 0.373748
0.471492 0.440059 0.395155
0.196537 0.183435 0.164717
0.214410 0.200116 0.179696
0.232971 0.217440 0.195252
0.252214 0.235400 0.211379
0.272132 0.253990 0.228073
0.292721 0.273206 0.245328
0.313974 0.293042 0.263140
0.335886 0.313494 0.281505
0.358453 0.334556 0.300418
0.381670 0.356225 0.319876
0.405532 0.378497 0.339875
0.430035 0.401366 0.360411
0.455175 0.424830 0.381480
0.480948 0.448885 0.403080
0.507349 0.473526 0.425207
0.534293 0.498674 0.447789
0.560763 0.523379 0.469973
0.259388 0.242095 0.217392
0.279551 0.260914 0.234290
0.300382 0.280356 0.251748
0.321875 0.300417 0.269762
0.344027 0.321092 0.288327
0.366831 0.342375 0.307439
0.390283 0.364264 0.327094
0.414379 0.386754 0.347289
0.439114 0.409840 0.368020
0.464485 0.433519 0.389283
0.490487 0.457788 0.411075
0.517117 0.482642 0.433393
0.544019 0.507751 0.455940
0.570209 0.532195 0.477889
0.595634 0.555925 0.499198
0.620302 0.578948 0.519872
0.644220 0.601272 0.539918
0.329864 0.307873 0.276457
0.352253 0.328770 0.295222
0.375294 0.350274 0.314532
0.398981 0.372382 0.334384
0.423310 0.395090 0.354774
0.448278 0.418392 0.375699
0.473879 0.442287 0.397155
0.500110 0.466769 0.419139
0.526963 0.491832 0.441645
0.553643 0.516733 0.464006
0.579553 0.540916 0.485721
0.604702 0.564388 0.506798
0.629096 0.587156 0.527242
0.652743 0.609227 0.547061
0.675650 0.630607 0.566259
0.697823 0.651302 0.584842
0.719269 0.671318 0.602816
0.407764 0.380580 0.341745
0.432326 0.403505 0.362331
0.457525 0.427023 0.383449
0.483356 0.451132 0.405098
0.509815 0.475827 0.427273
0.536766 0.500981 0.449861
0.563165 0.525620 0.471986
0.588797 0.549544 0.493468
0.613670 0.572758 0.514314
0.637791 0.595272 0.534530
0.661168 0.617090 0.554122
0.683807 0.638220 0.573095
0.705715 0.658667 0.591456
0.726898 0.678438 0.609209
0.747361 0.697537 0.626360
0.767111 0.715971 0.642912
0.786154 0.733744 0.658872
0.492916 0.460055 0.413110
0.519603 0.484963 0.435477
0.546466 0.510035 0.457991
0.572585 0.534412 0.479881
0.597940 0.558077 0.501130
0.622538 0.581036 0.521746
0.646388 0.603295 0.541734
0.669495 0.624862 0.561101
0.691867 0.645743 0.579851
0.713510 0.665943 0.597990
0.734431 0.685468 0.615523
0.754634 0.704325 0.632455
0.774126 0.722517 0.648791
0.792912 0.740051 0.664536
0.810998 0.756931 0.679693
0.828388 0.773162 0.694268
0.845088 0.788749 0.708264
0.581904 0.543110 0.487691
0.606982 0.566517 0.508709
0.631307 0.589220 0.529096
0.654886 0.611227 0.548857
0.677725 0.632543 0.567998
0.699831 0.653175 0.586525
0.721210 0.673129 0.604443
0.741868 0.692411 0.621756
0.761812 0.711025 0.638471
0.781047 0.728977 0.654591
0.799577 0.746272 0.670122
0.817409 0.762915 0.685067
0.834547 0.778911 0.699430
0.850997 0.794264 0.713217
0.866763 0.808978 0.726430
0.881849 0.823059 0.739073
0.896260 0.836509 0.751151
0.663286 0.619067 0.555897
0.685857 0.640133 0.574814
0.707698 0.660518 0.593118
0.728814 0.680226 0.610816
0.749212 0.699264 0.627911
0.768897 0.717637 0.644409
0.787874 0.735349 0.660314
0.806150 0.752406 0.675630
0.823729 0.768813 0.690363
0.840616 0.784575 0.704516
0.856816 0.799695 0.718093
0.872333 0.814178 0.731098
0.887173 0.828028 0.743536
0.901339 0.841250 0.755408
0.914836 0.853847 0.766720
0.927668 0.865824 0.777474
0.939838 0.877183 0.787674
0.736323 0.687235 0.617109
0.756460 0.706030 0.633986
0.775887 0.724161 0.650267
0.794609 0.741635 0.665958
0.812630 0.758455 0.681061
0.829956 0.774626 0.695583
0.846593 0.790153 0.709525
0.862544 0.805041 0.722894
0.877814 0.819293 0.735692
0.892408 0.832914 0.747923
0.906330 0.845908 0.759591
0.919585 0.858279 0.770700
0.932175 0.870030 0.781252
0.944106 0.881165 0.791251
0.955380 0.891688 0.800700
0.966003 0.901603 0.809602
0.975976 0.910911 0.817961
0.801250 0.747834 0.671524
0.819018 0.764417 0.686415
0.836093 0.780353 0.700725
0.852479 0.795647 0.714459
0.868182 0.810303 0.727619
0.883205 0.824325 0.740210
0.897554 0.837717 0.752236
0.911233 0.850484 0.763700
0.924245 0.862629 0.774605
0.936595 0.874155 0.784956
0.948286 0.885067 0.794754
0.959323 0.895368 0.804004
0.969709 0.905061 0.812708
0.979447 0.914151 0.820870
0.988541 0.922639 0.828492
0.996995 0.930529 0.835577
1.000000 0.937824 0.842128
0.858275 0.801056 0.719316
0.873730 0.815481 0.732269
0.888507 0.829273 0.744654
0.902612 0.842438 0.756475
0.916047 0.854977 0.767735
0.928818 0.866896 0.778438
0.940927 0.878199 0.788587
0.952380 0.888888 0.798185
0.963179 0.898967 0.807236
0.973329 0.908440 0.815742
0.982832 0.917310 0.823707
0.991693 0.925580 0.831133
0.999914 0.933253 0.838023
1.000000 0.940333 0.844381
1.000000 0.946822 0.850207
1.000000 0.952723 0.855506
1.000000 0.958038 0.860279
0.907580 0.847075 0.760639
0.920773 0.859388 0.771696
0.933303 0.871082 0.782197
0.945173 0.882161 0.792145
0.956387 0.892628 0.801543
0.966949 0.902486 0.810396
0.976863 0.911739 0.818704
0.986132 0.920390 0.826473
0.994760 0.928443 0.833704
1.000000 0.935899 0.840399
1.000000 0.942763 0.846563
1.000000 0.949038 0.852197
1.000000 0.954725 0.857305
1.000000 0.959829 0.861887
1.000000 0.964351 0.865948
1.000000 0.968295 0.869489
1.000000 0.971663 0.872513
0.000126 0.000118 0.000106
0.001489 0.001390 0.001248
0.004063 0.003792 0.003405
0.007710 0.007196 0.006462
0.012355 0.011531 0.010354
0.017945 0.016748 0.015039
0.024442 0.022812 0.020484
0.031815 0.029694 0.026664
0.040039 0.037369 0.033556
0.049092 0.045819 0.041144
0.058955 0.055025 0.049410
0.069613 0.064973 0.058343
0.081051 0.075648 0.067929
0.093256 0.087038 0.078157
0.106215 0.099134 0.089018
0.119918 0.111923 0.100502
0.134354 0.125397 0.112602
0.009289 0.008669 0.007785
0.014282 0.013330 0.011970
0.020207 0.018860 0.016935
0.027026 0.025224 0.022650
0.034711 0.032397 0.029092
0.043240 0.040357 0.036239
0.052590 0.049084 0.044075
0.062745 0.058562 0.052586
0.073688 0.068775 0.061758
0.085406 0.079713 0.071579
0.097887 0.091361 0.082038
0.111118 0.103710 0.093127
0.125089 0.116750 0.104837
0.139791 0.130471 0.117158
0.155214 0.144866 0.130084
0.171351 0.159927 0.143608
0.188192 0.175646 0.157723
0.029725 0.027743 0.024912
0.037720 0.035205 0.031613
0.046549 0.043446 0.039013
0.056195 0.052448 0.047096
0.066638 0.062196 0.055849
0.077865 0.072674 0.065258
0.089862 0.083872 0.075313
0.102617 0.095776 0.086003
0.116119 0.108378 0.097319
0.130357 0.121667 0.109252
0.145323 0.135635 0.121794
0.161007 0.150273 0.134939
0.177401 0.165574 0.148679
0.194498 0.181531 0.163007
0.212290 0.198137 0.177919
0.230771 0.215386 0.193408
0.249934 0.233272 0.209469
0.059905 0.055911 0.050206
0.070636 0.065927 0.059199
0.082144 0.076668 0.068845
0.094419 0.088124 0.079132
0.107447 0.100284 0.090051
0.121218 0.113137 0.101592
0.135722 0.126674 0.113748
0.150950 0.140887 0.126510
0.166893 0.155767 0.139873
0.183544 0.171308 0.153827
0.200895 0.187502 0.168369
0.218939 0.204343 0.183492
0.237669 0.221824 0.199189
0.257079 0.239941 0.215457
0.277164 0.258686 0.232290
0.297917 0.278056 0.249683
0.319334 0.298045 0.267632
0.099075 0.092470 0.083034
0.112375 0.104883 0.094181
0.126414 0.117986 0.105947
0.141183 0.131770 0.118324
0.156672 0.146227 0.131306
0.172874 0.161349 0.144885
0.189780 0.177128 0.159054
0.207384 0.193559 0.173808
0.225679 0.210633 0.189140
0.244657 0.228347 0.205046
0.264314 0.246693 0.221520
0.284642 0.265666 0.238558
0.305638 0.285262 0.256154
0.327295 0.305475 0.274304
0.349608 0.326301 0.293005
0.372573 0.347735 0.312252
0.396185 0.369773 0.332041
0.146739 0.136956 0.122981
0.162488 0.151656 0.136181
0.178948 0.167018 0.149975
0.196109 0.183035 0.164358
0.213965 0.199701 0.179323
0.232509 0.217009 0.194865
0.251735 0.234953 0.210978
0.271637 0.253528 0.227658
0.292209 0.272729 0.244899
0.313446 0.292550 0.262698
0.335343 0.312986 0.281049
0.357894 0.334034 0.299949
0.381095 0.355688 0.319394
0.404941 0.377945 0.339379
0.429428 0.400800 0.359902
0.454553 0.424249 0.380958
0.480310 0.448289 0.402545
0.202530 0.189028 0.169739
0.220637 0.205928 0.184915
0.239430 0.223468 0.200665
0.258903 0.241643 0.216985
0.279049 0.260446 0.233870
0.299864 0.279873 0.251315
0.321342 0.299919 0.269315
0.343477 0.320579 0.287866
0.366265 0.341848 0.306965
0.389702 0.363722 0.326607
0.413782 0.386196 0.346789
0.438502 0.409268 0.367506
0.463857 0.432933 0.388756
0.489844 0.457187 0.410536
0.516458 0.482027 0.432841
0.543369 0.507144 0.455395
0.569577 0.531606 0.477360
0.266160 0.248416 0.223067
0.286550 0.267447 0.240156
0.307607 0.287100 0.257804
0.329324 0.307370 0.276005
0.351698 0.328251 0.294756
0.374723 0.349741 0.314053
0.398394 0.371835 0.333892
0.422708 0.394527 0.354269
0.447659 0.417815 0.375181
0.473245 0.441695 0.396624
0.499460 0.466163 0.418595
0.526301 0.491214 0.441090
0.553000 0.516133 0.463466
0.578929 0.540333 0.485197
0.604096 0.563823 0.506290
0.628508 0.586608 0.526750
0.652174 0.608695 0.546584
0.337394 0.314901 0.282768
0.360005 0.336005 0.301719
0.383266 0.357715 0.321213
0.407172 0.380027 0.341249
0.431718 0.402937 0.361821
0.456901 0.426441 0.382926
0.482716 0.450535 0.404562
0.509160 0.475216 0.426725
0.536110 0.500370 0.449312
0.562528 0.525026 0.471452
0.588179 0.548967 0.492950
0.613070 0.572199 0.513811
0.637210 0.594729 0.534043
0.660605 0.616565 0.553650
0.683262 0.637711 0.572639
0.705188 0.658175 0.591014
0.726388 0.677962 0.608782
0.416034 0.388299 0.348676
0.440813 0.411425 0.369443
0.466226 0.435145 0.390742
0.492271 0.459453 0.412570
0.518943 0.484347 0.434924
0.545818 0.509430 0.457447
0.571955 0.533825 0.479353
0.597329 0.557507 0.500618
0.621945 0.580482 0.521250
0.645813 0.602759 0.541253
0.668939 0.624343 0.560634
0.691329 0.645240 0.579399
0.712990 0.665457 0.597553
0.733927 0.684999 0.615101
0.754148 0.703872 0.632048
0.773657 0.722080 0.648399
0.792461 0.739630 0.664158
0.501909 0.468448 0.420647
0.528795 0.493542 0.443180
0.555422 0.518394 0.465497
0.581281 0.542529 0.487169
0.606378 0.565953 0.508202
0.630721 0.588673 0.528604
0.654318 0.610697 0.548381
0.677175 0.632030 0.567537
0.699299 0.652679 0.586079
0.720696 0.672649 0.604012
0.741372 0.691947 0.621340
0.761333 0.710577 0.638069
0.780585 0.728546 0.654204
0.799132 0.745857 0.669749
0.816981 0.762516 0.684708
0.834137 0.778527 0.699086
0.850603 0.793896 0.712886
0.590505 0.551138 0.494900
0.615327 0.574305 0.515703
0.639398 0.596771 0.535876
0.662725 0.618543 0.555426
0.685314 0.639626 0.574358
0.707172 0.660028 0.592678
0.728306 0.679752 0.610390
0.748721 0.698807 0.627500
0.768424 0.717195 0.644012
0.787418 0.734924 0.659932
0.805711 0.751997 0.675263
0.823307 0.768420 0.690010
0.840211 0.784197 0.704177
0.856428 0.799332 0.717768
0.871962 0.813831 0.730787
0.886818 0.827697 0.743238
0.901001 0.840934 0.755125
0.671034 0.626298 0.562390
0.693356 0.647132 0.581098
0.714950 0.667287 0.599196
0.735822 0.686767 0.616689
0.755976 0.705578 0.633580
0.775420 0.723726 0.649876
0.794159 0.741215 0.665581
0.812198 0.758051 0.680699
0.829541 0.774238 0.695234
0.846194 0.789781 0.709191
0.862162 0.804684 0.722574
0.877449 0.818952 0.735386
0.892059 0.832589 0.747631
0.905998 0.845598 0.759313
0.919268 0.857984 0.770435
0.931875 0.869750 0.781000
0.943822 0.880900 0.791013
0.743242 0.693692 0.622907
0.763137 0.712261 0.639582
0.782324 0.730169 0.655662
0.800807 0.747420 0.671153
0.818592 0.764019 0.686058
0.835683 0.779971 0.700382
0.852086 0.795281 0.714130
0.867806 0.809952 0.727304
0.882846 0.823990 0.739909
0.897211 0.837397 0.751949
0.910906 0.850179 0.763426
0.923935 0.862339 0.774345
0.936301 0.873881 0.784709
0.948008 0.884808 0.794521
0.959061 0.895123 0.803784
0.969462 0.904832 0.812502
0.979217 0.913935 0.820677
0.807362 0.753538 0.676647
0.824894 0.769901 0.691340
0.841735 0.785619 0.705454
0.857888 0.800696 0.718992
0.873360 0.815136 0.731959
0.888154 0.828944 0.744358
0.902275 0.842123 0.756192
0.915726 0.854678 0.767466
0.928513 0.866612 0.778183
0.940639 0.877930 0.788345
0.952108 0.888634 0.797957
0.962923 0.898728 0.807021
0.973088 0.908216 0.815541
0.982608 0.917100 0.823519
0.991484 0.925385 0.830958
0.999721 0.933073 0.837861
1.000000 0.940167 0.844231
0.863600 0.806026 0.723779
0.878824 0.820236 0.736538
0.893372 0.833814 0.748731
0.907249 0.846766 0.760361
0.920458 0.859095 0.771432
0.933004 0.870804 0.781946
0.944890 0.881898 0.791908
0.956121 0.892379 0.801320
0.966699 0.902252 0.810186
0.976629 0.911520 0.818508
0.985913 0.920186 0.826289
0.994557 0.928253 0.833533
1.000000 0.935724 0.840242
1.000000 0.942603 0.846419
1.000000 0.948891 0.852066
1.000000 0.954593 0.857186
1.000000 0.959711 0.861781
0.912135 0.851326 0.764456
0.925102 0.863429 0.775324
0.937408 0.874914 0.785637
0.949054 0.885784 0.795398
0.960047 0.896044 0.804611
0.970389 0.905696 0.813278
0.980083 0.914744 0.821403
0.989134 0.923192 0.828989
0.997545 0.931042 0.836037
1.000000 0.938297 0.842552
1.000000 0.944960 0.848536
1.000000 0.951035 0.853991
1.000000 0.956524 0.858920
1.000000 0.961430 0.863325
1.000000 0.965755 0.867209
1.000000 0.969503 0.870574
1.000000 0.972676 0.873423
0.000439 0.000409 0.000368
0.002237 0.002088 0.001875
0.005186 0.004840 0.004346
0.009179 0.008567 0.007693
0.014149 0.013206 0.011858
0.020051 0.018714 0.016805
0.026849 0.025059 0.022502
0.034513 0.032212 0.028925
0.043021 0.040153 0.036056
0.052351 0.048861 0.043876
0.062487 0.058321 0.052370
0.073411 0.068517 0.061525
0.085110 0.079436 0.071331
0.097572 0.091068 0.081775
0.110785 0.103400 0.092849
0.124739 0.116423 0.104543
0.139423 0.130128 0.116849
0.010878 0.010153 0.009117
0.016192 0.015113 0.013570
0.022424 0.020929 0.018793
0.029540 0.027571 0.024757
0.037514 0.035013 0.031441
0.046324 0.043235 0.038824
0.055949 0.052219 0.046891
0.066373 0.061948 0.055627
0.077581 0.072409 0.065021
0.089560 0.083589 0.075060
0.102296 0.095477 0.085734
0.115780 0.108061 0.097035
0.130000 0.121334 0.108953
0.144948 0.135285 0.121480
0.160615 0.149907 0.134610
0.176991 0.165192 0.148336
0.194071 0.181133 0.162650
0.032345 0.030189 0.027108
0.040626 0.037917 0.034048
0.049734 0.046419 0.041682
0.059652 0.055676 0.049994
0.070364 0.065673 0.058972
0.081854 0.076397 0.068601
0.094110 0.087836 0.078873
0.107119 0.099978 0.089776
0.120872 0.112814 0.101303
0.135359 0.126335 0.113443
0.150569 0.140531 0.126191
0.166495 0.155395 0.139539
0.183128 0.170920 0.153479
0.200462 0.187098 0.168006
0.218489 0.203923 0.183115
0.237203 0.221389 0.198798
0.256597 0.239490 0.215052
0.063461 0.059230 0.053186
0.074457 0.069494 0.062402
0.086228 0.080479 0.072267
0.098759 0.092175 0.082770
0.112041 0.104571 0.093901
0.126062 0.117658 0.105652
0.140813 0.131425 0.118015
0.156285 0.145866 0.130981
0.172469 0.160971 0.144546
0.189358 0.176735 0.158700
0.206945 0.193149 0.173440
0.225223 0.210208 0.188758
0.244185 0.227906 0.204650
0.263825 0.246237 0.221110
0.284137 0.265195 0.238134
0.305116 0.284775 0.255717
0.326757 0.304973 0.273854
0.103508 0.096608 0.086750
0.117060 0.109256 0.098108
0.131348 0.122592 0.110082
0.146363 0.136605 0.122666
0.162095 0.151288 0.135851
0.178537 0.166634 0.149631
0.195681 0.182635 0.163999
0.213520 0.199285 0.178950
0.232047 0.216578 0.194478
0.251257 0.234506 0.210577
0.271142 0.253066 0.227243
0.291698 0.272252 0.244471
0.312919 0.292058 0.262256
0.334799 0.312479 0.280594
0.357334 0.333512 0.299480
0.380519 0.355151 0.318911
0.404350 0.377393 0.338884
0.152007 0.141874 0.127397
0.167999 0.156799 0.140799
0.184697 0.172384 0.154794
0.202095 0.188622 0.169375
0.220186 0.205507 0.184537
0.238962 0.223031 0.200273
0.258419 0.241191 0.216579
0.278549 0.259979 0.233450
0.299347 0.279391 0.250881
0.320809 0.299421 0.268868
0.342928 0.320066 0.287406
0.365700 0.341320 0.306491
0.389121 0.363179 0.326120
0.413185 0.385640 0.346289
0.437889 0.408697 0.366993
0.463229 0.432347 0.388230
0.489200 0.456587 0.409997
0.208602 0.194695 0.174828
0.226943 0.211813 0.190199
0.245967 0.229569 0.206144
0.265670 0.247958 0.222656
0.286044 0.266974 0.239732
0.307084 0.286612 0.257366
0.328785 0.306866 0.275554
0.351143 0.327733 0.294291
0.374152 0.349208 0.313575
0.397807 0.371287 0.333401
0.422105 0.393965 0.353765
0.447041 0.417239 0.374663
0.472612 0.441104 0.396093
0.498812 0.465558 0.418052
0.525638 0.490595 0.440535
0.552356 0.515532 0.462927
0.578304 0.539750 0.484674
0.273010 0.254809 0.228808
0.293627 0.274052 0.246087
0.314908 0.293915 0.263923
0.336849 0.314393 0.282312
0.359445 0.335482 0.301249
0.382689 0.357177 0.320730
0.406579 0.379474 0.340752
0.431110 0.402369 0.361311
0.456277 0.425859 0.382404
0.482077 0.449939 0.404027
0.508506 0.474606 0.426176
0.535455 0.499758 0.448762
0.561891 0.524432 0.470918
0.587561 0.548390 0.492432
0.612471 0.571639 0.513309
0.636629 0.594187 0.533555
0.660042 0.616039 0.553178
0.345000 0.322000 0.289143
0.367832 0.343310 0.308278
0.391312 0.365225 0.327957
0.415436 0.387740 0.348175
0.440199 0.410852 0.368929
0.465597 0.434557 0.390215
0.491626 0.458851 0.412030
0.518283 0.483731 0.434371
0.545169 0.508824 0.456903
0.571325 0.533237 0.478825
0.596717 0.556936 0.500106
0.621352 0.579929 0.520752
0.645238 0.602222 0.540771
0.668382 0.623823 0.560168
0.690790 0.644737 0.578948
0.712468 0.664971 0.597116
0.733424 0.684529 0.614679
0.424378 0.396086 0.355669
0.449372 0.419414 0.376617
0.475001 0.443334 0.398096
0.501259 0.467842 0.420103
0.528134 0.492925 0.442626
0.554780 0.517795 0.464959
0.580657 0.541947 0.486646
0.605773 0.565388 0.507695
0.630135 0.588126 0.528113
0.653750 0.610166 0.547904
0.676625 0.631516 0.567076
0.698766 0.652182 0.585633
0.720181 0.672169 0.603580
0.740875 0.691483 0.620923
0.760853 0.710130 0.637667
0.780122 0.728114 0.653817
0.798687 0.745441 0.669376
0.510974 0.476909 0.428245
0.537924 0.502063 0.450832
0.564290 0.526670 0.472929
0.589889 0.550563 0.494383
0.614729 0.573747 0.515202
0.638818 0.596230 0.535390
0.662163 0.618019 0.554956
0.684770 0.639119 0.573903
0.706646 0.659537 0.592237
0.727798 0.679278 0.609964
0.748231 0.698348 0.627088
0.767950 0.716753 0.643615
0.786962 0.734498 0.659549
0.805272 0.751587 0.674895
0.822885 0.768026 0.689656
0.839806 0.783819 0.703837
0.856039 0.798970 0.717442
0.599020 0.559085 0.502036
0.623586 0.582013 0.522624
0.647403 0.604243 0.542585
0.670478 0.625780 0.561925
0.692819 0.646631 0.580648
0.714431 0.666802 0.598761
0.735320 0.686298 0.616268
0.755492 0.705126 0.633174
0.774953 0.723290 0.649485
0.793709 0.740795 0.665204
0.811765 0.757647 0.680336
0.829125 0.773850 0.694886
0.845795 0.789409 0.708857
0.861779 0.804328 0.722253
0.877083 0.818611 0.735079
0.891710 0.832263 0.747338
0.905665 0.845287 0.759033
0.678697 0.633450 0.568812
0.700771 0.654053 0.587313
0.722119 0.673978 0.605204
0.742746 0.693230 0.622492
0.762659 0.711815 0.639181
0.781863 0.729739 0.655276
0.800363 0.747006 0.670781
0.818165 0.763621 0.685700
0.835274 0.779589 0.700039
0.851693 0.794914 0.713800
0.867430 0.809601 0.726989
0.882486 0.823654 0.739608
0.896868 0.837077 0.751661
0.910579 0.849874 0.763152
0.923624 0.862049 0.774085
0.936006 0.873606 0.784462
0.947730 0.884548 0.794288
0.750078 0.700073 0.628637
0.769732 0.718417 0.645109
0.788679 0.736101 0.660989
0.806925 0.753130 0.676280
0.824474 0.769509 0.690987
0.841331 0.785242 0.705115
0.857501 0.800335 0.718668
0.872990 0.814790 0.731648
0.887800 0.828613 0.744061
0.901937 0.841808 0.755909
0.915405 0.854378 0.767197
0.928208 0.866328 0.777927
0.940350 0.877660 0.788103
0.951835 0.888379 0.797728
0.962666 0.898488 0.806806
0.972847 0.907991 0.815339
0.982382 0.916890 0.823330
0.813394 0.759168 0.681702
0.830691 0.775311 0.696198
0.847297 0.790811 0.710116
0.863219 0.805671 0.723460
0.878460 0.819896 0.736233
0.893025 0.833490 0.748440
0.906918 0.846457 0.760083
0.920143 0.858800 0.771168
0.932705 0.870525 0.781696
0.944607 0.881633 0.791671
0.955854 0.892130 0.801096
0.966448 0.902018 0.809975
0.976393 0.911300 0.818311
0.985694 0.919981 0.826105
0.994353 0.928063 0.833362
1.000000 0.935548 0.840084
1.000000 0.942441 0.846274
0.868846 0.810923 0.728176
0.883840 0.824918 0.740742
0.898160 0.838283 0.752744
0.911810 0.851022 0.764183
0.924793 0.863140 0.775065
0.937114 0.874640 0.785391
0.948777 0.885526 0.795166
0.959786 0.895800 0.804392
0.970144 0.905467 0.813073
0.979854 0.914530 0.821211
0.988920 0.922992 0.828809
0.997346 0.930857 0.835871
1.000000 0.938126 0.842399
1.000000 0.944804 0.848396
1.000000 0.950893 0.853864
1.000000 0.956397 0.858805
1.000000 0.961317 0.863223
0.916613 0.855506 0.768209
0.929355 0.867398 0.778888
0.941437 0.878674 0.789013
0.952861 0.889337 0.798588
0.963632 0.899390 0.807615
0.973753 0.908837 0.816098
0.983229 0.917680 0.824040
0.992062 0.925925 0.831442
1.000000 0.933572 0.838310
1.000000 0.940626 0.844644
1.000000 0.947089 0.850447
1.000000 0.952965 0.855723
1.000000 0.958255 0.860474
1.000000 0.962964 0.864702
1.000000 0.967093 0.868410
1.000000 0.970645 0.871599
1.000000 0.973623 0.874273
0.000910 0.000849 0.000763
0.003116 0.002908 0.002611
0.006429 0.006000 0.005388
0.010760 0.010042 0.009018
0.016051 0.014981 0.013452
0.022261 0.020777 0.018657
0.029356 0.027399 0.024603
0.037309 0.034822 0.031269
0.046098 0.043025 0.038635
0.055704 0.051990 0.046685
0.066109 0.061702 0.055406
0.077298 0.072145 0.064783
0.089258 0.083307 0.074806
0.101976 0.095178 0.085466
0.115441 0.107745 0.096751
0.129644 0.121001 0.108654
0.144574 0.134936 0.121167
0.012577 0.011739 0.010541
