assets/luts/film_noir.cube
TITLE "Film Noir"
LUT_3D_SIZE 5
DOMAIN_MIN 0.0 0.0 0.0
DOMAIN_MAX 1.0 1.0 1.0
0.000000 0.000000 0.000000
0.010669 0.009958 0.008942
0.037152 0.034675 0.031137
0.077080 0.071942 0.064601
0.129370 0.120745 0.108424
0.094729 0.088413 0.079392
0.151331 0.141243 0.126830
0.219389 0.204763 0.183869
0.298433 0.278538 0.250116
0.388094 0.362221 0.325260
0.329864 0.307873 0.276457
0.423310 0.395090 0.354774
0.526963 0.491832 0.441645
0.629096 0.587156 0.527242
0.719269 0.671318 0.602816
0.663286 0.619067 0.555897
0.749212 0.699264 0.627911
0.823729 0.768813 0.690363
0.887173 0.828028 0.743536
0.939838 0.877183 0.787674
0.907580 0.847075 0.760639
0.956387 0.892628 0.801543
0.994760 0.928443 0.833704
1.000000 0.954725 0.857305
1.000000 0.971663 0.872513
0.001527 0.001425 0.001280
0.018059 0.016855 0.015135
0.049270 0.045985 0.041293
0.093492 0.087260 0.078356
0.149808 0.139821 0.125554
0.112632 0.105124 0.094397
0.173185 0.161640 0.145146
0.245021 0.228686 0.205351
0.327709 0.305861 0.274651
0.420902 0.392842 0.352756
0.360437 0.336408 0.302081
0.457381 0.426889 0.383329
0.563018 0.525483 0.471863
0.661038 0.616969 0.554013
0.747248 0.697431 0.626265
0.693769 0.647518 0.581445
0.775780 0.724061 0.650177
0.846501 0.790067 0.709448
0.906254 0.845837 0.759527
0.955319 0.891631 0.800648
0.925340 0.863651 0.775523
0.970577 0.905872 0.813436
1.000000 0.938428 0.842670
1.000000 0.961517 0.863403
1.000000 0.975319 0.875797
0.005318 0.004963 0.004457
0.027122 0.025313 0.022730
0.062884 0.058691 0.052702
0.111297 0.103877 0.093277
0.171568 0.160130 0.143790
0.131900 0.123107 0.110545
0.196340 0.183250 0.164551
0.271904 0.253777 0.227881
0.358195 0.334315 0.300201
0.454888 0.424562 0.381239
0.392209 0.366061 0.328708
0.492618 0.459777 0.412861
0.597658 0.557814 0.500894
0.691619 0.645511 0.579642
0.773910 0.722316 0.648610
0.722908 0.674714 0.605866
0.801046 0.747643 0.671353
0.868008 0.810141 0.727474
0.924102 0.862495 0.774485
0.969595 0.904955 0.812613
0.941878 0.879086 0.789384
0.983573 0.918001 0.824328
1.000000 0.947321 0.850655
1.000000 0.967237 0.868539
1.000000 0.977923 0.878135
0.011033 0.010298 0.009247
0.037783 0.035264 0.031666
0.077953 0.072756 0.065332
0.130467 0.121769 0.109344
0.194629 0.181654 0.163118
0.152508 0.142341 0.127816
0.220776 0.206057 0.185031
0.300023 0.280022 0.251448
0.389880 0.363888 0.326757
0.490042 0.457372 0.410701
0.425167 0.396823 0.356331
0.528998 0.493731 0.443351
0.630902 0.588841 0.528756
0.720854 0.672797 0.604144
0.799269 0.745985 0.669864
0.750718 0.700670 0.629173
0.825024 0.770022 0.691448
0.888263 0.829045 0.744449
0.940728 0.878013 0.788419
0.982677 0.917165 0.823577
0.957205 0.893391 0.802229
0.995383 0.929024 0.834226
1.000000 0.955130 0.857668
1.000000 0.971893 0.872720
1.000000 0.979482 0.879535
0.018518 0.017283 0.015520
0.049985 0.046653 0.041893
0.094443 0.088146 0.079152
0.150979 0.140914 0.126535
0.218973 0.204375 0.183521
0.174434 0.162805 0.146193
0.246478 0.230046 0.206572
0.329366 0.307408 0.276040
0.422754 0.394570 0.354308
0.526352 0.491262 0.441133
0.459303 0.428682 0.384939
0.564974 0.527309 0.473502
0.662768 0.618583 0.555463
0.748759 0.698842 0.627531
0.823339 0.768450 0.690037
0.777213 0.725399 0.651379
0.847725 0.791210 0.710475
0.907275 0.846790 0.760383
0.956141 0.892398 0.801337
0.994572 0.928267 0.833546
0.971328 0.906573 0.814066
1.000000 0.938949 0.843138
1.000000 0.961861 0.863712
1.000000 0.975491 0.875951
1.000000 0.980000 0.880000
