assets/luts/matte_black.cube
TITLE "Matte Black"
LUT_3D_SIZE 17
DOMAIN_MIN 0.0 0.0 0.0
DOMAIN_MAX 1.0 1.0 1.0
0.100000 0.100000 0.100000
0.131073 0.105448 0.105448
0.162146 0.110896 0.110896
0.193219 0.116344 0.116344
0.224292 0.121791 0.121791
0.255364 0.127239 0.127239
0.286437 0.132687 0.132687
0.317510 0.138135 0.138135
0.348583 0.143583 0.143583
0.379656 0.149031 0.149031
0.410729 0.154479 0.154479
0.441802 0.159927 0.159927
0.472874 0.165375 0.165375
0.503947 0.170822 0.170822
0.535020 0.176270 0.176270
0.566093 0.181718 0.181718
0.597166 0.187166 0.187166
0.118327 0.143952 0.118327
0.149400 0.149400 0.123775
0.180473 0.154848 0.129223
0.211546 0.160296 0.134671
0.242618 0.165743 0.140119
0.273691 0.171191 0.145566
0.304764 0.176639 0.151014
0.335837 0.182087 0.156462
0.366910 0.187535 0.161910
0.397983 0.192983 0.167358
0.429056 0.198431 0.172806
0.460129 0.203879 0.178254
0.491201 0.209326 0.183702
0.522274 0.214774 0.189149
0.553347 0.220222 0.194597
0.584420 0.225670 0.200045
0.615493 0.231118 0.205493
0.136654 0.187904 0.136654
0.167727 0.193352 0.142102
0.198800 0.198800 0.147550
0.229873 0.204248 0.152998
0.260945 0.209696 0.158446
0.292018 0.215143 0.163893
0.323091 0.220591 0.169341
0.354164 0.226039 0.174789
0.385237 0.231487 0.180237
0.416310 0.236935 0.185685
0.447383 0.242383 0.191133
0.478456 0.247831 0.196581
0.509528 0.253278 0.202028
0.540601 0.258726 0.207476
0.571674 0.264174 0.212924
0.602747 0.269622 0.218372
0.633820 0.275070 0.223820
0.154981 0.231856 0.154981
0.186054 0.237304 0.160429
0.217127 0.242752 0.165877
0.248200 0.248200 0.171325
0.279273 0.253648 0.176772
0.310345 0.259095 0.182220
0.341418 0.264543 0.187668
0.372491 0.269991 0.193116
0.403564 0.275439 0.198564
0.434637 0.280887 0.204012
0.465710 0.286335 0.209460
0.496783 0.291783 0.214908
0.527855 0.297230 0.220355
0.558928 0.302678 0.225803
0.590001 0.308126 0.231251
0.621074 0.313574 0.236699
0.652147 0.319022 0.242147
0.173308 0.275808 0.173308
0.204381 0.281256 0.178756
0.235454 0.286704 0.184204
0.266527 0.292152 0.189652
0.297600 0.297600 0.195099
0.328672 0.303047 0.200547
0.359745 0.308495 0.205995
0.390818 0.313943 0.211443
0.421891 0.319391 0.216891
0.452964 0.324839 0.222339
0.484037 0.330287 0.227787
0.515110 0.335735 0.233235
0.546182 0.341182 0.238682
0.577255 0.346630 0.244130
0.608328 0.352078 0.249578
0.639401 0.357526 0.255026
0.670474 0.362974 0.260474
0.191635 0.319760 0.191635
0.222708 0.325208 0.197083
0.253781 0.330656 0.202531
0.284854 0.336104 0.207979
0.315926 0.341552 0.213426
0.346999 0.346999 0.218874
0.378072 0.352447 0.224322
0.409145 0.357895 0.229770
0.440218 0.363343 0.235218
0.471291 0.368791 0.240666
0.502364 0.374239 0.246114
0.533437 0.379687 0.251562
0.564509 0.385135 0.257010
0.595582 0.390582 0.262457
0.626655 0.396030 0.267905
0.657728 0.401478 0.273353
0.688801 0.406926 0.278801
0.209962 0.363712 0.209962
0.241035 0.369160 0.215410
0.272108 0.374608 0.220858
0.303181 0.380056 0.226306
0.334253 0.385503 0.231754
0.365326 0.390951 0.237201
0.396399 0.396399 0.242649
0.427472 0.401847 0.248097
0.458545 0.407295 0.253545
0.489618 0.412743 0.258993
0.520691 0.418191 0.264441
0.551764 0.423639 0.269889
0.582836 0.429086 0.275336
0.613909 0.434534 0.280784
0.644982 0.439982 0.286232
0.676055 0.445430 0.291680
0.707128 0.450878 0.297128
0.228289 0.407664 0.228289
0.259362 0.413112 0.233737
0.290435 0.418560 0.239185
0.321508 0.424008 0.244633
0.352580 0.429455 0.250080
0.383653 0.434903 0.255528
0.414726 0.440351 0.260976
0.445799 0.445799 0.266424
0.476872 0.451247 0.271872
0.507945 0.456695 0.277320
0.539018 0.462143 0.282768
0.570091 0.467591 0.288216
0.601163 0.473038 0.293663
0.632236 0.478486 0.299111
0.663309 0.483934 0.304559
0.694382 0.489382 0.310007
0.725455 0.494830 0.315455
0.246616 0.451616 0.246616
0.277689 0.457064 0.252064
0.308762 0.462512 0.257512
0.339835 0.467960 0.262960
0.370907 0.473407 0.268407
0.401980 0.478855 0.273855
0.433053 0.484303 0.279303
0.464126 0.489751 0.284751
0.495199 0.495199 0.290199
0.526272 0.500647 0.295647
0.557345 0.506095 0.301095
0.588418 0.511543 0.306543
0.619490 0.516991 0.311991
0.650563 0.522438 0.317438
0.681636 0.527886 0.322886
0.712709 0.533334 0.328334
0.743782 0.538782 0.333782
0.264943 0.495568 0.264943
0.296016 0.501016 0.270391
0.327089 0.506464 0.275839
0.358162 0.511912 0.281287
0.389235 0.517359 0.286735
0.420307 0.522807 0.292182
0.451380 0.528255 0.297630
0.482453 0.533703 0.303078
0.513526 0.539151 0.308526
0.544599 0.544599 0.313974
0.575672 0.550047 0.319422
0.606745 0.555495 0.324870
0.637817 0.560943 0.330317
0.668890 0.566390 0.335765
0.699963 0.571838 0.341213
0.731036 0.577286 0.346661
0.762109 0.582734 0.352109
0.283270 0.539520 0.283270
0.314343 0.544968 0.288718
0.345416 0.550416 0.294166
0.376489 0.555864 0.299614
0.407562 0.561311 0.305061
0.438634 0.566759 0.310509
0.469707 0.572207 0.315957
0.500780 0.577655 0.321405
0.531853 0.583103 0.326853
0.562926 0.588551 0.332301
0.593999 0.593999 0.337749
0.625072 0.599447 0.343197
0.656144 0.604894 0.348644
0.687217 0.610342 0.354092
0.718290 0.615790 0.359540
0.749363 0.621238 0.364988
0.780436 0.626686 0.370436
0.301597 0.583472 0.301597
0.332670 0.588920 0.307045
0.363743 0.594368 0.312493
0.394816 0.599816 0.317941
0.425889 0.605263 0.323388
0.456961 0.610711 0.328836
0.488034 0.616159 0.334284
0.519107 0.621607 0.339732
0.550180 0.627055 0.345180
0.581253 0.632503 0.350628
0.612326 0.637951 0.356076
0.643399 0.643399 0.361524
0.674471 0.648846 0.366972
0.705544 0.654294 0.372419
0.736617 0.659742 0.377867
0.767690 0.665190 0.383315
0.798763 0.670638 0.388763
0.319924 0.627424 0.319924
0.350997 0.632872 0.325372
0.382070 0.638320 0.330820
0.413143 0.643768 0.336268
0.444215 0.649215 0.341716
0.475288 0.654663 0.347163
0.506361 0.660111 0.352611
0.537434 0.665559 0.358059
0.568507 0.671007 0.363507
0.599580 0.676455 0.368955
0.630653 0.681903 0.374403
0.661726 0.687351 0.379851
0.692798 0.692798 0.385298
0.723871 0.698246 0.390746
0.754944 0.703694 0.396194
0.786017 0.709142 0.401642
0.817090 0.714590 0.407090
0.338251 0.671376 0.338251
0.369324 0.676824 0.343699
0.400397 0.682272 0.349147
0.431470 0.687720 0.354595
0.462542 0.693167 0.360042
0.493615 0.698615 0.365490
0.524688 0.704063 0.370938
0.555761 0.709511 0.376386
0.586834 0.714959 0.381834
0.617907 0.720407 0.387282
0.648980 0.725855 0.392730
0.680053 0.731303 0.398178
0.711125 0.736750 0.403625
0.742198 0.742198 0.409073
0.773271 0.747646 0.414521
0.804344 0.753094 0.419969
0.835417 0.758542 0.425417
0.356578 0.715328 0.356578
0.387651 0.720776 0.362026
0.418724 0.726224 0.367474
0.449797 0.731672 0.372922
0.480869 0.737119 0.378369
0.511942 0.742567 0.383817
0.543015 0.748015 0.389265
0.574088 0.753463 0.394713
0.605161 0.758911 0.400161
0.636234 0.764359 0.405609
0.667307 0.769807 0.411057
0.698380 0.775255 0.416505
0.729452 0.780702 0.421952
0.760525 0.786150 0.427400
0.791598 0.791598 0.432848
0.822671 0.797046 0.438296
0.853744 0.802494 0.443744
0.374905 0.759280 0.374905
0.405978 0.764728 0.380353
0.437051 0.770176 0.385801
0.468124 0.775624 0.391249
0.499197 0.781072 0.396697
0.530269 0.786519 0.402144
0.561342 0.791967 0.407592
0.592415 0.797415 0.413040
0.623488 0.802863 0.418488
0.654561 0.808311 0.423936
0.685634 0.813759 0.429384
0.716707 0.819207 0.434832
0.747779 0.824654 0.440279
0.778852 0.830102 0.445727
0.809925 0.835550 0.451175
0.840998 0.840998 0.456623
0.872071 0.846446 0.462071
0.393232 0.803232 0.393232
0.424305 0.808680 0.398680
0.455378 0.814128 0.404128
0.486451 0.819576 0.409576
0.517523 0.825023 0.415023
0.548596 0.830471 0.420471
0.579669 0.835919 0.425919
0.610742 0.841367 0.431367
0.641815 0.846815 0.436815
0.672888 0.852263 0.442263
0.703961 0.857711 0.447711
0.735034 0.863159 0.453159
0.766106 0.868606 0.458606
0.797179 0.874054 0.464054
0.828252 0.879502 0.469502
0.859325 0.884950 0.474950
0.890398 0.890398 0.480398
0.101850 0.101850 0.127475
0.132923 0.107298 0.132923
0.163996 0.112746 0.138371
0.195069 0.118194 0.143819
0.226142 0.123642 0.149267
0.257215 0.129090 0.154715
0.288287 0.134537 0.160162
0.319360 0.139985 0.165610
0.350433 0.145433 0.171058
0.381506 0.150881 0.176506
0.412579 0.156329 0.181954
0.443652 0.161777 0.187402
0.474725 0.167225 0.192850
0.505798 0.172673 0.198298
0.536870 0.178120 0.203745
0.567943 0.183568 0.209193
0.599016 0.189016 0.214641
0.120177 0.145802 0.145802
0.151250 0.151250 0.151250
0.182323 0.156698 0.156698
0.213396 0.162146 0.162146
0.244469 0.167594 0.167594
0.275541 0.173042 0.173042
0.306614 0.178489 0.178489
0.337687 0.183937 0.183937
0.368760 0.189385 0.189385
0.399833 0.194833 0.194833
0.430906 0.200281 0.200281
0.461979 0.205729 0.205729
0.493052 0.211177 0.211177
0.524124 0.216624 0.216624
0.555197 0.222072 0.222072
0.586270 0.227520 0.227520
0.617343 0.232968 0.232968
0.138504 0.189754 0.164129
0.169577 0.195202 0.169577
0.200650 0.200650 0.175025
0.231723 0.206098 0.180473
0.262796 0.211546 0.185921
0.293868 0.216994 0.191368
0.324941 0.222441 0.196816
0.356014 0.227889 0.202264
0.387087 0.233337 0.207712
0.418160 0.238785 0.213160
0.449233 0.244233 0.218608
0.480306 0.249681 0.224056
0.511379 0.255129 0.229504
0.542451 0.260576 0.234952
0.573524 0.266024 0.240399
0.604597 0.271472 0.245847
0.635670 0.276920 0.251295
0.156831 0.233706 0.182456
0.187904 0.239154 0.187904
0.218977 0.244602 0.193352
0.250050 0.250050 0.198800
0.281123 0.255498 0.204248
0.312195 0.260945 0.209696
0.343268 0.266393 0.215143
0.374341 0.271841 0.220591
0.405414 0.277289 0.226039
0.436487 0.282737 0.231487
0.467560 0.288185 0.236935
0.498633 0.293633 0.242383
0.529706 0.299081 0.247831
0.560778 0.304528 0.253278
0.591851 0.309976 0.258726
0.622924 0.315424 0.264174
0.653997 0.320872 0.269622
0.175158 0.277658 0.200783
0.206231 0.283106 0.206231
0.237304 0.288554 0.211679
0.268377 0.294002 0.217127
0.299450 0.299450 0.222575
0.330522 0.304898 0.228023
0.361595 0.310345 0.233470
0.392668 0.315793 0.238918
0.423741 0.321241 0.244366
0.454814 0.326689 0.249814
0.485887 0.332137 0.255262
0.516960 0.337585 0.260710
0.548033 0.343033 0.266158
0.579105 0.348480 0.271605
0.610178 0.353928 0.277053
0.641251 0.359376 0.282501
0.672324 0.364824 0.287949
0.193485 0.321610 0.219110
0.224558 0.327058 0.224558
0.255631 0.332506 0.230006
0.286704 0.337954 0.235454
0.317777 0.343402 0.240902
0.348849 0.348849 0.246349
0.379922 0.354297 0.251797
0.410995 0.359745 0.257245
0.442068 0.365193 0.262693
0.473141 0.370641 0.268141
0.504214 0.376089 0.273589
0.535287 0.381537 0.279037
0.566360 0.386985 0.284485
0.597432 0.392432 0.289932
0.628505 0.397880 0.295380
0.659578 0.403328 0.300828
0.690651 0.408776 0.306276
0.211812 0.365562 0.237437
0.242885 0.371010 0.242885
0.273958 0.376458 0.248333
0.305031 0.381906 0.253781
0.336104 0.387354 0.259229
0.367177 0.392802 0.264676
0.398249 0.398249 0.270124
0.429322 0.403697 0.275572
0.460395 0.409145 0.281020
0.491468 0.414593 0.286468
0.522541 0.420041 0.291916
0.553614 0.425489 0.297364
0.584687 0.430937 0.302812
0.615759 0.436384 0.308259
0.646832 0.441832 0.313707
0.677905 0.447280 0.319155
0.708978 0.452728 0.324603
0.230139 0.409514 0.255764
0.261212 0.414962 0.261212
0.292285 0.420410 0.266660
0.323358 0.425858 0.272108
0.354431 0.431306 0.277556
0.385503 0.436754 0.283003
0.416576 0.442201 0.288451
0.447649 0.447649 0.293899
0.478722 0.453097 0.299347
0.509795 0.458545 0.304795
0.540868 0.463993 0.310243
0.571941 0.469441 0.315691
0.603014 0.474889 0.321139
0.634086 0.480336 0.326586
0.665159 0.485784 0.332034
0.696232 0.491232 0.337482
0.727305 0.496680 0.342930
0.248466 0.453466 0.274091
0.279539 0.458914 0.279539
0.310612 0.464362 0.284987
0.341685 0.469810 0.290435
0.372758 0.475258 0.295883
0.403830 0.480706 0.301330
0.434903 0.486153 0.306778
0.465976 0.491601 0.312226
0.497049 0.497049 0.317674
0.528122 0.502497 0.323122
0.559195 0.507945 0.328570
0.590268 0.513393 0.334018
0.621341 0.518841 0.339466
0.652413 0.524289 0.344913
0.683486 0.529736 0.350361
0.714559 0.535184 0.355809
0.745632 0.540632 0.361257
0.266793 0.497418 0.292418
0.297866 0.502866 0.297866
0.328939 0.508314 0.303314
0.360012 0.513762 0.308762
0.391085 0.519210 0.314210
0.422157 0.524657 0.319657
0.453230 0.530105 0.325105
0.484303 0.535553 0.330553
0.515376 0.541001 0.336001
0.546449 0.546449 0.341449
0.577522 0.551897 0.346897
0.608595 0.557345 0.352345
0.639668 0.562793 0.357793
0.670740 0.568240 0.363240
0.701813 0.573688 0.368688
0.732886 0.579136 0.374136
0.763959 0.584584 0.379584
0.285120 0.541370 0.310745
0.316193 0.546818 0.316193
0.347266 0.552266 0.321641
0.378339 0.557714 0.327089
0.409412 0.563162 0.332537
0.440484 0.568609 0.337985
0.471557 0.574057 0.343432
0.502630 0.579505 0.348880
0.533703 0.584953 0.354328
0.564776 0.590401 0.359776
0.595849 0.595849 0.365224
0.626922 0.601297 0.370672
0.657995 0.606745 0.376120
0.689067 0.612192 0.381567
0.720140 0.617640 0.387015
0.751213 0.623088 0.392463
0.782286 0.628536 0.397911
0.303447 0.585322 0.329072
0.334520 0.590770 0.334520
0.365593 0.596218 0.339968
0.396666 0.601666 0.345416
0.427739 0.607114 0.350864
0.458811 0.612561 0.356312
0.489884 0.618009 0.361759
0.520957 0.623457 0.367207
0.552030 0.628905 0.372655
0.583103 0.634353 0.378103
0.614176 0.639801 0.383551
0.645249 0.645249 0.388999
0.676322 0.650697 0.394447
0.707395 0.656145 0.399895
0.738467 0.661592 0.405342
0.769540 0.667040 0.410790
0.800613 0.672488 0.416238
0.321774 0.629274 0.347399
0.352847 0.634722 0.352847
0.383920 0.640170 0.358295
0.414993 0.645618 0.363743
0.446066 0.651066 0.369191
0.477139 0.656513 0.374638
0.508211 0.661961 0.380086
0.539284 0.667409 0.385534
0.570357 0.672857 0.390982
0.601430 0.678305 0.396430
0.632503 0.683753 0.401878
0.663576 0.689201 0.407326
0.694649 0.694649 0.412774
0.725721 0.700096 0.418222
0.756794 0.705544 0.423669
0.787867 0.710992 0.429117
0.818940 0.716440 0.434565
0.340101 0.673226 0.365726
0.371174 0.678674 0.371174
0.402247 0.684122 0.376622
0.433320 0.689570 0.382070
0.464393 0.695018 0.387518
0.495466 0.700465 0.392965
0.526538 0.705913 0.398413
0.557611 0.711361 0.403861
0.588684 0.716809 0.409309
0.619757 0.722257 0.414757
0.650830 0.727705 0.420205
0.681903 0.733153 0.425653
0.712976 0.738601 0.431101
0.744049 0.744049 0.436549
0.775121 0.749496 0.441996
0.806194 0.754944 0.447444
0.837267 0.760392 0.452892
0.358428 0.717178 0.384053
0.389501 0.722626 0.389501
0.420574 0.728074 0.394949
0.451647 0.733522 0.400397
0.482720 0.738970 0.405845
0.513792 0.744417 0.411292
0.544865 0.749865 0.416740
0.575938 0.755313 0.422188
0.607011 0.760761 0.427636
0.638084 0.766209 0.433084
0.669157 0.771657 0.438532
0.700230 0.777105 0.443980
0.731303 0.782553 0.449428
0.762375 0.788000 0.454875
0.793448 0.793448 0.460323
0.824521 0.798896 0.465771
0.855594 0.804344 0.471219
0.376755 0.761130 0.402380
0.407828 0.766578 0.407828
0.438901 0.772026 0.413276
0.469974 0.777474 0.418724
0.501047 0.782922 0.424172
0.532119 0.788369 0.429620
0.563192 0.793817 0.435067
0.594265 0.799265 0.440515
0.625338 0.804713 0.445963
0.656411 0.810161 0.451411
0.687484 0.815609 0.456859
0.718557 0.821057 0.462307
0.749630 0.826505 0.467755
0.780702 0.831952 0.473202
0.811775 0.837400 0.478650
0.842848 0.842848 0.484098
0.873921 0.848296 0.489546
0.395082 0.805082 0.420707
0.426155 0.810530 0.426155
0.457228 0.815978 0.431603
0.488301 0.821426 0.437051
0.519374 0.826874 0.442499
0.550447 0.832321 0.447947
0.581519 0.837769 0.453394
0.612592 0.843217 0.458842
0.643665 0.848665 0.464290
0.674738 0.854113 0.469738
0.705811 0.859561 0.475186
0.736884 0.865009 0.480634
0.767957 0.870457 0.486082
0.799029 0.875904 0.491529
0.830102 0.881352 0.496977
0.861175 0.886800 0.502425
0.892248 0.892248 0.507873
0.103700 0.103700 0.154950
0.134773 0.109148 0.160398
0.165846 0.114596 0.165846
0.196919 0.120044 0.171294
0.227992 0.125492 0.176742
0.259065 0.130940 0.182190
0.290137 0.136387 0.187638
0.321210 0.141835 0.193085
0.352283 0.147283 0.198533
0.383356 0.152731 0.203981
0.414429 0.158179 0.209429
0.445502 0.163627 0.214877
0.476575 0.169075 0.220325
0.507648 0.174523 0.225773
0.538721 0.179971 0.231220
0.569793 0.185418 0.236668
0.600866 0.190866 0.242116
0.122027 0.147652 0.173277
0.153100 0.153100 0.178725
0.184173 0.158548 0.184173
0.215246 0.163996 0.189621
0.246319 0.169444 0.195069
0.277392 0.174892 0.200517
0.308465 0.180339 0.205964
0.339537 0.185787 0.211412
0.370610 0.191235 0.216860
0.401683 0.196683 0.222308
0.432756 0.202131 0.227756
0.463829 0.207579 0.233204
0.494902 0.213027 0.238652
0.525975 0.218475 0.244100
0.557047 0.223923 0.249548
0.588120 0.229370 0.254995
0.619193 0.234818 0.260443
0.140354 0.191604 0.191604
0.171427 0.197052 0.197052
0.202500 0.202500 0.202500
0.233573 0.207948 0.207948
0.264646 0.213396 0.213396
0.295719 0.218844 0.218844
0.326792 0.224292 0.224292
0.357864 0.229739 0.229739
0.388937 0.235187 0.235187
0.420010 0.240635 0.240635
0.451083 0.246083 0.246083
0.482156 0.251531 0.251531
0.513229 0.256979 0.256979
0.544302 0.262427 0.262427
0.575375 0.267875 0.267875
0.606447 0.273322 0.273322
0.637520 0.278770 0.278770
0.158681 0.235556 0.209931
0.189754 0.241004 0.215379
0.220827 0.246452 0.220827
0.251900 0.251900 0.226275
0.282973 0.257348 0.231723
0.314046 0.262796 0.237171
0.345118 0.268243 0.242618
0.376191 0.273691 0.248066
0.407264 0.279139 0.253514
0.438337 0.284587 0.258962
0.469410 0.290035 0.264410
0.500483 0.295483 0.269858
0.531556 0.300931 0.275306
0.562629 0.306379 0.280754
0.593701 0.311827 0.286201
0.624774 0.317274 0.291649
0.655847 0.322722 0.297097
0.177008 0.279508 0.228258
0.208081 0.284956 0.233706
0.239154 0.290404 0.239154
0.270227 0.295852 0.244602
0.301300 0.301300 0.250050
0.332373 0.306748 0.255498
0.363445 0.312195 0.260945
0.394518 0.317643 0.266393
0.425591 0.323091 0.271841
0.456664 0.328539 0.277289
0.487737 0.333987 0.282737
0.518810 0.339435 0.288185
0.549883 0.344883 0.293633
0.580956 0.350331 0.299081
0.612028 0.355778 0.304528
0.643101 0.361226 0.309976
0.674174 0.366674 0.315424
0.195335 0.323460 0.246585
0.226408 0.328908 0.252033
0.257481 0.334356 0.257481
0.288554 0.339804 0.262929
0.319627 0.345252 0.268377
0.350700 0.350700 0.273825
0.381772 0.356147 0.279272
0.412845 0.361595 0.284720
0.443918 0.367043 0.290168
0.474991 0.372491 0.295616
0.506064 0.377939 0.301064
0.537137 0.383387 0.306512
0.568210 0.388835 0.311960
0.599283 0.394283 0.317408
0.630355 0.399730 0.322855
0.661428 0.405178 0.328303
0.692501 0.410626 0.333751
0.213662 0.367412 0.264912
0.244735 0.372860 0.270360
0.275808 0.378308 0.275808
0.306881 0.383756 0.281256
0.337954 0.389204 0.286704
0.369027 0.394652 0.292152
0.400099 0.400099 0.297600
0.431172 0.405547 0.303047
0.462245 0.410995 0.308495
0.493318 0.416443 0.313943
0.524391 0.421891 0.319391
0.555464 0.427339 0.324839
0.586537 0.432787 0.330287
0.617610 0.438235 0.335735
0.648682 0.443682 0.341182
0.679755 0.449130 0.346630
0.710828 0.454578 0.352078
0.231989 0.411364 0.283239
0.263062 0.416812 0.288687
0.294135 0.422260 0.294135
0.325208 0.427708 0.299583
0.356281 0.433156 0.305031
0.387354 0.438604 0.310479
0.418426 0.444051 0.315926
0.449499 0.449499 0.321374
0.480572 0.454947 0.326822
0.511645 0.460395 0.332270
0.542718 0.465843 0.337718
0.573791 0.471291 0.343166
0.604864 0.476739 0.348614
0.635937 0.482187 0.354062
0.667009 0.487634 0.359509
0.698082 0.493082 0.364957
0.729155 0.498530 0.370405
0.250316 0.455316 0.301566
0.281389 0.460764 0.307014
0.312462 0.466212 0.312462
0.343535 0.471660 0.317910
0.374608 0.477108 0.323358
0.405681 0.482556 0.328806
0.436754 0.488004 0.334253
0.467826 0.493451 0.339701
0.498899 0.498899 0.345149
0.529972 0.504347 0.350597
0.561045 0.509795 0.356045
0.592118 0.515243 0.361493
0.623191 0.520691 0.366941
0.654264 0.526139 0.372389
0.685336 0.531586 0.377837
0.716409 0.537034 0.383284
0.747482 0.542482 0.388732
0.268643 0.499268 0.319893
0.299716 0.504716 0.325341
0.330789 0.510164 0.330789
0.361862 0.515612 0.336237
0.392935 0.521060 0.341685
0.424008 0.526508 0.347133
0.455080 0.531956 0.352580
0.486153 0.537403 0.358028
0.517226 0.542851 0.363476
0.548299 0.548299 0.368924
0.579372 0.553747 0.374372
0.610445 0.559195 0.379820
0.641518 0.564643 0.385268
0.672591 0.570091 0.390716
0.703663 0.575538 0.396164
0.734736 0.580986 0.401611
0.765809 0.586434 0.407059
0.286970 0.543220 0.338220
0.318043 0.548668 0.343668
0.349116 0.554116 0.349116
0.380189 0.559564 0.354564
0.411262 0.565012 0.360012
0.442335 0.570460 0.365460
0.473407 0.575907 0.370907
0.504480 0.581355 0.376355
0.535553 0.586803 0.381803
0.566626 0.592251 0.387251
0.597699 0.597699 0.392699
0.628772 0.603147 0.398147
0.659845 0.608595 0.403595
0.690918 0.614043 0.409043
0.721990 0.619490 0.414490
0.753063 0.624938 0.419938
0.784136 0.630386 0.425386
0.305297 0.587172 0.356547
0.336370 0.592620 0.361995
0.367443 0.598068 0.367443
0.398516 0.603516 0.372891
0.429589 0.608964 0.378339
0.460662 0.614412 0.383787
0.491734 0.619859 0.389234
0.522807 0.625307 0.394682
0.553880 0.630755 0.400130
0.584953 0.636203 0.405578
0.616026 0.641651 0.411026
0.647099 0.647099 0.416474
0.678172 0.652547 0.421922
0.709245 0.657995 0.427370
0.740317 0.663442 0.432817
0.771390 0.668890 0.438265
0.802463 0.674338 0.443713
0.323624 0.631124 0.374874
0.354697 0.636572 0.380322
0.385770 0.642020 0.385770
0.416843 0.647468 0.391218
0.447916 0.652916 0.396666
0.478989 0.658364 0.402114
0.510062 0.663811 0.407562
0.541134 0.669259 0.413009
0.572207 0.674707 0.418457
0.603280 0.680155 0.423905
0.634353 0.685603 0.429353
0.665426 0.691051 0.434801
0.696499 0.696499 0.440249
0.727572 0.701947 0.445697
0.758644 0.707394 0.451144
0.789717 0.712842 0.456592
0.820790 0.718290 0.462040
0.341951 0.675076 0.393201
0.373024 0.680524 0.398649
0.404097 0.685972 0.404097
0.435170 0.691420 0.409545
0.466243 0.696868 0.414993
0.497316 0.702316 0.420441
0.528388 0.707763 0.425889
0.559461 0.713211 0.431336
0.590534 0.718659 0.436784
0.621607 0.724107 0.442232
0.652680 0.729555 0.447680
0.683753 0.735003 0.453128
0.714826 0.740451 0.458576
0.745899 0.745899 0.464024
0.776971 0.751346 0.469471
0.808044 0.756794 0.474919
0.839117 0.762242 0.480367
0.360278 0.719028 0.411528
0.391351 0.724476 0.416976
0.422424 0.729924 0.422424
0.453497 0.735372 0.427872
0.484570 0.740820 0.433320
0.515643 0.746268 0.438768
0.546716 0.751715 0.444215
0.577788 0.757163 0.449663
0.608861 0.762611 0.455111
0.639934 0.768059 0.460559
0.671007 0.773507 0.466007
0.702080 0.778955 0.471455
0.733153 0.784403 0.476903
0.764226 0.789851 0.482351
0.795298 0.795298 0.487798
0.826371 0.800746 0.493246
0.857444 0.806194 0.498694
0.378605 0.762980 0.429855
0.409678 0.768428 0.435303
0.440751 0.773876 0.440751
0.471824 0.779324 0.446199
0.502897 0.784772 0.451647
0.533970 0.790220 0.457095
0.565043 0.795667 0.462542
0.596115 0.801115 0.467990
0.627188 0.806563 0.473438
0.658261 0.812011 0.478886
0.689334 0.817459 0.484334
0.720407 0.822907 0.489782
0.751480 0.828355 0.495230
0.782553 0.833803 0.500678
0.813625 0.839250 0.506126
0.844698 0.844698 0.511573
0.875771 0.850146 0.517021
0.396932 0.806932 0.448182
0.428005 0.812380 0.453630
0.459078 0.817828 0.459078
0.490151 0.823276 0.464526
0.521224 0.828724 0.469974
0.552297 0.834172 0.475422
0.583369 0.839619 0.480869
0.614442 0.845067 0.486317
0.645515 0.850515 0.491765
0.676588 0.855963 0.497213
0.707661 0.861411 0.502661
0.738734 0.866859 0.508109
0.769807 0.872307 0.513557
0.800880 0.877755 0.519005
0.831952 0.883202 0.524452
0.863025 0.888650 0.529900
0.894098 0.894098 0.535348
0.105550 0.105550 0.182425
0.136623 0.110998 0.187873
0.167696 0.116446 0.193321
0.198769 0.121894 0.198769
0.229842 0.127342 0.204217
0.260915 0.132790 0.209665
0.291988 0.138238 0.215113
0.323060 0.143686 0.220560
0.354133 0.149133 0.226008
0.385206 0.154581 0.231456
0.416279 0.160029 0.236904
0.447352 0.165477 0.242352
0.478425 0.170925 0.247800
0.509498 0.176373 0.253248
0.540571 0.181821 0.258696
0.571643 0.187269 0.264143
0.602716 0.192716 0.269591
0.123877 0.149502 0.200752
