assets/luts/matte_black.cube
TITLE "Matte Black"
LUT_3D_SIZE 5
DOMAIN_MIN 0.0 0.0 0.0
DOMAIN_MAX 1.0 1.0 1.0
0.100000 0.100000 0.100000
0.224292 0.121791 0.121791
0.348583 0.143583 0.143583
0.472874 0.165375 0.165375
0.597166 0.187166 0.187166
0.173308 0.275808 0.173308
0.297600 0.297600 0.195099
0.421891 0.319391 0.216891
0.546182 0.341182 0.238682
0.670474 0.362974 0.260474
0.246616 0.451616 0.246616
0.370907 0.473407 0.268407
0.495199 0.495199 0.290199
0.619490 0.516991 0.311991
0.743782 0.538782 0.333782
0.319924 0.627424 0.319924
0.444215 0.649215 0.341716
0.568507 0.671007 0.363507
0.692798 0.692798 0.385298
0.817090 0.714590 0.407090
0.393232 0.803232 0.393232
0.517523 0.825023 0.415023
0.641815 0.846815 0.436815
0.766106 0.868606 0.458606
0.890398 0.890398 0.480398
0.107401 0.107401 0.209900
0.231692 0.129192 0.231692
0.355984 0.150983 0.253483
0.480275 0.172775 0.275275
0.604567 0.194567 0.297067
0.180708 0.283208 0.283208
0.305000 0.305000 0.305000
0.429292 0.326792 0.326792
0.553583 0.348583 0.348583
0.677874 0.370374 0.370374
0.254016 0.459017 0.356517
0.378308 0.480808 0.378308
0.502599 0.502599 0.400099
0.626891 0.524391 0.421891
0.751182 0.546182 0.443682
0.327325 0.634825 0.429824
0.451616 0.656616 0.451616
0.575908 0.678408 0.473407
0.700199 0.700199 0.495199
0.824490 0.721990 0.516991
0.400632 0.810632 0.503132
0.524924 0.832424 0.524924
0.649215 0.854215 0.546716
0.773507 0.876007 0.568507
0.897798 0.897798 0.590299
0.114801 0.114801 0.319801
0.239092 0.136593 0.341593
0.363384 0.158384 0.363384
0.487675 0.180175 0.385176
0.611967 0.201967 0.406967
0.188109 0.290609 0.393109
0.312400 0.312400 0.414901
0.436692 0.334192 0.436692
0.560983 0.355984 0.458483
0.685275 0.377775 0.480275
0.261417 0.466417 0.466417
0.385709 0.488208 0.488208
0.510000 0.510000 0.510000
0.634292 0.531791 0.531791
0.758583 0.553583 0.553583
0.334725 0.642225 0.539725
0.459017 0.664017 0.561516
0.583308 0.685808 0.583308
0.707599 0.707599 0.605099
0.831891 0.729391 0.626891
0.408033 0.818033 0.613033
0.532324 0.839824 0.634825
0.656616 0.861616 0.656616
0.780907 0.883407 0.678407
0.905199 0.905199 0.700199
0.122202 0.122202 0.429701
0.246493 0.143993 0.451493
0.370784 0.165785 0.473284
0.495076 0.187576 0.495076
0.619367 0.209368 0.516868
0.195510 0.298009 0.503009
0.319801 0.319801 0.524801
0.444093 0.341593 0.546593
0.568384 0.363384 0.568384
0.692675 0.385176 0.590175
0.268817 0.473818 0.576318
0.393109 0.495609 0.598109
0.517401 0.517401 0.619900
0.641692 0.539192 0.641692
0.765984 0.560984 0.663484
0.342125 0.649625 0.649625
0.466417 0.671417 0.671417
0.590708 0.693208 0.693208
0.715000 0.715000 0.715000
0.839291 0.736791 0.736791
0.415434 0.825433 0.722933
0.539725 0.847225 0.744725
0.664016 0.869016 0.766516
0.788308 0.890808 0.788308
0.912599 0.912599 0.810099
0.129602 0.129602 0.539602
0.253893 0.151394 0.561393
0.378185 0.173185 0.583185
0.502476 0.194976 0.604977
0.626768 0.216768 0.626768
0.202910 0.305410 0.612910
0.327201 0.327201 0.634701
0.451493 0.348993 0.656493
0.575784 0.370784 0.678284
0.700076 0.392576 0.700076
0.276218 0.481218 0.686218
0.400509 0.503009 0.708009
0.524801 0.524801 0.729801
0.649092 0.546593 0.751592
0.773384 0.568384 0.773384
0.349526 0.657026 0.759526
0.473818 0.678817 0.781317
0.598109 0.700609 0.803109
0.722401 0.722401 0.824901
0.846692 0.744192 0.846692
0.422834 0.832834 0.832834
0.547125 0.854625 0.854625
0.671417 0.876417 0.876417
0.795708 0.898208 0.898208
0.920000 0.920000 0.920000
