assets/luts/matte_black.cube
TITLE "Matte Black"
LUT_3D_SIZE 9
DOMAIN_MIN 0.0 0.0 0.0
DOMAIN_MAX 1.0 1.0 1.0
0.100000 0.100000 0.100000
0.162146 0.110896 0.110896
0.224292 0.121791 0.121791
0.286437 0.132687 0.132687
0.348583 0.143583 0.143583
0.410729 0.154479 0.154479
0.472874 0.165375 0.165375
0.535020 0.176270 0.176270
0.597166 0.187166 0.187166
0.136654 0.187904 0.136654
0.198800 0.198800 0.147550
0.260945 0.209696 0.158446
0.323091 0.220591 0.169341
0.385237 0.231487 0.180237
0.447383 0.242383 0.191133
0.509528 0.253278 0.202028
0.571674 0.264174 0.212924
0.633820 0.275070 0.223820
0.173308 0.275808 0.173308
0.235454 0.286704 0.184204
0.297600 0.297600 0.195099
0.359745 0.308495 0.205995
0.421891 0.319391 0.216891
0.484037 0.330287 0.227787
0.546182 0.341182 0.238682
0.608328 0.352078 0.249578
0.670474 0.362974 0.260474
0.209962 0.363712 0.209962
0.272108 0.374608 0.220858
0.334253 0.385503 0.231754
0.396399 0.396399 0.242649
0.458545 0.407295 0.253545
0.520691 0.418191 0.264441
0.582836 0.429086 0.275336
0.644982 0.439982 0.286232
0.707128 0.450878 0.297128
0.246616 0.451616 0.246616
0.308762 0.462512 0.257512
0.370907 0.473407 0.268407
0.433053 0.484303 0.279303
0.495199 0.495199 0.290199
0.557345 0.506095 0.301095
0.619490 0.516991 0.311991
0.681636 0.527886 0.322886
0.743782 0.538782 0.333782
0.283270 0.539520 0.283270
0.345416 0.550416 0.294166
0.407562 0.561311 0.305061
0.469707 0.572207 0.315957
0.531853 0.583103 0.326853
0.593999 0.593999 0.337749
0.656144 0.604894 0.348644
0.718290 0.615790 0.359540
0.780436 0.626686 0.370436
0.319924 0.627424 0.319924
0.382070 0.638320 0.330820
0.444215 0.649215 0.341716
0.506361 0.660111 0.352611
0.568507 0.671007 0.363507
0.630653 0.681903 0.374403
0.692798 0.692798 0.385298
0.754944 0.703694 0.396194
0.817090 0.714590 0.407090
0.356578 0.715328 0.356578
0.418724 0.726224 0.367474
0.480869 0.737119 0.378369
0.543015 0.748015 0.389265
0.605161 0.758911 0.400161
0.667307 0.769807 0.411057
0.729452 0.780702 0.421952
0.791598 0.791598 0.432848
0.853744 0.802494 0.443744
0.393232 0.803232 0.393232
0.455378 0.814128 0.404128
0.517523 0.825023 0.415023
0.579669 0.835919 0.425919
0.641815 0.846815 0.436815
0.703961 0.857711 0.447711
0.766106 0.868606 0.458606
0.828252 0.879502 0.469502
0.890398 0.890398 0.480398
0.103700 0.103700 0.154950
0.165846 0.114596 0.165846
0.227992 0.125492 0.176742
0.290137 0.136387 0.187638
0.352283 0.147283 0.198533
0.414429 0.158179 0.209429
0.476575 0.169075 0.220325
0.538721 0.179971 0.231220
0.600866 0.190866 0.242116
0.140354 0.191604 0.191604
0.202500 0.202500 0.202500
0.264646 0.213396 0.213396
0.326792 0.224292 0.224292
0.388937 0.235187 0.235187
0.451083 0.246083 0.246083
0.513229 0.256979 0.256979
0.575375 0.267875 0.267875
0.637520 0.278770 0.278770
0.177008 0.279508 0.228258
0.239154 0.290404 0.239154
0.301300 0.301300 0.250050
0.363445 0.312195 0.260945
0.425591 0.323091 0.271841
0.487737 0.333987 0.282737
0.549883 0.344883 0.293633
0.612028 0.355778 0.304528
0.674174 0.366674 0.315424
0.213662 0.367412 0.264912
0.275808 0.378308 0.275808
0.337954 0.389204 0.286704
0.400099 0.400099 0.297600
0.462245 0.410995 0.308495
0.524391 0.421891 0.319391
0.586537 0.432787 0.330287
0.648682 0.443682 0.341182
0.710828 0.454578 0.352078
0.250316 0.455316 0.301566
0.312462 0.466212 0.312462
0.374608 0.477108 0.323358
0.436754 0.488004 0.334253
0.498899 0.498899 0.345149
0.561045 0.509795 0.356045
0.623191 0.520691 0.366941
0.685336 0.531586 0.377837
0.747482 0.542482 0.388732
0.286970 0.543220 0.338220
0.349116 0.554116 0.349116
0.411262 0.565012 0.360012
0.473407 0.575907 0.370907
0.535553 0.586803 0.381803
0.597699 0.597699 0.392699
0.659845 0.608595 0.403595
0.721990 0.619490 0.414490
0.784136 0.630386 0.425386
0.323624 0.631124 0.374874
0.385770 0.642020 0.385770
0.447916 0.652916 0.396666
0.510062 0.663811 0.407562
0.572207 0.674707 0.418457
0.634353 0.685603 0.429353
0.696499 0.696499 0.440249
0.758644 0.707394 0.451144
0.820790 0.718290 0.462040
0.360278 0.719028 0.411528
0.422424 0.729924 0.422424
0.484570 0.740820 0.433320
0.546716 0.751715 0.444215
0.608861 0.762611 0.455111
0.671007 0.773507 0.466007
0.733153 0.784403 0.476903
0.795298 0.795298 0.487798
0.857444 0.806194 0.498694
0.396932 0.806932 0.448182
0.459078 0.817828 0.459078
0.521224 0.828724 0.469974
0.583369 0.839619 0.480869
0.645515 0.850515 0.491765
0.707661 0.861411 0.502661
0.769807 0.872307 0.513557
0.831952 0.883202 0.524452
0.894098 0.894098 0.535348
0.107401 0.107401 0.209900
0.169546 0.118296 0.220796
0.231692 0.129192 0.231692
0.293838 0.140088 0.242588
0.355984 0.150983 0.253483
0.418129 0.161879 0.264379
0.480275 0.172775 0.275275
0.542421 0.183671 0.286171
0.604567 0.194567 0.297067
0.144055 0.195304 0.246554
0.206200 0.206200 0.257450
0.268346 0.217096 0.268346
0.330492 0.227992 0.279242
0.392637 0.238888 0.290137
0.454783 0.249783 0.301033
0.516929 0.260679 0.311929
0.579075 0.271575 0.322825
0.641220 0.282470 0.333720
0.180708 0.283208 0.283208
0.242854 0.294104 0.294104
0.305000 0.305000 0.305000
0.367146 0.315896 0.315896
0.429292 0.326792 0.326792
0.491437 0.337687 0.337687
0.553583 0.348583 0.348583
0.615729 0.359479 0.359479
0.677874 0.370374 0.370374
0.217363 0.371112 0.319862
0.279508 0.382008 0.330758
0.341654 0.392904 0.341654
0.403800 0.403800 0.352550
0.465946 0.414695 0.363445
0.528091 0.425591 0.374341
0.590237 0.436487 0.385237
0.652383 0.447383 0.396133
0.714528 0.458279 0.407029
0.254016 0.459017 0.356517
0.316162 0.469912 0.367412
0.378308 0.480808 0.378308
0.440454 0.491704 0.389204
0.502599 0.502599 0.400099
0.564745 0.513495 0.410995
0.626891 0.524391 0.421891
0.689037 0.535287 0.432787
0.751182 0.546182 0.443682
0.290670 0.546920 0.393170
0.352816 0.557816 0.404066
0.414962 0.568712 0.414962
0.477108 0.579608 0.425858
0.539253 0.590503 0.436753
0.601399 0.601399 0.447649
0.663545 0.612295 0.458545
0.725691 0.623191 0.469441
0.787836 0.634086 0.480336
0.327325 0.634825 0.429824
0.389470 0.645720 0.440720
0.451616 0.656616 0.451616
0.513762 0.667512 0.462512
0.575908 0.678408 0.473407
0.638053 0.689303 0.484303
0.700199 0.700199 0.495199
0.762345 0.711095 0.506095
0.824490 0.721990 0.516991
0.363978 0.722728 0.466478
0.426124 0.733624 0.477374
0.488270 0.744520 0.488270
0.550416 0.755416 0.499166
0.612561 0.766311 0.510062
0.674707 0.777207 0.520957
0.736853 0.788103 0.531853
0.798999 0.798999 0.542749
0.861144 0.809894 0.553644
0.400632 0.810632 0.503132
0.462778 0.821528 0.514028
0.524924 0.832424 0.524924
0.587070 0.843320 0.535820
0.649215 0.854215 0.546716
0.711361 0.865111 0.557611
0.773507 0.876007 0.568507
0.835653 0.886903 0.579403
0.897798 0.897798 0.590299
0.111101 0.111101 0.264851
0.173246 0.121997 0.275747
0.235392 0.132892 0.286642
0.297538 0.143788 0.297538
0.359684 0.154684 0.308434
0.421829 0.165580 0.319330
0.483975 0.176475 0.330225
0.546121 0.187371 0.341121
0.608267 0.198267 0.352017
0.147755 0.199005 0.301505
0.209900 0.209900 0.312400
0.272046 0.220796 0.323296
0.334192 0.231692 0.334192
0.396338 0.242588 0.345088
0.458483 0.253483 0.355984
0.520629 0.264379 0.366879
0.582775 0.275275 0.377775
0.644921 0.286171 0.388671
0.184409 0.286909 0.338159
0.246554 0.297805 0.349055
0.308700 0.308700 0.359950
0.370846 0.319596 0.370846
0.432992 0.330492 0.381742
0.495138 0.341388 0.392638
0.557283 0.352283 0.403533
0.619429 0.363179 0.414429
0.681575 0.374075 0.425325
0.221063 0.374813 0.374813
0.283208 0.385709 0.385709
0.345354 0.396604 0.396604
0.407500 0.407500 0.407500
0.469646 0.418396 0.418396
0.531791 0.429292 0.429292
0.593937 0.440187 0.440187
0.656083 0.451083 0.451083
0.718229 0.461979 0.461979
0.257717 0.462717 0.411467
0.319862 0.473612 0.422362
0.382008 0.484508 0.433258
0.444154 0.495404 0.444154
0.506300 0.506300 0.455050
0.568445 0.517195 0.465946
0.630591 0.528091 0.476841
0.692737 0.538987 0.487737
0.754883 0.549883 0.498633
0.294371 0.550621 0.448121
0.356517 0.561516 0.459016
0.418662 0.572412 0.469912
0.480808 0.583308 0.480808
0.542954 0.594204 0.491704
0.605099 0.605099 0.502599
0.667245 0.615995 0.513495
0.729391 0.626891 0.524391
0.791537 0.637787 0.535287
0.331025 0.638525 0.484775
0.393170 0.649420 0.495671
0.455316 0.660316 0.506566
0.517462 0.671212 0.517462
0.579608 0.682108 0.528358
0.641753 0.693003 0.539253
0.703899 0.703899 0.550149
0.766045 0.714795 0.561045
0.828191 0.725691 0.571941
0.367679 0.726429 0.521429
0.429824 0.737324 0.532324
0.491970 0.748220 0.543220
0.554116 0.759116 0.554116
0.616262 0.770012 0.565012
0.678407 0.780907 0.575907
0.740553 0.791803 0.586803
0.802699 0.802699 0.597699
0.864845 0.813595 0.608595
0.404333 0.814333 0.558083
0.466478 0.825228 0.568978
0.528624 0.836124 0.579874
0.590770 0.847020 0.590770
0.652916 0.857916 0.601666
0.715061 0.868811 0.612561
0.777207 0.879707 0.623457
0.839353 0.890603 0.634353
0.901499 0.901499 0.645249
0.114801 0.114801 0.319801
0.176947 0.125697 0.330697
0.239092 0.136593 0.341593
0.301238 0.147488 0.352488
0.363384 0.158384 0.363384
0.425530 0.169280 0.374280
0.487675 0.180175 0.385176
0.549821 0.191071 0.396071
0.611967 0.201967 0.406967
0.151455 0.202705 0.356455
0.213601 0.213601 0.367351
0.275747 0.224496 0.378246
0.337892 0.235392 0.389142
0.400038 0.246288 0.400038
0.462184 0.257184 0.410934
0.524330 0.268080 0.421829
0.586475 0.278975 0.432725
0.648621 0.289871 0.443621
0.188109 0.290609 0.393109
0.250255 0.301505 0.404005
0.312400 0.312400 0.414901
0.374546 0.323296 0.425796
0.436692 0.334192 0.436692
0.498838 0.345088 0.447588
0.560983 0.355984 0.458483
0.623129 0.366879 0.469379
0.685275 0.377775 0.480275
0.224763 0.378513 0.429763
0.286909 0.389409 0.440659
0.349055 0.400304 0.451554
0.411200 0.411200 0.462450
0.473346 0.422096 0.473346
0.535492 0.432992 0.484242
0.597638 0.443887 0.495138
0.659783 0.454783 0.506033
0.721929 0.465679 0.516929
0.261417 0.466417 0.466417
0.323563 0.477313 0.477313
0.385709 0.488208 0.488208
0.447854 0.499104 0.499104
0.510000 0.510000 0.510000
0.572146 0.520896 0.520896
0.634292 0.531791 0.531791
0.696437 0.542687 0.542687
0.758583 0.553583 0.553583
0.298071 0.554321 0.503071
0.360217 0.565217 0.513967
0.422362 0.576112 0.524862
0.484508 0.587008 0.535758
0.546654 0.597904 0.546654
0.608800 0.608800 0.557550
0.670945 0.619695 0.568445
0.733091 0.630591 0.579341
0.795237 0.641487 0.590237
0.334725 0.642225 0.539725
0.396871 0.653121 0.550621
0.459017 0.664017 0.561516
0.521162 0.674912 0.572412
0.583308 0.685808 0.583308
0.645454 0.696704 0.594204
0.707599 0.707599 0.605099
0.769745 0.718495 0.615995
0.831891 0.729391 0.626891
0.371379 0.730129 0.576379
0.433525 0.741025 0.587275
0.495671 0.751920 0.598170
0.557816 0.762816 0.609066
0.619962 0.773712 0.619962
0.682108 0.784608 0.630858
0.744253 0.795503 0.641753
0.806399 0.806399 0.652649
0.868545 0.817295 0.663545
0.408033 0.818033 0.613033
0.470179 0.828929 0.623929
0.532324 0.839824 0.634825
0.594470 0.850720 0.645720
0.656616 0.861616 0.656616
0.718762 0.872512 0.667512
0.780907 0.883407 0.678407
0.843053 0.894303 0.689303
0.905199 0.905199 0.700199
0.118501 0.118501 0.374751
0.180647 0.129397 0.385647
0.242793 0.140293 0.396543
0.304939 0.151189 0.407439
0.367084 0.162084 0.418334
0.429230 0.172980 0.429230
0.491376 0.183876 0.440126
0.553521 0.194771 0.451021
0.615667 0.205667 0.461917
0.155155 0.206405 0.411405
0.217301 0.217301 0.422301
0.279447 0.228197 0.433197
0.341593 0.239092 0.444093
0.403738 0.249988 0.454988
0.465884 0.260884 0.465884
0.528030 0.271780 0.476780
0.590175 0.282675 0.487675
0.652321 0.293571 0.498571
0.191809 0.294309 0.448059
0.253955 0.305205 0.458955
0.316101 0.316101 0.469851
0.378246 0.326997 0.480746
0.440392 0.337892 0.491642
0.502538 0.348788 0.502538
0.564684 0.359684 0.513434
0.626829 0.370579 0.524329
0.688975 0.381475 0.535225
0.228463 0.382213 0.484713
0.290609 0.393109 0.495609
0.352755 0.404005 0.506505
0.414901 0.414901 0.517401
0.477046 0.425796 0.528296
0.539192 0.436692 0.539192
0.601338 0.447588 0.550088
0.663483 0.458483 0.560983
0.725629 0.469379 0.571879
0.265117 0.470117 0.521367
0.327263 0.481013 0.532263
0.389409 0.491909 0.543159
0.451554 0.502804 0.554055
0.513700 0.513700 0.564950
0.575846 0.524596 0.575846
0.637992 0.535492 0.586742
0.700137 0.546388 0.597638
0.762283 0.557283 0.608533
0.301771 0.558021 0.558021
0.363917 0.568917 0.568917
0.426063 0.579813 0.579813
0.488208 0.590708 0.590708
0.550354 0.601604 0.601604
0.612500 0.612500 0.612500
0.674646 0.623396 0.623396
0.736791 0.634292 0.634292
0.798937 0.645187 0.645187
0.338425 0.645925 0.594675
0.400571 0.656821 0.605571
0.462717 0.667717 0.616467
0.524862 0.678612 0.627362
0.587008 0.689508 0.638258
0.649154 0.700404 0.649154
0.711300 0.711300 0.660050
0.773445 0.722195 0.670945
0.835591 0.733091 0.681841
0.375079 0.733829 0.631329
0.437225 0.744725 0.642225
0.499371 0.755621 0.653121
0.561516 0.766516 0.664016
0.623662 0.777412 0.674912
0.685808 0.788308 0.685808
0.747954 0.799204 0.696704
0.810099 0.810099 0.707599
0.872245 0.820995 0.718495
0.411733 0.821733 0.667983
0.473879 0.832629 0.678879
0.536025 0.843525 0.689775
0.598170 0.854420 0.700670
0.660316 0.865316 0.711566
0.722462 0.876212 0.722462
0.784608 0.887108 0.733358
0.846753 0.898003 0.744253
0.908899 0.908899 0.755149
0.122202 0.122202 0.429701
0.184347 0.133097 0.440597
0.246493 0.143993 0.451493
0.308639 0.154889 0.462389
0.370784 0.165785 0.473284
0.432930 0.176680 0.484180
0.495076 0.187576 0.495076
0.557222 0.198472 0.505972
0.619367 0.209368 0.516868
0.158856 0.210106 0.466355
0.221001 0.221001 0.477251
0.283147 0.231897 0.488147
0.345293 0.242793 0.499043
0.407438 0.253688 0.509938
0.469584 0.264584 0.520834
0.531730 0.275480 0.531730
0.593876 0.286376 0.542626
0.656021 0.297271 0.553521
0.195510 0.298009 0.503009
0.257655 0.308905 0.513905
0.319801 0.319801 0.524801
0.381947 0.330697 0.535697
0.444093 0.341593 0.546593
0.506238 0.352488 0.557488
0.568384 0.363384 0.568384
0.630530 0.374280 0.579280
0.692675 0.385176 0.590175
0.232163 0.385914 0.539664
0.294309 0.396809 0.550559
0.356455 0.407705 0.561455
0.418601 0.418601 0.572351
0.480746 0.429496 0.583247
0.542892 0.440392 0.594142
0.605038 0.451288 0.605038
0.667184 0.462184 0.615934
0.729329 0.473079 0.626829
0.268817 0.473818 0.576318
0.330963 0.484713 0.587213
0.393109 0.495609 0.598109
0.455255 0.506505 0.609005
0.517401 0.517401 0.619900
0.579546 0.528296 0.630796
0.641692 0.539192 0.641692
0.703838 0.550088 0.652588
0.765984 0.560984 0.663484
0.305472 0.561721 0.612971
0.367617 0.572617 0.623867
0.429763 0.583513 0.634763
0.491909 0.594409 0.645659
0.554055 0.605304 0.656554
0.616200 0.616200 0.667450
0.678346 0.627096 0.678346
0.740492 0.637992 0.689242
0.802638 0.648887 0.700137
0.342125 0.649625 0.649625
0.404271 0.660521 0.660521
0.466417 0.671417 0.671417
0.528563 0.682313 0.682313
0.590708 0.693208 0.693208
0.652854 0.704104 0.704104
0.715000 0.715000 0.715000
0.777146 0.725896 0.725896
0.839291 0.736791 0.736791
0.378779 0.737529 0.686279
0.440925 0.748425 0.697175
0.503071 0.759321 0.708071
0.565217 0.770217 0.718967
0.627362 0.781112 0.729862
0.689508 0.792008 0.740758
0.751654 0.802904 0.751654
0.813800 0.813800 0.762550
0.875945 0.824695 0.773445
0.415434 0.825433 0.722933
0.477579 0.836329 0.733829
0.539725 0.847225 0.744725
0.601871 0.858121 0.755621
0.664016 0.869016 0.766516
0.726162 0.879912 0.777412
0.788308 0.890808 0.788308
0.850454 0.901704 0.799204
0.912599 0.912599 0.810099
0.125902 0.125902 0.484652
0.188047 0.136798 0.495548
0.250193 0.147693 0.506443
0.312339 0.158589 0.517339
0.374485 0.169485 0.528235
0.436631 0.180380 0.539130
0.498776 0.191276 0.550026
0.560922 0.202172 0.560922
0.623068 0.213068 0.571818
0.162556 0.213806 0.521306
0.224701 0.224701 0.532201
0.286847 0.235597 0.543097
0.348993 0.246493 0.553993
0.411139 0.257389 0.564889
0.473284 0.268284 0.575784
0.535430 0.279180 0.586680
0.597576 0.290076 0.597576
0.659722 0.300972 0.608472
0.199210 0.301710 0.557960
0.261355 0.312605 0.568855
0.323501 0.323501 0.579751
0.385647 0.334397 0.590647
0.447793 0.345293 0.601543
0.509938 0.356189 0.612438
0.572084 0.367084 0.623334
0.634230 0.377980 0.634230
0.696376 0.388876 0.645126
0.235864 0.389614 0.594614
0.298009 0.400509 0.605509
0.360155 0.411405 0.616405
0.422301 0.422301 0.627301
0.484447 0.433197 0.638197
0.546593 0.444093 0.649092
0.608738 0.454988 0.659988
0.670884 0.465884 0.670884
0.733030 0.476780 0.681780
0.272518 0.477518 0.631268
0.334663 0.488413 0.642163
0.396809 0.499309 0.653059
0.458955 0.510205 0.663955
0.521101 0.521101 0.674851
0.583247 0.531996 0.685746
0.645392 0.542892 0.696642
0.707538 0.553788 0.707538
0.769684 0.564684 0.718434
0.309172 0.565422 0.667922
0.371317 0.576318 0.678817
0.433463 0.587213 0.689713
0.495609 0.598109 0.700609
0.557755 0.609005 0.711505
0.619900 0.619900 0.722400
0.682046 0.630796 0.733296
0.744192 0.641692 0.744192
0.806338 0.652588 0.755088
0.345826 0.653326 0.704576
0.407971 0.664221 0.715471
0.470117 0.675117 0.726367
0.532263 0.686013 0.737263
0.594409 0.696909 0.748159
0.656554 0.707804 0.759054
0.718700 0.718700 0.769950
0.780846 0.729596 0.780846
0.842992 0.740492 0.791742
0.382480 0.741230 0.741230
0.444625 0.752125 0.752125
0.506771 0.763021 0.763021
0.568917 0.773917 0.773917
0.631063 0.784813 0.784813
0.693208 0.795708 0.795708
0.755354 0.806604 0.806604
0.817500 0.817500 0.817500
0.879646 0.828396 0.828396
0.419134 0.829134 0.777884
0.481279 0.840029 0.788779
0.543425 0.850925 0.799675
0.605571 0.861821 0.810571
0.667717 0.872717 0.821467
0.729862 0.883612 0.832362
0.792008 0.894508 0.843258
0.854154 0.905404 0.854154
0.916300 0.916300 0.865050
0.129602 0.129602 0.539602
0.191748 0.140498 0.550498
0.253893 0.151394 0.561393
0.316039 0.162289 0.572289
0.378185 0.173185 0.583185
0.440331 0.184081 0.594081
0.502476 0.194976 0.604977
0.564622 0.205872 0.615872
0.626768 0.216768 0.626768
0.166256 0.217506 0.576256
0.228402 0.228402 0.587152
0.290547 0.239297 0.598047
0.352693 0.250193 0.608943
0.414839 0.261089 0.619839
0.476985 0.271985 0.630735
0.539130 0.282880 0.641630
0.601276 0.293776 0.652526
0.663422 0.304672 0.663422
0.202910 0.305410 0.612910
0.265056 0.316306 0.623806
0.327201 0.327201 0.634701
0.389347 0.338097 0.645597
0.451493 0.348993 0.656493
0.513639 0.359889 0.667389
0.575784 0.370784 0.678284
0.637930 0.381680 0.689180
0.700076 0.392576 0.700076
0.239564 0.393314 0.649564
0.301710 0.404210 0.660460
0.363855 0.415106 0.671355
0.426001 0.426001 0.682251
0.488147 0.436897 0.693147
0.550293 0.447793 0.704043
0.612438 0.458688 0.714938
0.674584 0.469584 0.725834
0.736730 0.480480 0.736730
0.276218 0.481218 0.686218
0.338364 0.492114 0.697114
0.400509 0.503009 0.708009
0.462655 0.513905 0.718905
0.524801 0.524801 0.729801
0.586947 0.535697 0.740697
0.649092 0.546593 0.751592
0.711238 0.557488 0.762488
0.773384 0.568384 0.773384
0.312872 0.569122 0.722872
0.375018 0.580018 0.733768
0.437164 0.590913 0.744664
0.499309 0.601809 0.755559
0.561455 0.612705 0.766455
0.623601 0.623601 0.777351
0.685746 0.634496 0.788246
0.747892 0.645392 0.799142
0.810038 0.656288 0.810038
0.349526 0.657026 0.759526
0.411672 0.667922 0.770422
0.473818 0.678817 0.781317
0.535963 0.689713 0.792213
0.598109 0.700609 0.803109
0.660255 0.711505 0.814005
0.722401 0.722401 0.824901
0.784546 0.733296 0.835796
0.846692 0.744192 0.846692
0.386180 0.744930 0.796180
0.448326 0.755826 0.807076
0.510471 0.766721 0.817971
0.572617 0.777617 0.828867
0.634763 0.788513 0.839763
0.696909 0.799409 0.850659
0.759054 0.810304 0.861555
0.821200 0.821200 0.872450
0.883346 0.832096 0.883346
0.422834 0.832834 0.832834
0.484980 0.843730 0.843730
0.547125 0.854625 0.854625
0.609271 0.865521 0.865521
0.671417 0.876417 0.876417
0.733563 0.887313 0.887313
0.795708 0.898208 0.898208
0.857854 0.909104 0.909104
0.920000 0.920000 0.920000
