assets/luts/orange_teal.cube
TITLE "Orange+Teal"
LUT_3D_SIZE 5
DOMAIN_MIN 0.0 0.0 0.0
DOMAIN_MAX 1.0 1.0 1.0
0.000000 0.060000 0.100000
0.180630 0.052027 0.086712
0.441260 0.044055 0.073425
0.701890 0.036082 0.060138
0.962520 0.028110 0.046850
0.000000 0.283180 0.055300
0.216390 0.275207 0.042013
0.477020 0.267235 0.028725
0.737650 0.259263 0.015438
0.998280 0.251290 0.002150
0.000000 0.506360 0.010600
0.250000 0.500000 0.000000
0.500000 0.500000 0.000000
0.754092 0.499318 0.000000
1.000000 0.497192 0.000000
0.008736 0.748544 0.000000
0.271492 0.746418 0.000000
0.534248 0.744292 0.000000
0.797004 0.742166 0.000000
1.000000 0.740040 0.000000
0.051648 0.991392 0.000000
0.314404 0.989266 0.000000
0.577160 0.987140 0.000000
0.839916 0.985014 0.000000
1.000000 0.982888 0.000000
0.000000 0.057292 0.345488
0.184240 0.049320 0.332200
0.444870 0.041347 0.318912
0.705500 0.033375 0.305625
0.966130 0.025402 0.292338
0.000000 0.280473 0.300787
0.220000 0.272500 0.287500
0.480630 0.264527 0.274212
0.741260 0.256555 0.260925
1.000000 0.250000 0.250000
0.000000 0.503652 0.256088
0.250000 0.500000 0.250000
0.500000 0.500000 0.250000
0.758424 0.498596 0.242980
1.000000 0.496470 0.232350
0.013068 0.747822 0.239110
0.275824 0.745696 0.228480
0.538580 0.743570 0.217850
0.801336 0.741444 0.207220
1.000000 0.739318 0.196590
0.055980 0.990670 0.203350
0.318736 0.988544 0.192720
0.581492 0.986418 0.182090
0.844248 0.984292 0.171460
1.000000 0.982166 0.160830
0.000000 0.054585 0.590975
0.187850 0.046612 0.577688
0.448480 0.038640 0.564400
0.709110 0.030668 0.551113
0.969740 0.022695 0.537825
0.000000 0.277765 0.546275
0.223610 0.269792 0.532987
0.484240 0.261820 0.519700
0.744870 0.253848 0.506413
1.000000 0.250000 0.500000
0.000000 0.500945 0.501575
0.250000 0.500000 0.500000
0.500000 0.500000 0.500000
0.762756 0.497874 0.489370
1.000000 0.495748 0.478740
0.017400 0.747100 0.485500
0.280156 0.744974 0.474870
0.542912 0.742848 0.464240
0.805668 0.740722 0.453610
1.000000 0.738596 0.442980
0.060312 0.989948 0.449740
0.323068 0.987822 0.439110
0.585824 0.985696 0.428480
0.848580 0.983570 0.417850
1.000000 0.981444 0.407220
0.000000 0.051878 0.836462
0.191460 0.043905 0.823175
0.452090 0.035932 0.809887
0.712720 0.027960 0.796600
0.973350 0.019987 0.783312
0.000000 0.275058 0.791763
0.227220 0.267085 0.778475
0.487850 0.259112 0.765188
0.748480 0.251140 0.751900
1.000000 0.250000 0.750000
0.000000 0.500000 0.750000
0.250000 0.500000 0.750000
0.504332 0.499278 0.746390
0.767088 0.497152 0.735760
1.000000 0.495026 0.725130
0.021732 0.746378 0.731890
0.284488 0.744252 0.721260
0.547244 0.742126 0.710630
0.810000 0.740000 0.700000
1.000000 0.737874 0.689370
0.064644 0.989226 0.696130
0.327400 0.987100 0.685500
0.590156 0.984974 0.674870
0.852912 0.982848 0.664240
1.000000 0.980722 0.653610
0.000000 0.049170 1.000000
0.195070 0.041197 1.000000
0.455700 0.033225 1.000000
0.716330 0.025252 1.000000
0.976960 0.017280 1.000000
0.000000 0.272350 1.000000
0.230830 0.264377 1.000000
0.491460 0.256405 1.000000
0.750000 0.250000 1.000000
1.000000 0.250000 1.000000
0.000000 0.500000 1.000000
0.250000 0.500000 1.000000
0.508664 0.498556 0.992780
0.771420 0.496430 0.982150
1.000000 0.494304 0.971520
0.026064 0.745656 0.978280
0.288820 0.743530 0.967650
0.551576 0.741404 0.957020
0.814332 0.739278 0.946390
1.000000 0.737152 0.935760
0.068976 0.988504 0.942520
0.331732 0.986378 0.931890
0.594488 0.984252 0.921260
0.857244 0.982126 0.910630
1.000000 0.980000 0.900000
