assets/luts/orange_teal.cube
TITLE "Orange+Teal"
LUT_3D_SIZE 9
DOMAIN_MIN 0.0 0.0 0.0
DOMAIN_MAX 1.0 1.0 1.0
0.000000 0.060000 0.100000
0.050315 0.056014 0.093356
0.180630 0.052027 0.086712
0.310945 0.048041 0.080069
0.441260 0.044055 0.073425
0.571575 0.040069 0.066781
0.701890 0.036082 0.060138
0.832205 0.032096 0.053494
0.962520 0.028110 0.046850
0.000000 0.171590 0.077650
0.068195 0.167604 0.071006
0.198510 0.163617 0.064363
0.328825 0.159631 0.057719
0.459140 0.155645 0.051075
0.589455 0.151659 0.044431
0.719770 0.147672 0.037788
0.850085 0.143686 0.031144
0.980400 0.139700 0.024500
0.000000 0.283180 0.055300
0.086075 0.279194 0.048656
0.216390 0.275207 0.042013
0.346705 0.271221 0.035369
0.477020 0.267235 0.028725
0.607335 0.263249 0.022081
0.737650 0.259263 0.015438
0.867965 0.255276 0.008794
0.998280 0.251290 0.002150
0.000000 0.394770 0.032950
0.103955 0.390784 0.026306
0.234270 0.386798 0.019662
0.364585 0.382811 0.013019
0.494900 0.378825 0.006375
0.625000 0.375000 0.000000
0.750000 0.375000 0.000000
0.875000 0.375000 0.000000
1.000000 0.375000 0.000000
0.000000 0.506360 0.010600
0.121835 0.502374 0.003956
0.250000 0.500000 0.000000
0.375000 0.500000 0.000000
0.500000 0.500000 0.000000
0.625000 0.500000 0.000000
0.754092 0.499318 0.000000
0.885470 0.498255 0.000000
1.000000 0.497192 0.000000
0.000000 0.625000 0.000000
0.125000 0.625000 0.000000
0.250036 0.624994 0.000000
0.381414 0.623931 0.000000
0.512792 0.622868 0.000000
0.644170 0.621805 0.000000
0.775548 0.620742 0.000000
0.906926 0.619679 0.000000
1.000000 0.618616 0.000000
0.008736 0.748544 0.000000
0.140114 0.747481 0.000000
0.271492 0.746418 0.000000
0.402870 0.745355 0.000000
0.534248 0.744292 0.000000
0.665626 0.743229 0.000000
0.797004 0.742166 0.000000
0.928382 0.741103 0.000000
1.000000 0.740040 0.000000
0.030192 0.869968 0.000000
0.161570 0.868905 0.000000
0.292948 0.867842 0.000000
0.424326 0.866779 0.000000
0.555704 0.865716 0.000000
0.687082 0.864653 0.000000
0.818460 0.863590 0.000000
0.949838 0.862527 0.000000
1.000000 0.861464 0.000000
0.051648 0.991392 0.000000
0.183026 0.990329 0.000000
0.314404 0.989266 0.000000
0.445782 0.988203 0.000000
0.577160 0.987140 0.000000
0.708538 0.986077 0.000000
0.839916 0.985014 0.000000
0.971294 0.983951 0.000000
1.000000 0.982888 0.000000
0.000000 0.058646 0.222744
0.052120 0.054660 0.216100
0.182435 0.050674 0.209456
0.312750 0.046687 0.202813
0.443065 0.042701 0.196169
0.573380 0.038715 0.189525
0.703695 0.034729 0.182881
0.834010 0.030742 0.176237
0.964325 0.026756 0.169594
0.000000 0.170236 0.200394
0.070000 0.166250 0.193750
0.200315 0.162264 0.187106
0.330630 0.158277 0.180462
0.460945 0.154291 0.173819
0.591260 0.150305 0.167175
0.721575 0.146319 0.160531
0.851890 0.142333 0.153888
0.982205 0.138346 0.147244
0.000000 0.281826 0.178044
0.087880 0.277840 0.171400
0.218195 0.273854 0.164756
0.348510 0.269867 0.158112
0.478825 0.265881 0.151469
0.609140 0.261895 0.144825
0.739455 0.257909 0.138181
0.869770 0.253922 0.131538
1.000000 0.250000 0.125000
0.000000 0.393416 0.155694
0.105760 0.389430 0.149050
0.236075 0.385444 0.142406
0.366390 0.381458 0.135763
0.496705 0.377471 0.129119
0.625000 0.375000 0.125000
0.750000 0.375000 0.125000
0.875000 0.375000 0.125000
1.000000 0.375000 0.125000
0.000000 0.505006 0.133344
0.123640 0.501020 0.126700
0.250000 0.500000 0.125000
0.375000 0.500000 0.125000
0.500000 0.500000 0.125000
0.625000 0.500000 0.125000
0.756258 0.498957 0.119785
0.887636 0.497894 0.114470
1.000000 0.496831 0.109155
0.000000 0.625000 0.125000
0.125000 0.625000 0.125000
0.252202 0.624633 0.123165
0.383580 0.623570 0.117850
0.514958 0.622507 0.112535
0.646336 0.621444 0.107220
0.777714 0.620381 0.101905
0.909092 0.619318 0.096590
1.000000 0.618255 0.091275
0.010902 0.748183 0.115915
0.142280 0.747120 0.110600
0.273658 0.746057 0.105285
0.405036 0.744994 0.099970
0.536414 0.743931 0.094655
0.667792 0.742868 0.089340
0.799170 0.741805 0.084025
0.930548 0.740742 0.078710
1.000000 0.739679 0.073395
0.032358 0.869607 0.098035
0.163736 0.868544 0.092720
0.295114 0.867481 0.087405
0.426492 0.866418 0.082090
0.557870 0.865355 0.076775
0.689248 0.864292 0.071460
0.820626 0.863229 0.066145
0.952004 0.862166 0.060830
1.000000 0.861103 0.055515
0.053814 0.991031 0.080155
0.185192 0.989968 0.074840
0.316570 0.988905 0.069525
0.447948 0.987842 0.064210
0.579326 0.986779 0.058895
0.710704 0.985716 0.053580
0.842082 0.984653 0.048265
0.973460 0.983590 0.042950
1.000000 0.982527 0.037635
0.000000 0.057292 0.345488
0.053925 0.053306 0.338844
0.184240 0.049320 0.332200
0.314555 0.045334 0.325556
0.444870 0.041347 0.318912
0.575185 0.037361 0.312269
0.705500 0.033375 0.305625
0.835815 0.029389 0.298981
0.966130 0.025402 0.292338
0.000000 0.168882 0.323138
0.071805 0.164896 0.316494
0.202120 0.160910 0.309850
0.332435 0.156924 0.303206
0.462750 0.152938 0.296563
0.593065 0.148951 0.289919
0.723380 0.144965 0.283275
0.853695 0.140979 0.276631
0.984010 0.136992 0.269987
0.000000 0.280473 0.300787
0.089685 0.276486 0.294144
0.220000 0.272500 0.287500
0.350315 0.268514 0.280856
0.480630 0.264527 0.274212
0.610945 0.260541 0.267569
0.741260 0.256555 0.260925
0.871575 0.252569 0.254281
1.000000 0.250000 0.250000
0.000000 0.392062 0.278438
0.107565 0.388076 0.271794
0.237880 0.384090 0.265150
0.368195 0.380104 0.258506
0.498510 0.376117 0.251862
0.625000 0.375000 0.250000
0.750000 0.375000 0.250000
0.875000 0.375000 0.250000
1.000000 0.375000 0.250000
0.000000 0.503652 0.256088
0.125000 0.500000 0.250000
0.250000 0.500000 0.250000
0.375000 0.500000 0.250000
0.500000 0.500000 0.250000
0.627046 0.499659 0.248295
0.758424 0.498596 0.242980
0.889802 0.497533 0.237665
1.000000 0.496470 0.232350
0.000000 0.625000 0.250000
0.125000 0.625000 0.250000
0.254368 0.624272 0.246360
0.385746 0.623209 0.241045
0.517124 0.622146 0.235730
0.648502 0.621083 0.230415
0.779880 0.620020 0.225100
0.911258 0.618957 0.219785
1.000000 0.617894 0.214470
0.013068 0.747822 0.239110
0.144446 0.746759 0.233795
0.275824 0.745696 0.228480
0.407202 0.744633 0.223165
0.538580 0.743570 0.217850
0.669958 0.742507 0.212535
0.801336 0.741444 0.207220
0.932714 0.740381 0.201905
1.000000 0.739318 0.196590
0.034524 0.869246 0.221230
0.165902 0.868183 0.215915
0.297280 0.867120 0.210600
0.428658 0.866057 0.205285
0.560036 0.864994 0.199970
0.691414 0.863931 0.194655
0.822792 0.862868 0.189340
0.954170 0.861805 0.184025
1.000000 0.860742 0.178710
0.055980 0.990670 0.203350
0.187358 0.989607 0.198035
0.318736 0.988544 0.192720
0.450114 0.987481 0.187405
0.581492 0.986418 0.182090
0.712870 0.985355 0.176775
0.844248 0.984292 0.171460
0.975626 0.983229 0.166145
1.000000 0.982166 0.160830
0.000000 0.055939 0.468231
0.055730 0.051952 0.461587
0.186045 0.047966 0.454944
0.316360 0.043980 0.448300
0.446675 0.039994 0.441656
0.576990 0.036007 0.435013
0.707305 0.032021 0.428369
0.837620 0.028035 0.421725
0.967935 0.024049 0.415081
0.000000 0.167529 0.445881
0.073610 0.163542 0.439238
0.203925 0.159556 0.432594
0.334240 0.155570 0.425950
0.464555 0.151584 0.419306
0.594870 0.147597 0.412662
0.725185 0.143611 0.406019
0.855500 0.139625 0.399375
0.985815 0.135639 0.392731
0.000000 0.279119 0.423531
0.091490 0.275133 0.416888
0.221805 0.271146 0.410244
0.352120 0.267160 0.403600
0.482435 0.263174 0.396956
0.612750 0.259188 0.390313
0.743065 0.255201 0.383669
0.873380 0.251215 0.377025
1.000000 0.250000 0.375000
0.000000 0.390709 0.401181
0.109370 0.386722 0.394537
0.239685 0.382736 0.387894
0.370000 0.378750 0.381250
0.500000 0.375000 0.375000
0.625000 0.375000 0.375000
0.750000 0.375000 0.375000
0.875000 0.375000 0.375000
1.000000 0.374685 0.373425
0.000000 0.502299 0.378831
0.125000 0.500000 0.375000
0.250000 0.500000 0.375000
0.375000 0.500000 0.375000
0.500000 0.500000 0.375000
0.629212 0.499298 0.371490
0.760590 0.498235 0.366175
0.891968 0.497172 0.360860
1.000000 0.496109 0.355545
0.000000 0.625000 0.375000
0.125156 0.624974 0.374870
0.256534 0.623911 0.369555
0.387912 0.622848 0.364240
0.519290 0.621785 0.358925
0.650668 0.620722 0.353610
0.782046 0.619659 0.348295
0.913424 0.618596 0.342980
1.000000 0.617533 0.337665
0.015234 0.747461 0.362305
0.146612 0.746398 0.356990
0.277990 0.745335 0.351675
0.409368 0.744272 0.346360
0.540746 0.743209 0.341045
0.672124 0.742146 0.335730
0.803502 0.741083 0.330415
0.934880 0.740020 0.325100
1.000000 0.738957 0.319785
0.036690 0.868885 0.344425
0.168068 0.867822 0.339110
0.299446 0.866759 0.333795
0.430824 0.865696 0.328480
0.562202 0.864633 0.323165
0.693580 0.863570 0.317850
0.824958 0.862507 0.312535
0.956336 0.861444 0.307220
1.000000 0.860381 0.301905
0.058146 0.990309 0.326545
0.189524 0.989246 0.321230
0.320902 0.988183 0.315915
0.452280 0.987120 0.310600
0.583658 0.986057 0.305285
0.715036 0.984994 0.299970
0.846414 0.983931 0.294655
0.977792 0.982868 0.289340
1.000000 0.981805 0.284025
0.000000 0.054585 0.590975
0.057535 0.050599 0.584331
0.187850 0.046612 0.577688
0.318165 0.042626 0.571044
0.448480 0.038640 0.564400
0.578795 0.034654 0.557756
0.709110 0.030668 0.551113
0.839425 0.026681 0.544469
0.969740 0.022695 0.537825
0.000000 0.166175 0.568625
0.075415 0.162189 0.561981
0.205730 0.158202 0.555338
0.336045 0.154216 0.548694
0.466360 0.150230 0.542050
0.596675 0.146244 0.535406
0.726990 0.142257 0.528763
0.857305 0.138271 0.522119
0.987620 0.134285 0.515475
0.000000 0.277765 0.546275
0.093295 0.273779 0.539631
0.223610 0.269792 0.532987
0.353925 0.265806 0.526344
0.484240 0.261820 0.519700
0.614555 0.257834 0.513056
0.744870 0.253848 0.506413
0.875000 0.250000 0.500000
1.000000 0.250000 0.500000
0.000000 0.389355 0.523925
0.111175 0.385369 0.517281
0.241490 0.381383 0.510637
0.371805 0.377396 0.503994
0.500000 0.375000 0.500000
0.625000 0.375000 0.500000
0.750000 0.375000 0.500000
0.875000 0.375000 0.500000
1.000000 0.374324 0.496620
0.000000 0.500945 0.501575
0.125000 0.500000 0.500000
0.250000 0.500000 0.500000
0.375000 0.500000 0.500000
0.500000 0.500000 0.500000
0.631378 0.498937 0.494685
0.762756 0.497874 0.489370
0.894134 0.496811 0.484055
1.000000 0.495748 0.478740
0.000000 0.625000 0.500000
0.127322 0.624613 0.498065
0.258700 0.623550 0.492750
0.390078 0.622487 0.487435
0.521456 0.621424 0.482120
0.652834 0.620361 0.476805
0.784212 0.619298 0.471490
0.915590 0.618235 0.466175
1.000000 0.617172 0.460860
0.017400 0.747100 0.485500
0.148778 0.746037 0.480185
0.280156 0.744974 0.474870
0.411534 0.743911 0.469555
0.542912 0.742848 0.464240
0.674290 0.741785 0.458925
0.805668 0.740722 0.453610
0.937046 0.739659 0.448295
1.000000 0.738596 0.442980
0.038856 0.868524 0.467620
0.170234 0.867461 0.462305
0.301612 0.866398 0.456990
0.432990 0.865335 0.451675
0.564368 0.864272 0.446360
0.695746 0.863209 0.441045
0.827124 0.862146 0.435730
0.958502 0.861083 0.430415
1.000000 0.860020 0.425100
0.060312 0.989948 0.449740
0.191690 0.988885 0.444425
0.323068 0.987822 0.439110
0.454446 0.986759 0.433795
0.585824 0.985696 0.428480
0.717202 0.984633 0.423165
0.848580 0.983570 0.417850
0.979958 0.982507 0.412535
1.000000 0.981444 0.407220
0.000000 0.053231 0.713719
0.059340 0.049245 0.707075
0.189655 0.045259 0.700431
0.319970 0.041272 0.693788
0.450285 0.037286 0.687144
0.580600 0.033300 0.680500
0.710915 0.029314 0.673856
0.841230 0.025327 0.667212
0.971545 0.021341 0.660569
0.000000 0.164821 0.691369
0.077220 0.160835 0.684725
0.207535 0.156849 0.678081
0.337850 0.152863 0.671438
0.468165 0.148876 0.664794
0.598480 0.144890 0.658150
0.728795 0.140904 0.651506
0.859110 0.136917 0.644863
0.989425 0.132931 0.638219
0.000000 0.276411 0.669019
0.095100 0.272425 0.662375
0.225415 0.268439 0.655731
0.355730 0.264452 0.649088
0.486045 0.260466 0.642444
0.616360 0.256480 0.635800
0.746675 0.252494 0.629156
0.875000 0.250000 0.625000
1.000000 0.250000 0.625000
0.000000 0.388001 0.646669
0.112980 0.384015 0.640025
0.243295 0.380029 0.633381
0.373610 0.376043 0.626737
0.500000 0.375000 0.625000
0.625000 0.375000 0.625000
0.750000 0.375000 0.625000
0.875000 0.375000 0.625000
1.000000 0.373963 0.619815
0.000000 0.500000 0.625000
0.125000 0.500000 0.625000
0.250000 0.500000 0.625000
0.375000 0.500000 0.625000
0.502166 0.499639 0.623195
0.633544 0.498576 0.617880
0.764922 0.497513 0.612565
0.896300 0.496450 0.607250
1.000000 0.495387 0.601935
0.000000 0.625000 0.625000
0.129488 0.624252 0.621260
0.260866 0.623189 0.615945
0.392244 0.622126 0.610630
0.523622 0.621063 0.605315
0.655000 0.620000 0.600000
0.786378 0.618937 0.594685
0.917756 0.617874 0.589370
1.000000 0.616811 0.584055
0.019566 0.746739 0.608695
0.150944 0.745676 0.603380
0.282322 0.744613 0.598065
0.413700 0.743550 0.592750
0.545078 0.742487 0.587435
0.676456 0.741424 0.582120
0.807834 0.740361 0.576805
0.939212 0.739298 0.571490
1.000000 0.738235 0.566175
0.041022 0.868163 0.590815
0.172400 0.867100 0.585500
0.303778 0.866037 0.580185
0.435156 0.864974 0.574870
0.566534 0.863911 0.569555
0.697912 0.862848 0.564240
0.829290 0.861785 0.558925
0.960668 0.860722 0.553610
1.000000 0.859659 0.548295
0.062478 0.989587 0.572935
0.193856 0.988524 0.567620
0.325234 0.987461 0.562305
0.456612 0.986398 0.556990
0.587990 0.985335 0.551675
0.719368 0.984272 0.546360
0.850746 0.983209 0.541045
0.982124 0.982146 0.535730
1.000000 0.981083 0.530415
0.000000 0.051878 0.836462
0.061145 0.047891 0.829819
0.191460 0.043905 0.823175
0.321775 0.039919 0.816531
0.452090 0.035932 0.809887
0.582405 0.031946 0.803244
0.712720 0.027960 0.796600
0.843035 0.023974 0.789956
0.973350 0.019987 0.783312
0.000000 0.163467 0.814113
0.079025 0.159481 0.807469
0.209340 0.155495 0.800825
0.339655 0.151509 0.794181
0.469970 0.147523 0.787538
0.600285 0.143536 0.780894
0.730600 0.139550 0.774250
0.860915 0.135564 0.767606
0.991230 0.131578 0.760962
0.000000 0.275058 0.791763
0.096905 0.271071 0.785119
0.227220 0.267085 0.778475
0.357535 0.263099 0.771831
0.487850 0.259112 0.765188
0.618165 0.255126 0.758544
0.748480 0.251140 0.751900
0.875000 0.250000 0.750000
1.000000 0.250000 0.750000
0.000000 0.386647 0.769412
0.114785 0.382661 0.762769
0.245100 0.378675 0.756125
0.375000 0.375000 0.750000
0.500000 0.375000 0.750000
0.625000 0.375000 0.750000
0.750000 0.375000 0.750000
0.877010 0.374665 0.748325
1.000000 0.373602 0.743010
0.000000 0.500000 0.750000
0.125000 0.500000 0.750000
0.250000 0.500000 0.750000
0.375000 0.500000 0.750000
0.504332 0.499278 0.746390
0.635710 0.498215 0.741075
0.767088 0.497152 0.735760
0.898466 0.496089 0.730445
1.000000 0.495026 0.725130
0.000276 0.624954 0.749770
0.131654 0.623891 0.744455
0.263032 0.622828 0.739140
0.394410 0.621765 0.733825
0.525788 0.620702 0.728510
0.657166 0.619639 0.723195
0.788544 0.618576 0.717880
0.919922 0.617513 0.712565
1.000000 0.616450 0.707250
0.021732 0.746378 0.731890
0.153110 0.745315 0.726575
0.284488 0.744252 0.721260
0.415866 0.743189 0.715945
0.547244 0.742126 0.710630
0.678622 0.741063 0.705315
0.810000 0.740000 0.700000
0.941378 0.738937 0.694685
1.000000 0.737874 0.689370
0.043188 0.867802 0.714010
0.174566 0.866739 0.708695
0.305944 0.865676 0.703380
0.437322 0.864613 0.698065
0.568700 0.863550 0.692750
0.700078 0.862487 0.687435
0.831456 0.861424 0.682120
0.962834 0.860361 0.676805
1.000000 0.859298 0.671490
0.064644 0.989226 0.696130
0.196022 0.988163 0.690815
0.327400 0.987100 0.685500
0.458778 0.986037 0.680185
0.590156 0.984974 0.674870
0.721534 0.983911 0.669555
0.852912 0.982848 0.664240
0.984290 0.981785 0.658925
1.000000 0.980722 0.653610
0.000000 0.050524 0.959206
0.062950 0.046537 0.952562
0.193265 0.042551 0.945919
0.323580 0.038565 0.939275
0.453895 0.034579 0.932631
0.584210 0.030592 0.925987
0.714525 0.026606 0.919344
0.844840 0.022620 0.912700
0.975155 0.018634 0.906056
0.000000 0.162114 0.936856
0.080830 0.158128 0.930212
0.211145 0.154141 0.923569
0.341460 0.150155 0.916925
0.471775 0.146169 0.910281
0.602090 0.142182 0.903637
0.732405 0.138196 0.896994
0.862720 0.134210 0.890350
0.993035 0.130224 0.883706
0.000000 0.273704 0.914506
0.098710 0.269717 0.907863
0.229025 0.265731 0.901219
0.359340 0.261745 0.894575
0.489655 0.257759 0.887931
0.619970 0.253773 0.881288
0.750000 0.250000 0.875000
0.875000 0.250000 0.875000
1.000000 0.250000 0.875000
0.000000 0.385294 0.892156
0.116590 0.381308 0.885513
0.246905 0.377321 0.878869
0.375000 0.375000 0.875000
0.500000 0.375000 0.875000
0.625000 0.375000 0.875000
0.750000 0.375000 0.875000
0.879176 0.374304 0.871520
1.000000 0.373241 0.866205
0.000000 0.500000 0.875000
0.125000 0.500000 0.875000
0.250000 0.500000 0.875000
0.375120 0.499980 0.874900
0.506498 0.498917 0.869585
0.637876 0.497854 0.864270
0.769254 0.496791 0.858955
0.900632 0.495728 0.853640
1.000000 0.494665 0.848325
0.002442 0.624593 0.872965
0.133820 0.623530 0.867650
0.265198 0.622467 0.862335
0.396576 0.621404 0.857020
0.527954 0.620341 0.851705
0.659332 0.619278 0.846390
0.790710 0.618215 0.841075
0.922088 0.617152 0.835760
1.000000 0.616089 0.830445
0.023898 0.746017 0.855085
0.155276 0.744954 0.849770
0.286654 0.743891 0.844455
0.418032 0.742828 0.839140
0.549410 0.741765 0.833825
0.680788 0.740702 0.828510
0.812166 0.739639 0.823195
0.943544 0.738576 0.817880
1.000000 0.737513 0.812565
0.045354 0.867441 0.837205
0.176732 0.866378 0.831890
0.308110 0.865315 0.826575
0.439488 0.864252 0.821260
0.570866 0.863189 0.815945
0.702244 0.862126 0.810630
0.833622 0.861063 0.805315
0.965000 0.860000 0.800000
1.000000 0.858937 0.794685
0.066810 0.988865 0.819325
0.198188 0.987802 0.814010
0.329566 0.986739 0.808695
0.460944 0.985676 0.803380
0.592322 0.984613 0.798065
0.723700 0.983550 0.792750
0.855078 0.982487 0.787435
0.986456 0.981424 0.782120
1.000000 0.980361 0.776805
0.000000 0.049170 1.000000
0.064755 0.045184 1.000000
0.195070 0.041197 1.000000
0.325385 0.037211 1.000000
0.455700 0.033225 1.000000
0.586015 0.029239 1.000000
0.716330 0.025252 1.000000
0.846645 0.021266 1.000000
0.976960 0.017280 1.000000
0.000000 0.160760 1.000000
0.082635 0.156774 1.000000
0.212950 0.152787 1.000000
0.343265 0.148801 1.000000
0.473580 0.144815 1.000000
0.603895 0.140829 1.000000
0.734210 0.136843 1.000000
0.864525 0.132856 1.000000
0.994840 0.128870 1.000000
0.000000 0.272350 1.000000
0.100515 0.268364 1.000000
0.230830 0.264377 1.000000
0.361145 0.260391 1.000000
0.491460 0.256405 1.000000
0.621775 0.252419 1.000000
0.750000 0.250000 1.000000
0.875000 0.250000 1.000000
1.000000 0.250000 1.000000
0.000000 0.383940 1.000000
0.118395 0.379954 1.000000
0.248710 0.375968 1.000000
0.375000 0.375000 1.000000
0.500000 0.375000 1.000000
0.625000 0.375000 1.000000
0.750000 0.375000 1.000000
0.881342 0.373943 0.994715
1.000000 0.372880 0.989400
0.000000 0.500000 1.000000
0.125000 0.500000 1.000000
0.250000 0.500000 1.000000
0.377286 0.499619 0.998095
0.508664 0.498556 0.992780
0.640042 0.497493 0.987465
0.771420 0.496430 0.982150
0.902798 0.495367 0.976835
1.000000 0.494304 0.971520
0.004608 0.624232 0.996160
0.135986 0.623169 0.990845
0.267364 0.622106 0.985530
0.398742 0.621043 0.980215
0.530120 0.619980 0.974900
0.661498 0.618917 0.969585
0.792876 0.617854 0.964270
0.924254 0.616791 0.958955
1.000000 0.615728 0.953640
0.026064 0.745656 0.978280
0.157442 0.744593 0.972965
0.288820 0.743530 0.967650
0.420198 0.742467 0.962335
0.551576 0.741404 0.957020
0.682954 0.740341 0.951705
0.814332 0.739278 0.946390
0.945710 0.738215 0.941075
1.000000 0.737152 0.935760
0.047520 0.867080 0.960400
0.178898 0.866017 0.955085
0.310276 0.864954 0.949770
0.441654 0.863891 0.944455
0.573032 0.862828 0.939140
0.704410 0.861765 0.933825
0.835788 0.860702 0.928510
0.967166 0.859639 0.923195
1.000000 0.858576 0.917880
0.068976 0.988504 0.942520
0.200354 0.987441 0.937205
0.331732 0.986378 0.931890
0.463110 0.985315 0.926575
0.594488 0.984252 0.921260
0.725866 0.983189 0.915945
0.857244 0.982126 0.910630
0.988622 0.981063 0.905315
1.000000 0.980000 0.900000
