assets/luts/orange_teal.cube
TITLE "Orange+Teal"
LUT_3D_SIZE 17
DOMAIN_MIN 0.0 0.0 0.0
DOMAIN_MAX 1.0 1.0 1.0
0.000000 0.060000 0.100000
0.000000 0.058007 0.096678
0.050315 0.056014 0.093356
0.115472 0.054021 0.090034
0.180630 0.052027 0.086712
0.245787 0.050034 0.083391
0.310945 0.048041 0.080069
0.376103 0.046048 0.076747
0.441260 0.044055 0.073425
0.506417 0.042062 0.070103
0.571575 0.040069 0.066781
0.636733 0.038076 0.063459
0.701890 0.036082 0.060138
0.767047 0.034089 0.056816
0.832205 0.032096 0.053494
0.897362 0.030103 0.050172
0.962520 0.028110 0.046850
0.000000 0.115795 0.088825
0.000000 0.113802 0.085503
0.059255 0.111809 0.082181
0.124412 0.109816 0.078859
0.189570 0.107823 0.075538
0.254727 0.105829 0.072216
0.319885 0.103836 0.068894
0.385043 0.101843 0.065572
0.450200 0.099850 0.062250
0.515358 0.097857 0.058928
0.580515 0.095864 0.055606
0.645672 0.093871 0.052284
0.710830 0.091878 0.048962
0.775988 0.089884 0.045641
0.841145 0.087891 0.042319
0.906303 0.085898 0.038997
0.971460 0.083905 0.035675
0.000000 0.171590 0.077650
0.003037 0.169597 0.074328
0.068195 0.167604 0.071006
0.133352 0.165611 0.067684
0.198510 0.163617 0.064363
0.263667 0.161624 0.061041
0.328825 0.159631 0.057719
0.393983 0.157638 0.054397
0.459140 0.155645 0.051075
0.524297 0.153652 0.047753
0.589455 0.151659 0.044431
0.654613 0.149666 0.041109
0.719770 0.147672 0.037788
0.784928 0.145679 0.034466
0.850085 0.143686 0.031144
0.915242 0.141693 0.027822
0.980400 0.139700 0.024500
0.000000 0.227385 0.066475
0.011978 0.225392 0.063153
0.077135 0.223399 0.059831
0.142292 0.221406 0.056509
0.207450 0.219413 0.053187
0.272608 0.217419 0.049866
0.337765 0.215426 0.046544
0.402923 0.213433 0.043222
0.468080 0.211440 0.039900
0.533238 0.209447 0.036578
0.598395 0.207454 0.033256
0.663552 0.205461 0.029934
0.728710 0.203467 0.026613
0.793867 0.201474 0.023291
0.859025 0.199481 0.019969
0.924183 0.197488 0.016647
0.989340 0.195495 0.013325
0.000000 0.283180 0.055300
0.020917 0.281187 0.051978
0.086075 0.279194 0.048656
0.151232 0.277201 0.045334
0.216390 0.275207 0.042013
0.281548 0.273214 0.038691
0.346705 0.271221 0.035369
0.411863 0.269228 0.032047
0.477020 0.267235 0.028725
0.542177 0.265242 0.025403
0.607335 0.263249 0.022081
0.672493 0.261256 0.018759
0.737650 0.259263 0.015438
0.802808 0.257269 0.012116
0.867965 0.255276 0.008794
0.933122 0.253283 0.005472
0.998280 0.251290 0.002150
0.000000 0.338975 0.044125
0.029857 0.336982 0.040803
0.095015 0.334989 0.037481
0.160172 0.332996 0.034159
0.225330 0.331002 0.030838
0.290488 0.329009 0.027516
0.355645 0.327016 0.024194
0.420802 0.325023 0.020872
0.485960 0.323030 0.017550
0.551118 0.321037 0.014228
0.616275 0.319044 0.010906
0.681432 0.317051 0.007584
0.746590 0.315057 0.004262
0.811747 0.313064 0.000941
0.875000 0.312500 0.000000
0.937500 0.312500 0.000000
1.000000 0.312500 0.000000
0.000000 0.394770 0.032950
0.038797 0.392777 0.029628
0.103955 0.390784 0.026306
0.169112 0.388791 0.022984
0.234270 0.386798 0.019662
0.299428 0.384804 0.016341
0.364585 0.382811 0.013019
0.429742 0.380818 0.009697
0.494900 0.378825 0.006375
0.560057 0.376832 0.003053
0.625000 0.375000 0.000000
0.687500 0.375000 0.000000
0.750000 0.375000 0.000000
0.812500 0.375000 0.000000
0.875000 0.375000 0.000000
0.937500 0.375000 0.000000
1.000000 0.375000 0.000000
0.000000 0.450565 0.021775
0.047737 0.448572 0.018453
0.112895 0.446579 0.015131
0.178053 0.444586 0.011809
0.243210 0.442592 0.008488
0.308368 0.440599 0.005166
0.373525 0.438606 0.001844
0.437500 0.437500 0.000000
0.500000 0.437500 0.000000
0.562500 0.437500 0.000000
0.625000 0.437500 0.000000
0.687500 0.437500 0.000000
0.750000 0.437500 0.000000
0.812500 0.437500 0.000000
0.875000 0.437500 0.000000
0.940431 0.437011 0.000000
1.000000 0.436480 0.000000
0.000000 0.506360 0.010600
0.056677 0.504367 0.007278
0.121835 0.502374 0.003956
0.186993 0.500381 0.000634
0.250000 0.500000 0.000000
0.312500 0.500000 0.000000
0.375000 0.500000 0.000000
0.437500 0.500000 0.000000
0.500000 0.500000 0.000000
0.562500 0.500000 0.000000
0.625000 0.500000 0.000000
0.688403 0.499850 0.000000
0.754092 0.499318 0.000000
0.819781 0.498787 0.000000
0.885470 0.498255 0.000000
0.951159 0.497723 0.000000
1.000000 0.497192 0.000000
0.000000 0.562500 0.000000
0.062500 0.562500 0.000000
0.125000 0.562500 0.000000
0.187500 0.562500 0.000000
0.250000 0.562500 0.000000
0.312500 0.562500 0.000000
0.375000 0.562500 0.000000
0.437500 0.562500 0.000000
0.502064 0.562156 0.000000
0.567753 0.561624 0.000000
0.633442 0.561093 0.000000
0.699131 0.560562 0.000000
0.764820 0.560030 0.000000
0.830509 0.559499 0.000000
0.896198 0.558967 0.000000
0.961887 0.558435 0.000000
1.000000 0.557904 0.000000
0.000000 0.625000 0.000000
0.062500 0.625000 0.000000
0.125000 0.625000 0.000000
0.187500 0.625000 0.000000
0.250036 0.624994 0.000000
0.315725 0.624463 0.000000
0.381414 0.623931 0.000000
0.447103 0.623399 0.000000
0.512792 0.622868 0.000000
0.578481 0.622336 0.000000
0.644170 0.621805 0.000000
0.709859 0.621274 0.000000
0.775548 0.620742 0.000000
0.841237 0.620210 0.000000
0.906926 0.619679 0.000000
0.972615 0.619147 0.000000
1.000000 0.618616 0.000000
0.000000 0.687500 0.000000
0.063697 0.687300 0.000000
0.129386 0.686769 0.000000
0.195075 0.686238 0.000000
0.260764 0.685706 0.000000
0.326453 0.685175 0.000000
0.392142 0.684643 0.000000
0.457831 0.684111 0.000000
0.523520 0.683580 0.000000
0.589209 0.683048 0.000000
0.654898 0.682517 0.000000
0.720587 0.681986 0.000000
0.786276 0.681454 0.000000
0.851965 0.680922 0.000000
0.917654 0.680391 0.000000
0.983343 0.679859 0.000000
1.000000 0.679328 0.000000
0.008736 0.748544 0.000000
0.074425 0.748012 0.000000
0.140114 0.747481 0.000000
0.205803 0.746950 0.000000
0.271492 0.746418 0.000000
0.337181 0.745887 0.000000
0.402870 0.745355 0.000000
0.468559 0.744823 0.000000
0.534248 0.744292 0.000000
0.599937 0.743761 0.000000
0.665626 0.743229 0.000000
0.731315 0.742698 0.000000
0.797004 0.742166 0.000000
0.862693 0.741634 0.000000
0.928382 0.741103 0.000000
0.994071 0.740572 0.000000
1.000000 0.740040 0.000000
0.019464 0.809256 0.000000
0.085153 0.808724 0.000000
0.150842 0.808193 0.000000
0.216531 0.807662 0.000000
0.282220 0.807130 0.000000
0.347909 0.806598 0.000000
0.413598 0.806067 0.000000
0.479287 0.805535 0.000000
0.544976 0.805004 0.000000
0.610665 0.804473 0.000000
0.676354 0.803941 0.000000
0.742043 0.803409 0.000000
0.807732 0.802878 0.000000
0.873421 0.802346 0.000000
0.939110 0.801815 0.000000
1.000000 0.801284 0.000000
1.000000 0.800752 0.000000
0.030192 0.869968 0.000000
0.095881 0.869437 0.000000
0.161570 0.868905 0.000000
0.227259 0.868374 0.000000
0.292948 0.867842 0.000000
0.358637 0.867310 0.000000
0.424326 0.866779 0.000000
0.490015 0.866248 0.000000
0.555704 0.865716 0.000000
0.621393 0.865185 0.000000
0.687082 0.864653 0.000000
0.752771 0.864121 0.000000
0.818460 0.863590 0.000000
0.884149 0.863058 0.000000
0.949838 0.862527 0.000000
1.000000 0.861996 0.000000
1.000000 0.861464 0.000000
0.040920 0.930680 0.000000
0.106609 0.930149 0.000000
0.172298 0.929617 0.000000
0.237987 0.929086 0.000000
0.303676 0.928554 0.000000
0.369365 0.928022 0.000000
0.435054 0.927491 0.000000
0.500743 0.926960 0.000000
0.566432 0.926428 0.000000
0.632121 0.925897 0.000000
0.697810 0.925365 0.000000
0.763499 0.924833 0.000000
0.829188 0.924302 0.000000
0.894877 0.923771 0.000000
0.960566 0.923239 0.000000
1.000000 0.922708 0.000000
1.000000 0.922176 0.000000
0.051648 0.991392 0.000000
0.117337 0.990861 0.000000
0.183026 0.990329 0.000000
0.248715 0.989797 0.000000
0.314404 0.989266 0.000000
0.380093 0.988734 0.000000
0.445782 0.988203 0.000000
0.511471 0.987672 0.000000
0.577160 0.987140 0.000000
0.642849 0.986608 0.000000
0.708538 0.986077 0.000000
0.774227 0.985545 0.000000
0.839916 0.985014 0.000000
0.905605 0.984483 0.000000
0.971294 0.983951 0.000000
1.000000 0.983420 0.000000
1.000000 0.982888 0.000000
0.000000 0.059323 0.161372
0.000000 0.057330 0.158050
0.051217 0.055337 0.154728
0.116375 0.053344 0.151406
0.181532 0.051351 0.148084
0.246690 0.049357 0.144763
0.311847 0.047364 0.141441
0.377005 0.045371 0.138119
0.442163 0.043378 0.134797
0.507320 0.041385 0.131475
0.572477 0.039392 0.128153
0.637635 0.037399 0.124831
0.702793 0.035406 0.121509
0.767950 0.033412 0.118188
0.833108 0.031419 0.114866
0.898265 0.029426 0.111544
0.963422 0.027433 0.108222
0.000000 0.115118 0.150197
0.000000 0.113125 0.146875
0.060158 0.111132 0.143553
0.125315 0.109139 0.140231
0.190472 0.107146 0.136909
0.255630 0.105152 0.133587
0.320788 0.103159 0.130266
0.385945 0.101166 0.126944
0.451103 0.099173 0.123622
0.516260 0.097180 0.120300
0.581418 0.095187 0.116978
0.646575 0.093194 0.113656
0.711732 0.091201 0.110334
0.776890 0.089207 0.107013
0.842047 0.087214 0.103691
0.907205 0.085221 0.100369
0.972363 0.083228 0.097047
0.000000 0.170913 0.139022
0.003940 0.168920 0.135700
0.069098 0.166927 0.132378
0.134255 0.164934 0.129056
0.199412 0.162941 0.125734
0.264570 0.160947 0.122412
0.329728 0.158954 0.119091
0.394885 0.156961 0.115769
0.460043 0.154968 0.112447
0.525200 0.152975 0.109125
0.590357 0.150982 0.105803
0.655515 0.148989 0.102481
0.720673 0.146996 0.099159
0.785830 0.145003 0.095837
0.850988 0.143009 0.092516
0.916145 0.141016 0.089194
0.981302 0.139023 0.085872
0.000000 0.226708 0.127847
0.012880 0.224715 0.124525
0.078038 0.222722 0.121203
0.143195 0.220729 0.117881
0.208352 0.218736 0.114559
0.273510 0.216743 0.111238
0.338668 0.214749 0.107916
0.403825 0.212756 0.104594
0.468983 0.210763 0.101272
0.534140 0.208770 0.097950
0.599298 0.206777 0.094628
0.664455 0.204784 0.091306
0.729612 0.202791 0.087984
0.794770 0.200798 0.084663
0.859927 0.198804 0.081341
0.925085 0.196811 0.078019
0.990243 0.194818 0.074697
0.000000 0.282503 0.116672
0.021820 0.280510 0.113350
0.086977 0.278517 0.110028
0.152135 0.276524 0.106706
0.217292 0.274531 0.103384
0.282450 0.272537 0.100062
0.347608 0.270544 0.096741
0.412765 0.268551 0.093419
0.477923 0.266558 0.090097
0.543080 0.264565 0.086775
0.608237 0.262572 0.083453
0.673395 0.260579 0.080131
0.738552 0.258586 0.076809
0.803710 0.256593 0.073488
0.868868 0.254599 0.070166
0.934025 0.252606 0.066844
0.999182 0.250613 0.063522
0.000000 0.338298 0.105497
0.030760 0.336305 0.102175
0.095917 0.334312 0.098853
0.161075 0.332319 0.095531
0.226232 0.330326 0.092209
0.291390 0.328333 0.088888
0.356548 0.326339 0.085566
0.421705 0.324346 0.082244
0.486862 0.322353 0.078922
0.552020 0.320360 0.075600
0.617178 0.318367 0.072278
0.682335 0.316374 0.068956
0.747493 0.314381 0.065634
0.812500 0.312500 0.062500
0.875000 0.312500 0.062500
0.937500 0.312500 0.062500
1.000000 0.312500 0.062500
0.000000 0.394093 0.094322
0.039700 0.392100 0.091000
0.104857 0.390107 0.087678
0.170015 0.388114 0.084356
0.235173 0.386121 0.081034
0.300330 0.384128 0.077712
0.365487 0.382134 0.074391
0.430645 0.380141 0.071069
0.495802 0.378148 0.067747
0.560960 0.376155 0.064425
0.625000 0.375000 0.062500
0.687500 0.375000 0.062500
0.750000 0.375000 0.062500
0.812500 0.375000 0.062500
0.875000 0.375000 0.062500
0.937500 0.375000 0.062500
1.000000 0.375000 0.062500
0.000000 0.449888 0.083147
0.048640 0.447895 0.079825
0.113797 0.445902 0.076503
0.178955 0.443909 0.073181
0.244112 0.441916 0.069859
0.309270 0.439922 0.066537
0.374427 0.437929 0.063216
0.437500 0.437500 0.062500
0.500000 0.437500 0.062500
0.562500 0.437500 0.062500
0.625000 0.437500 0.062500
0.687500 0.437500 0.062500
0.750000 0.437500 0.062500
0.812500 0.437500 0.062500
0.875825 0.437362 0.061813
0.941514 0.436831 0.059155
1.000000 0.436300 0.056497
0.000000 0.505683 0.071972
0.057580 0.503690 0.068650
0.122737 0.501697 0.065328
0.187500 0.500000 0.062500
0.250000 0.500000 0.062500
0.312500 0.500000 0.062500
0.375000 0.500000 0.062500
0.437500 0.500000 0.062500
0.500000 0.500000 0.062500
0.562500 0.500000 0.062500
0.625000 0.500000 0.062500
0.689486 0.499669 0.060845
0.755175 0.499138 0.058187
0.820864 0.498606 0.055530
0.886553 0.498074 0.052872
0.952242 0.497543 0.050215
1.000000 0.497011 0.047557
0.000000 0.562500 0.062500
0.062500 0.562500 0.062500
0.125000 0.562500 0.062500
0.187500 0.562500 0.062500
0.250000 0.562500 0.062500
0.312500 0.562500 0.062500
0.375000 0.562500 0.062500
0.437500 0.562500 0.062500
0.503147 0.561975 0.059878
0.568836 0.561444 0.057220
0.634525 0.560913 0.054562
0.700214 0.560381 0.051905
0.765903 0.559849 0.049247
0.831592 0.559318 0.046590
0.897281 0.558786 0.043932
0.962970 0.558255 0.041275
1.000000 0.557724 0.038617
0.000000 0.625000 0.062500
0.062500 0.625000 0.062500
0.125000 0.625000 0.062500
0.187500 0.625000 0.062500
0.251119 0.624814 0.061567
0.316808 0.624282 0.058910
0.382497 0.623750 0.056252
0.448186 0.623219 0.053595
0.513875 0.622687 0.050938
0.579564 0.622156 0.048280
0.645253 0.621625 0.045623
0.710942 0.621093 0.042965
0.776631 0.620561 0.040308
0.842320 0.620030 0.037650
0.908009 0.619498 0.034993
0.973698 0.618967 0.032335
1.000000 0.618436 0.029678
0.000000 0.687500 0.062500
0.064780 0.687120 0.060600
0.130469 0.686589 0.057943
0.196158 0.686057 0.055285
0.261847 0.685526 0.052628
0.327536 0.684994 0.049970
0.393225 0.684462 0.047313
0.458914 0.683931 0.044655
0.524603 0.683400 0.041997
0.590292 0.682868 0.039340
0.655981 0.682337 0.036682
0.721670 0.681805 0.034025
0.787359 0.681273 0.031367
0.853048 0.680742 0.028710
0.918737 0.680211 0.026053
0.984426 0.679679 0.023395
1.000000 0.679148 0.020738
0.009819 0.748363 0.054317
0.075508 0.747832 0.051660
0.141197 0.747301 0.049002
0.206886 0.746769 0.046345
0.272575 0.746237 0.043687
0.338264 0.745706 0.041030
0.403953 0.745174 0.038372
0.469642 0.744643 0.035715
0.535331 0.744112 0.033057
0.601020 0.743580 0.030400
0.666709 0.743049 0.027742
0.732398 0.742517 0.025085
0.798087 0.741985 0.022427
0.863776 0.741454 0.019770
0.929465 0.740923 0.017112
0.995154 0.740391 0.014455
1.000000 0.739860 0.011797
0.020547 0.809075 0.045378
0.086236 0.808544 0.042720
0.151925 0.808013 0.040063
0.217614 0.807481 0.037405
0.283303 0.806949 0.034748
0.348992 0.806418 0.032090
0.414681 0.805886 0.029432
0.480370 0.805355 0.026775
0.546059 0.804824 0.024117
0.611748 0.804292 0.021460
0.677437 0.803760 0.018802
0.743126 0.803229 0.016145
0.808815 0.802697 0.013488
0.874504 0.802166 0.010830
0.940193 0.801635 0.008172
1.000000 0.801103 0.005515
1.000000 0.800571 0.002857
0.031275 0.869788 0.036438
0.096964 0.869256 0.033780
0.162653 0.868725 0.031123
0.228342 0.868193 0.028465
0.294031 0.867661 0.025808
0.359720 0.867130 0.023150
0.425409 0.866599 0.020492
0.491098 0.866067 0.017835
0.556787 0.865536 0.015177
0.622476 0.865004 0.012520
0.688165 0.864472 0.009862
0.753854 0.863941 0.007205
0.819543 0.863410 0.004548
0.885232 0.862878 0.001890
0.950921 0.862347 0.000000
1.000000 0.861815 0.000000
1.000000 0.861283 0.000000
0.042003 0.930500 0.027497
0.107692 0.929968 0.024840
0.173381 0.929436 0.022182
0.239070 0.928905 0.019525
0.304759 0.928373 0.016867
0.370448 0.927842 0.014210
0.436137 0.927311 0.011552
0.501826 0.926779 0.008895
0.567515 0.926248 0.006238
0.633204 0.925716 0.003580
0.698893 0.925184 0.000922
0.764582 0.924653 0.000000
0.830271 0.924122 0.000000
0.895960 0.923590 0.000000
0.961649 0.923059 0.000000
1.000000 0.922527 0.000000
1.000000 0.921995 0.000000
0.052731 0.991212 0.018558
0.118420 0.990680 0.015900
0.184109 0.990148 0.013242
0.249798 0.989617 0.010585
0.315487 0.989085 0.007927
0.381176 0.988554 0.005270
0.446865 0.988023 0.002612
0.512554 0.987491 0.000000
0.578243 0.986959 0.000000
0.643932 0.986428 0.000000
0.709621 0.985896 0.000000
0.775310 0.985365 0.000000
0.840999 0.984834 0.000000
0.906688 0.984302 0.000000
0.972377 0.983770 0.000000
1.000000 0.983239 0.000000
1.000000 0.982707 0.000000
0.000000 0.058646 0.222744
0.000000 0.056653 0.219422
0.052120 0.054660 0.216100
0.117278 0.052667 0.212778
0.182435 0.050674 0.209456
0.247592 0.048681 0.206134
0.312750 0.046687 0.202813
0.377908 0.044694 0.199491
0.443065 0.042701 0.196169
0.508223 0.040708 0.192847
0.573380 0.038715 0.189525
0.638537 0.036722 0.186203
0.703695 0.034729 0.182881
0.768853 0.032736 0.179559
0.834010 0.030742 0.176237
0.899168 0.028749 0.172916
0.964325 0.026756 0.169594
0.000000 0.114441 0.211569
0.000000 0.112448 0.208247
0.061060 0.110455 0.204925
0.126218 0.108462 0.201603
0.191375 0.106469 0.198281
0.256532 0.104476 0.194959
0.321690 0.102483 0.191638
0.386848 0.100489 0.188316
0.452005 0.098496 0.184994
0.517162 0.096503 0.181672
0.582320 0.094510 0.178350
0.647478 0.092517 0.175028
0.712635 0.090524 0.171706
0.777792 0.088531 0.168384
0.842950 0.086538 0.165063
0.908107 0.084544 0.161741
0.973265 0.082551 0.158419
0.000000 0.170236 0.200394
0.004842 0.168243 0.197072
0.070000 0.166250 0.193750
0.135158 0.164257 0.190428
0.200315 0.162264 0.187106
0.265473 0.160271 0.183784
0.330630 0.158277 0.180462
0.395788 0.156284 0.177141
0.460945 0.154291 0.173819
0.526103 0.152298 0.170497
0.591260 0.150305 0.167175
0.656417 0.148312 0.163853
0.721575 0.146319 0.160531
0.786733 0.144326 0.157209
0.851890 0.142333 0.153888
0.917048 0.140339 0.150566
0.982205 0.138346 0.147244
0.000000 0.226031 0.189219
0.013783 0.224038 0.185897
0.078940 0.222045 0.182575
0.144097 0.220052 0.179253
0.209255 0.218059 0.175931
0.274413 0.216066 0.172609
0.339570 0.214072 0.169288
0.404728 0.212079 0.165966
0.469885 0.210086 0.162644
0.535042 0.208093 0.159322
0.600200 0.206100 0.156000
0.665358 0.204107 0.152678
0.730515 0.202114 0.149356
0.795673 0.200121 0.146034
0.860830 0.198128 0.142712
0.925987 0.196134 0.139391
0.991145 0.194141 0.136069
0.000000 0.281826 0.178044
0.022722 0.279833 0.174722
0.087880 0.277840 0.171400
0.153037 0.275847 0.168078
0.218195 0.273854 0.164756
0.283353 0.271861 0.161434
0.348510 0.269867 0.158112
0.413668 0.267874 0.154791
0.478825 0.265881 0.151469
0.543983 0.263888 0.148147
0.609140 0.261895 0.144825
0.674297 0.259902 0.141503
0.739455 0.257909 0.138181
0.804612 0.255916 0.134859
0.869770 0.253922 0.131538
0.934928 0.251929 0.128216
1.000000 0.250000 0.125000
0.000000 0.337621 0.166869
0.031662 0.335628 0.163547
0.096820 0.333635 0.160225
0.161977 0.331642 0.156903
0.227135 0.329649 0.153581
0.292293 0.327656 0.150259
0.357450 0.325663 0.146937
0.422608 0.323669 0.143616
0.487765 0.321676 0.140294
0.552922 0.319683 0.136972
0.618080 0.317690 0.133650
0.683238 0.315697 0.130328
0.748395 0.313704 0.127006
0.812500 0.312500 0.125000
0.875000 0.312500 0.125000
0.937500 0.312500 0.125000
1.000000 0.312500 0.125000
0.000000 0.393416 0.155694
0.040602 0.391423 0.152372
0.105760 0.389430 0.149050
0.170917 0.387437 0.145728
0.236075 0.385444 0.142406
0.301233 0.383451 0.139084
0.366390 0.381458 0.135763
0.431547 0.379464 0.132441
0.496705 0.377471 0.129119
0.561863 0.375478 0.125797
0.625000 0.375000 0.125000
0.687500 0.375000 0.125000
0.750000 0.375000 0.125000
0.812500 0.375000 0.125000
0.875000 0.375000 0.125000
0.937500 0.375000 0.125000
1.000000 0.375000 0.125000
0.000000 0.449211 0.144519
0.049542 0.447218 0.141197
0.114700 0.445225 0.137875
0.179858 0.443232 0.134553
0.245015 0.441239 0.131231
0.310173 0.439246 0.127909
0.375000 0.437500 0.125000
0.437500 0.437500 0.125000
0.500000 0.437500 0.125000
0.562500 0.437500 0.125000
0.625000 0.437500 0.125000
0.687500 0.437500 0.125000
0.750000 0.437500 0.125000
0.812500 0.437500 0.125000
0.876908 0.437182 0.123410
0.942597 0.436650 0.120753
1.000000 0.436119 0.118095
0.000000 0.505006 0.133344
0.058482 0.503013 0.130022
0.123640 0.501020 0.126700
0.187500 0.500000 0.125000
0.250000 0.500000 0.125000
0.312500 0.500000 0.125000
0.375000 0.500000 0.125000
0.437500 0.500000 0.125000
0.500000 0.500000 0.125000
0.562500 0.500000 0.125000
0.625000 0.500000 0.125000
0.690569 0.499489 0.122443
0.756258 0.498957 0.119785
0.821947 0.498426 0.117128
0.887636 0.497894 0.114470
0.953325 0.497362 0.111813
1.000000 0.496831 0.109155
0.000000 0.562500 0.125000
0.062500 0.562500 0.125000
0.125000 0.562500 0.125000
0.187500 0.562500 0.125000
0.250000 0.562500 0.125000
0.312500 0.562500 0.125000
0.375000 0.562500 0.125000
0.438541 0.562326 0.124133
0.504230 0.561795 0.121475
0.569919 0.561264 0.118817
0.635608 0.560732 0.116160
0.701297 0.560200 0.113503
0.766986 0.559669 0.110845
0.832675 0.559137 0.108188
0.898364 0.558606 0.105530
0.964053 0.558075 0.102873
1.000000 0.557543 0.100215
0.000000 0.625000 0.125000
0.062500 0.625000 0.125000
0.125000 0.625000 0.125000
0.187500 0.625000 0.125000
0.252202 0.624633 0.123165
0.317891 0.624101 0.120508
0.383580 0.623570 0.117850
0.449269 0.623039 0.115193
0.514958 0.622507 0.112535
0.580647 0.621976 0.109878
0.646336 0.621444 0.107220
0.712025 0.620912 0.104563
0.777714 0.620381 0.101905
0.843403 0.619850 0.099248
0.909092 0.619318 0.096590
0.974781 0.618787 0.093933
1.000000 0.618255 0.091275
0.000174 0.687471 0.124855
0.065863 0.686940 0.122198
0.131552 0.686408 0.119540
0.197241 0.685877 0.116883
0.262930 0.685345 0.114225
0.328619 0.684813 0.111568
0.394308 0.684282 0.108910
0.459997 0.683751 0.106253
0.525686 0.683219 0.103595
0.591375 0.682688 0.100938
0.657064 0.682156 0.098280
0.722753 0.681624 0.095623
0.788442 0.681093 0.092965
0.854131 0.680562 0.090308
0.919820 0.680030 0.087650
0.985509 0.679499 0.084992
1.000000 0.678967 0.082335
0.010902 0.748183 0.115915
0.076591 0.747652 0.113258
0.142280 0.747120 0.110600
0.207969 0.746588 0.107943
0.273658 0.746057 0.105285
0.339347 0.745525 0.102628
0.405036 0.744994 0.099970
0.470725 0.744463 0.097313
0.536414 0.743931 0.094655
0.602103 0.743399 0.091998
0.667792 0.742868 0.089340
0.733481 0.742336 0.086683
0.799170 0.741805 0.084025
0.864859 0.741274 0.081368
0.930548 0.740742 0.078710
0.996237 0.740210 0.076053
1.000000 0.739679 0.073395
0.021630 0.808895 0.106975
0.087319 0.808364 0.104318
0.153008 0.807832 0.101660
0.218697 0.807300 0.099003
0.284386 0.806769 0.096345
0.350075 0.806238 0.093688
0.415764 0.805706 0.091030
0.481453 0.805175 0.088373
0.547142 0.804643 0.085715
0.612831 0.804111 0.083058
0.678520 0.803580 0.080400
0.744209 0.803049 0.077743
0.809898 0.802517 0.075085
0.875587 0.801986 0.072428
0.941276 0.801454 0.069770
1.000000 0.800922 0.067113
1.000000 0.800391 0.064455
0.032358 0.869607 0.098035
0.098047 0.869076 0.095378
0.163736 0.868544 0.092720
0.229425 0.868012 0.090063
0.295114 0.867481 0.087405
0.360803 0.866950 0.084748
0.426492 0.866418 0.082090
0.492181 0.865887 0.079433
0.557870 0.865355 0.076775
0.623559 0.864823 0.074118
0.689248 0.864292 0.071460
0.754937 0.863761 0.068803
0.820626 0.863229 0.066145
0.886315 0.862698 0.063488
0.952004 0.862166 0.060830
1.000000 0.861634 0.058173
1.000000 0.861103 0.055515
0.043086 0.930319 0.089095
0.108775 0.929787 0.086438
0.174464 0.929256 0.083780
0.240153 0.928724 0.081123
0.305842 0.928193 0.078465
0.371531 0.927662 0.075807
0.437220 0.927130 0.073150
0.502909 0.926598 0.070492
0.568598 0.926067 0.067835
0.634287 0.925535 0.065177
0.699976 0.925004 0.062520
0.765665 0.924473 0.059863
0.831354 0.923941 0.057205
0.897043 0.923409 0.054548
0.962732 0.922878 0.051890
1.000000 0.922346 0.049233
1.000000 0.921815 0.046575
0.053814 0.991031 0.080155
0.119503 0.990499 0.077498
0.185192 0.989968 0.074840
0.250881 0.989437 0.072183
0.316570 0.988905 0.069525
0.382259 0.988374 0.066868
0.447948 0.987842 0.064210
0.513637 0.987310 0.061553
0.579326 0.986779 0.058895
0.645015 0.986248 0.056238
0.710704 0.985716 0.053580
0.776393 0.985185 0.050923
0.842082 0.984653 0.048265
0.907771 0.984121 0.045608
0.973460 0.983590 0.042950
1.000000 0.983059 0.040293
1.000000 0.982527 0.037635
0.000000 0.057969 0.284116
0.000000 0.055976 0.280794
0.053023 0.053983 0.277472
0.118180 0.051990 0.274150
0.183337 0.049997 0.270828
0.248495 0.048004 0.267506
0.313653 0.046011 0.264184
0.378810 0.044017 0.260862
0.443968 0.042024 0.257541
0.509125 0.040031 0.254219
0.574283 0.038038 0.250897
0.639440 0.036045 0.247575
0.704597 0.034052 0.244253
0.769755 0.032059 0.240931
0.834912 0.030066 0.237609
0.900070 0.028072 0.234287
0.965228 0.026079 0.230966
0.000000 0.113764 0.272941
