assets/luts/warm_vlog.cube
TITLE "Warm Vlog"
LUT_3D_SIZE 9
DOMAIN_MIN 0.0 0.0 0.0
DOMAIN_MAX 1.0 1.0 1.0
0.000000 0.000000 0.025000
0.137750 0.000000 0.025000
0.279500 0.000000 0.025000
0.421250 0.000000 0.025000
0.563000 0.000000 0.025000
0.704750 0.000000 0.025000
0.846500 0.000000 0.025000
0.988250 0.000000 0.025000
1.000000 0.000000 0.025000
0.000000 0.120050 0.025000
0.137750 0.120050 0.025000
0.279500 0.120050 0.025000
0.421250 0.120050 0.025000
0.563000 0.120050 0.025000
0.704750 0.120050 0.025000
0.846500 0.120050 0.025000
0.988250 0.120050 0.025000
1.000000 0.120050 0.025000
0.000000 0.250100 0.025000
0.137750 0.250100 0.025000
0.279500 0.250100 0.025000
0.421250 0.250100 0.025000
0.563000 0.250100 0.025000
0.704750 0.250100 0.025000
0.846500 0.250100 0.025000
0.988250 0.250100 0.025000
1.000000 0.250100 0.025000
0.000000 0.380150 0.025000
0.137750 0.380150 0.025000
0.279500 0.380150 0.025000
0.421250 0.380150 0.025000
0.563000 0.380150 0.025000
0.704750 0.380150 0.025000
0.846500 0.380150 0.025000
0.988250 0.380150 0.025000
1.000000 0.380150 0.025000
0.000000 0.510200 0.025000
0.137750 0.510200 0.025000
0.279500 0.510200 0.025000
0.421250 0.510200 0.025000
0.563000 0.510200 0.025000
0.704750 0.510200 0.025000
0.846500 0.510200 0.025000
0.988250 0.510200 0.025000
1.000000 0.510200 0.025000
0.000000 0.640250 0.025000
0.137750 0.640250 0.025000
0.279500 0.640250 0.025000
0.421250 0.640250 0.025000
0.563000 0.640250 0.025000
0.704750 0.640250 0.025000
0.846500 0.640250 0.025000
0.988250 0.640250 0.025000
1.000000 0.640250 0.025000
0.000000 0.770300 0.025000
0.137750 0.770300 0.025000
0.279500 0.770300 0.025000
0.421250 0.770300 0.025000
0.563000 0.770300 0.025000
0.704750 0.770300 0.025000
0.846500 0.770300 0.025000
0.988250 0.770300 0.025000
1.000000 0.770300 0.025000
0.000000 0.900350 0.025000
0.137750 0.900350 0.025000
0.279500 0.900350 0.025000
0.421250 0.900350 0.025000
0.563000 0.900350 0.025000
0.704750 0.900350 0.025000
0.846500 0.900350 0.025000
0.988250 0.900350 0.025000
1.000000 0.900350 0.025000
0.000000 1.000000 0.025000
0.137750 1.000000 0.025000
0.279500 1.000000 0.025000
0.421250 1.000000 0.025000
0.563000 1.000000 0.025000
0.704750 1.000000 0.025000
0.846500 1.000000 0.025000
0.988250 1.000000 0.025000
1.000000 1.000000 0.025000
0.000000 0.000000 0.129500
0.137750 0.000000 0.129500
0.279500 0.000000 0.129500
0.421250 0.000000 0.129500
0.563000 0.000000 0.129500
0.704750 0.000000 0.129500
0.846500 0.000000 0.129500
0.988250 0.000000 0.129500
1.000000 0.000000 0.129500
0.000000 0.120050 0.129500
0.137750 0.120050 0.129500
0.279500 0.120050 0.129500
0.421250 0.120050 0.129500
0.563000 0.120050 0.129500
0.704750 0.120050 0.129500
0.846500 0.120050 0.129500
0.988250 0.120050 0.129500
1.000000 0.120050 0.129500
0.000000 0.250100 0.129500
0.137750 0.250100 0.129500
0.279500 0.250100 0.129500
0.421250 0.250100 0.129500
0.563000 0.250100 0.129500
0.704750 0.250100 0.129500
0.846500 0.250100 0.129500
0.988250 0.250100 0.129500
1.000000 0.250100 0.129500
0.000000 0.380150 0.129500
0.137750 0.380150 0.129500
0.279500 0.380150 0.129500
0.421250 0.380150 0.129500
0.563000 0.380150 0.129500
0.704750 0.380150 0.129500
0.846500 0.380150 0.129500
0.988250 0.380150 0.129500
1.000000 0.380150 0.129500
0.000000 0.510200 0.129500
0.137750 0.510200 0.129500
0.279500 0.510200 0.129500
0.421250 0.510200 0.129500
0.563000 0.510200 0.129500
0.704750 0.510200 0.129500
0.846500 0.510200 0.129500
0.988250 0.510200 0.129500
1.000000 0.510200 0.129500
0.000000 0.640250 0.129500
0.137750 0.640250 0.129500
0.279500 0.640250 0.129500
0.421250 0.640250 0.129500
0.563000 0.640250 0.129500
0.704750 0.640250 0.129500
0.846500 0.640250 0.129500
0.988250 0.640250 0.129500
1.000000 0.640250 0.129500
0.000000 0.770300 0.129500
0.137750 0.770300 0.129500
0.279500 0.770300 0.129500
0.421250 0.770300 0.129500
0.563000 0.770300 0.129500
0.704750 0.770300 0.129500
0.846500 0.770300 0.129500
0.988250 0.770300 0.129500
1.000000 0.770300 0.129500
0.000000 0.900350 0.129500
0.137750 0.900350 0.129500
0.279500 0.900350 0.129500
0.421250 0.900350 0.129500
0.563000 0.900350 0.129500
0.704750 0.900350 0.129500
0.846500 0.900350 0.129500
0.988250 0.900350 0.129500
1.000000 0.900350 0.129500
0.000000 1.000000 0.129500
0.137750 1.000000 0.129500
0.279500 1.000000 0.129500
0.421250 1.000000 0.129500
0.563000 1.000000 0.129500
0.704750 1.000000 0.129500
0.846500 1.000000 0.129500
0.988250 1.000000 0.129500
1.000000 1.000000 0.129500
0.000000 0.000000 0.234000
0.137750 0.000000 0.234000
0.279500 0.000000 0.234000
0.421250 0.000000 0.234000
0.563000 0.000000 0.234000
0.704750 0.000000 0.234000
0.846500 0.000000 0.234000
0.988250 0.000000 0.234000
1.000000 0.000000 0.234000
0.000000 0.120050 0.234000
0.137750 0.120050 0.234000
0.279500 0.120050 0.234000
0.421250 0.120050 0.234000
0.563000 0.120050 0.234000
0.704750 0.120050 0.234000
0.846500 0.120050 0.234000
0.988250 0.120050 0.234000
1.000000 0.120050 0.234000
0.000000 0.250100 0.234000
0.137750 0.250100 0.234000
0.279500 0.250100 0.234000
0.421250 0.250100 0.234000
0.563000 0.250100 0.234000
0.704750 0.250100 0.234000
0.846500 0.250100 0.234000
0.988250 0.250100 0.234000
1.000000 0.250100 0.234000
0.000000 0.380150 0.234000
0.137750 0.380150 0.234000
0.279500 0.380150 0.234000
0.421250 0.380150 0.234000
0.563000 0.380150 0.234000
0.704750 0.380150 0.234000
0.846500 0.380150 0.234000
0.988250 0.380150 0.234000
1.000000 0.380150 0.234000
0.000000 0.510200 0.234000
0.137750 0.510200 0.234000
0.279500 0.510200 0.234000
0.421250 0.510200 0.234000
0.563000 0.510200 0.234000
0.704750 0.510200 0.234000
0.846500 0.510200 0.234000
0.988250 0.510200 0.234000
1.000000 0.510200 0.234000
0.000000 0.640250 0.234000
0.137750 0.640250 0.234000
0.279500 0.640250 0.234000
0.421250 0.640250 0.234000
0.563000 0.640250 0.234000
0.704750 0.640250 0.234000
0.846500 0.640250 0.234000
0.988250 0.640250 0.234000
1.000000 0.640250 0.234000
0.000000 0.770300 0.234000
0.137750 0.770300 0.234000
0.279500 0.770300 0.234000
0.421250 0.770300 0.234000
0.563000 0.770300 0.234000
0.704750 0.770300 0.234000
0.846500 0.770300 0.234000
0.988250 0.770300 0.234000
1.000000 0.770300 0.234000
0.000000 0.900350 0.234000
0.137750 0.900350 0.234000
0.279500 0.900350 0.234000
0.421250 0.900350 0.234000
0.563000 0.900350 0.234000
0.704750 0.900350 0.234000
0.846500 0.900350 0.234000
0.988250 0.900350 0.234000
1.000000 0.900350 0.234000
0.000000 1.000000 0.234000
0.137750 1.000000 0.234000
0.279500 1.000000 0.234000
0.421250 1.000000 0.234000
0.563000 1.000000 0.234000
0.704750 1.000000 0.234000
0.846500 1.000000 0.234000
0.988250 1.000000 0.234000
1.000000 1.000000 0.234000
0.000000 0.000000 0.338500
0.137750 0.000000 0.338500
0.279500 0.000000 0.338500
0.421250 0.000000 0.338500
0.563000 0.000000 0.338500
0.704750 0.000000 0.338500
0.846500 0.000000 0.338500
0.988250 0.000000 0.338500
1.000000 0.000000 0.338500
0.000000 0.120050 0.338500
0.137750 0.120050 0.338500
0.279500 0.120050 0.338500
0.421250 0.120050 0.338500
0.563000 0.120050 0.338500
0.704750 0.120050 0.338500
0.846500 0.120050 0.338500
0.988250 0.120050 0.338500
1.000000 0.120050 0.338500
0.000000 0.250100 0.338500
0.137750 0.250100 0.338500
0.279500 0.250100 0.338500
0.421250 0.250100 0.338500
0.563000 0.250100 0.338500
0.704750 0.250100 0.338500
0.846500 0.250100 0.338500
0.988250 0.250100 0.338500
1.000000 0.250100 0.338500
0.000000 0.380150 0.338500
0.137750 0.380150 0.338500
0.279500 0.380150 0.338500
0.421250 0.380150 0.338500
0.563000 0.380150 0.338500
0.704750 0.380150 0.338500
0.846500 0.380150 0.338500
0.988250 0.380150 0.338500
1.000000 0.380150 0.338500
0.000000 0.510200 0.338500
0.137750 0.510200 0.338500
0.279500 0.510200 0.338500
0.421250 0.510200 0.338500
0.563000 0.510200 0.338500
0.704750 0.510200 0.338500
0.846500 0.510200 0.338500
0.988250 0.510200 0.338500
1.000000 0.510200 0.338500
0.000000 0.640250 0.338500
0.137750 0.640250 0.338500
0.279500 0.640250 0.338500
0.421250 0.640250 0.338500
0.563000 0.640250 0.338500
0.704750 0.640250 0.338500
0.846500 0.640250 0.338500
0.988250 0.640250 0.338500
1.000000 0.640250 0.338500
0.000000 0.770300 0.338500
0.137750 0.770300 0.338500
0.279500 0.770300 0.338500
0.421250 0.770300 0.338500
0.563000 0.770300 0.338500
0.704750 0.770300 0.338500
0.846500 0.770300 0.338500
0.988250 0.770300 0.338500
1.000000 0.770300 0.338500
0.000000 0.900350 0.338500
0.137750 0.900350 0.338500
0.279500 0.900350 0.338500
0.421250 0.900350 0.338500
0.563000 0.900350 0.338500
0.704750 0.900350 0.338500
0.846500 0.900350 0.338500
0.988250 0.900350 0.338500
1.000000 0.900350 0.338500
0.000000 1.000000 0.338500
0.137750 1.000000 0.338500
0.279500 1.000000 0.338500
0.421250 1.000000 0.338500
0.563000 1.000000 0.338500
0.704750 1.000000 0.338500
0.846500 1.000000 0.338500
0.988250 1.000000 0.338500
1.000000 1.000000 0.338500
0.000000 0.000000 0.443000
0.137750 0.000000 0.443000
0.279500 0.000000 0.443000
0.421250 0.000000 0.443000
0.563000 0.000000 0.443000
0.704750 0.000000 0.443000
0.846500 0.000000 0.443000
0.988250 0.000000 0.443000
1.000000 0.000000 0.443000
0.000000 0.120050 0.443000
0.137750 0.120050 0.443000
0.279500 0.120050 0.443000
0.421250 0.120050 0.443000
0.563000 0.120050 0.443000
0.704750 0.120050 0.443000
0.846500 0.120050 0.443000
0.988250 0.120050 0.443000
1.000000 0.120050 0.443000
0.000000 0.250100 0.443000
0.137750 0.250100 0.443000
0.279500 0.250100 0.443000
0.421250 0.250100 0.443000
0.563000 0.250100 0.443000
0.704750 0.250100 0.443000
0.846500 0.250100 0.443000
0.988250 0.250100 0.443000
1.000000 0.250100 0.443000
0.000000 0.380150 0.443000
0.137750 0.380150 0.443000
0.279500 0.380150 0.443000
0.421250 0.380150 0.443000
0.563000 0.380150 0.443000
0.704750 0.380150 0.443000
0.846500 0.380150 0.443000
0.988250 0.380150 0.443000
1.000000 0.380150 0.443000
0.000000 0.510200 0.443000
0.137750 0.510200 0.443000
0.279500 0.510200 0.443000
0.421250 0.510200 0.443000
0.563000 0.510200 0.443000
0.704750 0.510200 0.443000
0.846500 0.510200 0.443000
0.988250 0.510200 0.443000
1.000000 0.510200 0.443000
0.000000 0.640250 0.443000
0.137750 0.640250 0.443000
0.279500 0.640250 0.443000
0.421250 0.640250 0.443000
0.563000 0.640250 0.443000
0.704750 0.640250 0.443000
0.846500 0.640250 0.443000
0.988250 0.640250 0.443000
1.000000 0.640250 0.443000
0.000000 0.770300 0.443000
0.137750 0.770300 0.443000
0.279500 0.770300 0.443000
0.421250 0.770300 0.443000
0.563000 0.770300 0.443000
0.704750 0.770300 0.443000
0.846500 0.770300 0.443000
0.988250 0.770300 0.443000
1.000000 0.770300 0.443000
0.000000 0.900350 0.443000
0.137750 0.900350 0.443000
0.279500 0.900350 0.443000
0.421250 0.900350 0.443000
0.563000 0.900350 0.443000
0.704750 0.900350 0.443000
0.846500 0.900350 0.443000
0.988250 0.900350 0.443000
1.000000 0.900350 0.443000
0.000000 1.000000 0.443000
0.137750 1.000000 0.443000
0.279500 1.000000 0.443000
0.421250 1.000000 0.443000
0.563000 1.000000 0.443000
0.704750 1.000000 0.443000
0.846500 1.000000 0.443000
0.988250 1.000000 0.443000
1.000000 1.000000 0.443000
0.000000 0.000000 0.547500
0.137750 0.000000 0.547500
0.279500 0.000000 0.547500
0.421250 0.000000 0.547500
0.563000 0.000000 0.547500
0.704750 0.000000 0.547500
0.846500 0.000000 0.547500
0.988250 0.000000 0.547500
1.000000 0.000000 0.547500
0.000000 0.120050 0.547500
0.137750 0.120050 0.547500
0.279500 0.120050 0.547500
0.421250 0.120050 0.547500
0.563000 0.120050 0.547500
0.704750 0.120050 0.547500
0.846500 0.120050 0.547500
0.988250 0.120050 0.547500
1.000000 0.120050 0.547500
0.000000 0.250100 0.547500
0.137750 0.250100 0.547500
0.279500 0.250100 0.547500
0.421250 0.250100 0.547500
0.563000 0.250100 0.547500
0.704750 0.250100 0.547500
0.846500 0.250100 0.547500
0.988250 0.250100 0.547500
1.000000 0.250100 0.547500
0.000000 0.380150 0.547500
0.137750 0.380150 0.547500
0.279500 0.380150 0.547500
0.421250 0.380150 0.547500
0.563000 0.380150 0.547500
0.704750 0.380150 0.547500
0.846500 0.380150 0.547500
0.988250 0.380150 0.547500
1.000000 0.380150 0.547500
0.000000 0.510200 0.547500
0.137750 0.510200 0.547500
0.279500 0.510200 0.547500
0.421250 0.510200 0.547500
0.563000 0.510200 0.547500
0.704750 0.510200 0.547500
0.846500 0.510200 0.547500
0.988250 0.510200 0.547500
1.000000 0.510200 0.547500
0.000000 0.640250 0.547500
0.137750 0.640250 0.547500
0.279500 0.640250 0.547500
0.421250 0.640250 0.547500
0.563000 0.640250 0.547500
0.704750 0.640250 0.547500
0.846500 0.640250 0.547500
0.988250 0.640250 0.547500
1.000000 0.640250 0.547500
0.000000 0.770300 0.547500
0.137750 0.770300 0.547500
0.279500 0.770300 0.547500
0.421250 0.770300 0.547500
0.563000 0.770300 0.547500
0.704750 0.770300 0.547500
0.846500 0.770300 0.547500
0.988250 0.770300 0.547500
1.000000 0.770300 0.547500
0.000000 0.900350 0.547500
0.137750 0.900350 0.547500
0.279500 0.900350 0.547500
0.421250 0.900350 0.547500
0.563000 0.900350 0.547500
0.704750 0.900350 0.547500
0.846500 0.900350 0.547500
0.988250 0.900350 0.547500
1.000000 0.900350 0.547500
0.000000 1.000000 0.547500
0.137750 1.000000 0.547500
0.279500 1.000000 0.547500
0.421250 1.000000 0.547500
0.563000 1.000000 0.547500
0.704750 1.000000 0.547500
0.846500 1.000000 0.547500
0.988250 1.000000 0.547500
1.000000 1.000000 0.547500
0.000000 0.000000 0.652000
0.137750 0.000000 0.652000
0.279500 0.000000 0.652000
0.421250 0.000000 0.652000
0.563000 0.000000 0.652000
0.704750 0.000000 0.652000
0.846500 0.000000 0.652000
0.988250 0.000000 0.652000
1.000000 0.000000 0.652000
0.000000 0.120050 0.652000
0.137750 0.120050 0.652000
0.279500 0.120050 0.652000
0.421250 0.120050 0.652000
0.563000 0.120050 0.652000
0.704750 0.120050 0.652000
0.846500 0.120050 0.652000
0.988250 0.120050 0.652000
1.000000 0.120050 0.652000
0.000000 0.250100 0.652000
0.137750 0.250100 0.652000
0.279500 0.250100 0.652000
0.421250 0.250100 0.652000
0.563000 0.250100 0.652000
0.704750 0.250100 0.652000
0.846500 0.250100 0.652000
0.988250 0.250100 0.652000
1.000000 0.250100 0.652000
0.000000 0.380150 0.652000
0.137750 0.380150 0.652000
0.279500 0.380150 0.652000
0.421250 0.380150 0.652000
0.563000 0.380150 0.652000
0.704750 0.380150 0.652000
0.846500 0.380150 0.652000
0.988250 0.380150 0.652000
1.000000 0.380150 0.652000
0.000000 0.510200 0.652000
0.137750 0.510200 0.652000
0.279500 0.510200 0.652000
0.421250 0.510200 0.652000
0.563000 0.510200 0.652000
0.704750 0.510200 0.652000
0.846500 0.510200 0.652000
0.988250 0.510200 0.652000
1.000000 0.510200 0.652000
0.000000 0.640250 0.652000
0.137750 0.640250 0.652000
0.279500 0.640250 0.652000
0.421250 0.640250 0.652000
0.563000 0.640250 0.652000
0.704750 0.640250 0.652000
0.846500 0.640250 0.652000
0.988250 0.640250 0.652000
1.000000 0.640250 0.652000
0.000000 0.770300 0.652000
0.137750 0.770300 0.652000
0.279500 0.770300 0.652000
0.421250 0.770300 0.652000
0.563000 0.770300 0.652000
0.704750 0.770300 0.652000
0.846500 0.770300 0.652000
0.988250 0.770300 0.652000
1.000000 0.770300 0.652000
0.000000 0.900350 0.652000
0.137750 0.900350 0.652000
0.279500 0.900350 0.652000
0.421250 0.900350 0.652000
0.563000 0.900350 0.652000
0.704750 0.900350 0.652000
0.846500 0.900350 0.652000
0.988250 0.900350 0.652000
1.000000 0.900350 0.652000
0.000000 1.000000 0.652000
0.137750 1.000000 0.652000
0.279500 1.000000 0.652000
0.421250 1.000000 0.652000
0.563000 1.000000 0.652000
0.704750 1.000000 0.652000
0.846500 1.000000 0.652000
0.988250 1.000000 0.652000
1.000000 1.000000 0.652000
0.000000 0.000000 0.756500
0.137750 0.000000 0.756500
0.279500 0.000000 0.756500
0.421250 0.000000 0.756500
0.563000 0.000000 0.756500
0.704750 0.000000 0.756500
0.846500 0.000000 0.756500
0.988250 0.000000 0.756500
1.000000 0.000000 0.756500
0.000000 0.120050 0.756500
0.137750 0.120050 0.756500
0.279500 0.120050 0.756500
0.421250 0.120050 0.756500
0.563000 0.120050 0.756500
0.704750 0.120050 0.756500
0.846500 0.120050 0.756500
0.988250 0.120050 0.756500
1.000000 0.120050 0.756500
0.000000 0.250100 0.756500
0.137750 0.250100 0.756500
0.279500 0.250100 0.756500
0.421250 0.250100 0.756500
0.563000 0.250100 0.756500
0.704750 0.250100 0.756500
0.846500 0.250100 0.756500
0.988250 0.250100 0.756500
1.000000 0.250100 0.756500
0.000000 0.380150 0.756500
0.137750 0.380150 0.756500
0.279500 0.380150 0.756500
0.421250 0.380150 0.756500
0.563000 0.380150 0.756500
0.704750 0.380150 0.756500
0.846500 0.380150 0.756500
0.988250 0.380150 0.756500
1.000000 0.380150 0.756500
0.000000 0.510200 0.756500
0.137750 0.510200 0.756500
0.279500 0.510200 0.756500
0.421250 0.510200 0.756500
0.563000 0.510200 0.756500
0.704750 0.510200 0.756500
0.846500 0.510200 0.756500
0.988250 0.510200 0.756500
1.000000 0.510200 0.756500
0.000000 0.640250 0.756500
0.137750 0.640250 0.756500
0.279500 0.640250 0.756500
0.421250 0.640250 0.756500
0.563000 0.640250 0.756500
0.704750 0.640250 0.756500
0.846500 0.640250 0.756500
0.988250 0.640250 0.756500
1.000000 0.640250 0.756500
0.000000 0.770300 0.756500
0.137750 0.770300 0.756500
0.279500 0.770300 0.756500
0.421250 0.770300 0.756500
0.563000 0.770300 0.756500
0.704750 0.770300 0.756500
0.846500 0.770300 0.756500
0.988250 0.770300 0.756500
1.000000 0.770300 0.756500
0.000000 0.900350 0.756500
0.137750 0.900350 0.756500
0.279500 0.900350 0.756500
0.421250 0.900350 0.756500
0.563000 0.900350 0.756500
0.704750 0.900350 0.756500
0.846500 0.900350 0.756500
0.988250 0.900350 0.756500
1.000000 0.900350 0.756500
0.000000 1.000000 0.756500
0.137750 1.000000 0.756500
0.279500 1.000000 0.756500
0.421250 1.000000 0.756500
0.563000 1.000000 0.756500
0.704750 1.000000 0.756500
0.846500 1.000000 0.756500
0.988250 1.000000 0.756500
1.000000 1.000000 0.756500
0.000000 0.000000 0.861000
0.137750 0.000000 0.861000
0.279500 0.000000 0.861000
0.421250 0.000000 0.861000
0.563000 0.000000 0.861000
0.704750 0.000000 0.861000
0.846500 0.000000 0.861000
0.988250 0.000000 0.861000
1.000000 0.000000 0.861000
0.000000 0.120050 0.861000
0.137750 0.120050 0.861000
0.279500 0.120050 0.861000
0.421250 0.120050 0.861000
0.563000 0.120050 0.861000
0.704750 0.120050 0.861000
0.846500 0.120050 0.861000
0.988250 0.120050 0.861000
1.000000 0.120050 0.861000
0.000000 0.250100 0.861000
0.137750 0.250100 0.861000
0.279500 0.250100 0.861000
0.421250 0.250100 0.861000
0.563000 0.250100 0.861000
0.704750 0.250100 0.861000
0.846500 0.250100 0.861000
0.988250 0.250100 0.861000
1.000000 0.250100 0.861000
0.000000 0.380150 0.861000
0.137750 0.380150 0.861000
0.279500 0.380150 0.861000
0.421250 0.380150 0.861000
0.563000 0.380150 0.861000
0.704750 0.380150 0.861000
0.846500 0.380150 0.861000
0.988250 0.380150 0.861000
1.000000 0.380150 0.861000
0.000000 0.510200 0.861000
0.137750 0.510200 0.861000
0.279500 0.510200 0.861000
0.421250 0.510200 0.861000
0.563000 0.510200 0.861000
0.704750 0.510200 0.861000
0.846500 0.510200 0.861000
0.988250 0.510200 0.861000
1.000000 0.510200 0.861000
0.000000 0.640250 0.861000
0.137750 0.640250 0.861000
0.279500 0.640250 0.861000
0.421250 0.640250 0.861000
0.563000 0.640250 0.861000
0.704750 0.640250 0.861000
0.846500 0.640250 0.861000
0.988250 0.640250 0.861000
1.000000 0.640250 0.861000
0.000000 0.770300 0.861000
0.137750 0.770300 0.861000
0.279500 0.770300 0.861000
0.421250 0.770300 0.861000
0.563000 0.770300 0.861000
0.704750 0.770300 0.861000
0.846500 0.770300 0.861000
0.988250 0.770300 0.861000
1.000000 0.770300 0.861000
0.000000 0.900350 0.861000
0.137750 0.900350 0.861000
0.279500 0.900350 0.861000
0.421250 0.900350 0.861000
0.563000 0.900350 0.861000
0.704750 0.900350 0.861000
0.846500 0.900350 0.861000
0.988250 0.900350 0.861000
1.000000 0.900350 0.861000
0.000000 1.000000 0.861000
0.137750 1.000000 0.861000
0.279500 1.000000 0.861000
0.421250 1.000000 0.861000
0.563000 1.000000 0.861000
0.704750 1.000000 0.861000
0.846500 1.000000 0.861000
0.988250 1.000000 0.861000
1.000000 1.000000 0.861000
