assets/luts/warm_vlog.cube
TITLE "Warm Vlog"
LUT_3D_SIZE 5
DOMAIN_MIN 0.0 0.0 0.0
DOMAIN_MAX 1.0 1.0 1.0
0.000000 0.000000 0.025000
0.279500 0.000000 0.025000
0.563000 0.000000 0.025000
0.846500 0.000000 0.025000
1.000000 0.000000 0.025000
0.000000 0.250100 0.025000
0.279500 0.250100 0.025000
0.563000 0.250100 0.025000
0.846500 0.250100 0.025000
1.000000 0.250100 0.025000
0.000000 0.510200 0.025000
0.279500 0.510200 0.025000
0.563000 0.510200 0.025000
0.846500 0.510200 0.025000
1.000000 0.510200 0.025000
0.000000 0.770300 0.025000
0.279500 0.770300 0.025000
0.563000 0.770300 0.025000
0.846500 0.770300 0.025000
1.000000 0.770300 0.025000
0.000000 1.000000 0.025000
0.279500 1.000000 0.025000
0.563000 1.000000 0.025000
0.846500 1.000000 0.025000
1.000000 1.000000 0.025000
0.000000 0.000000 0.234000
0.279500 0.000000 0.234000
0.563000 0.000000 0.234000
0.846500 0.000000 0.234000
1.000000 0.000000 0.234000
0.000000 0.250100 0.234000
0.279500 0.250100 0.234000
0.563000 0.250100 0.234000
0.846500 0.250100 0.234000
1.000000 0.250100 0.234000
0.000000 0.510200 0.234000
0.279500 0.510200 0.234000
0.563000 0.510200 0.234000
0.846500 0.510200 0.234000
1.000000 0.510200 0.234000
0.000000 0.770300 0.234000
0.279500 0.770300 0.234000
0.563000 0.770300 0.234000
0.846500 0.770300 0.234000
1.000000 0.770300 0.234000
0.000000 1.000000 0.234000
0.279500 1.000000 0.234000
0.563000 1.000000 0.234000
0.846500 1.000000 0.234000
1.000000 1.000000 0.234000
0.000000 0.000000 0.443000
0.279500 0.000000 0.443000
0.563000 0.000000 0.443000
0.846500 0.000000 0.443000
1.000000 0.000000 0.443000
0.000000 0.250100 0.443000
0.279500 0.250100 0.443000
0.563000 0.250100 0.443000
0.846500 0.250100 0.443000
1.000000 0.250100 0.443000
0.000000 0.510200 0.443000
0.279500 0.510200 0.443000
0.563000 0.510200 0.443000
0.846500 0.510200 0.443000
1.000000 0.510200 0.443000
0.000000 0.770300 0.443000
0.279500 0.770300 0.443000
0.563000 0.770300 0.443000
0.846500 0.770300 0.443000
1.000000 0.770300 0.443000
0.000000 1.000000 0.443000
0.279500 1.000000 0.443000
0.563000 1.000000 0.443000
0.846500 1.000000 0.443000
1.000000 1.000000 0.443000
0.000000 0.000000 0.652000
0.279500 0.000000 0.652000
0.563000 0.000000 0.652000
0.846500 0.000000 0.652000
1.000000 0.000000 0.652000
0.000000 0.250100 0.652000
0.279500 0.250100 0.652000
0.563000 0.250100 0.652000
0.846500 0.250100 0.652000
1.000000 0.250100 0.652000
0.000000 0.510200 0.652000
0.279500 0.510200 0.652000
0.563000 0.510200 0.652000
0.846500 0.510200 0.652000
1.000000 0.510200 0.652000
0.000000 0.770300 0.652000
0.279500 0.770300 0.652000
0.563000 0.770300 0.652000
0.846500 0.770300 0.652000
1.000000 0.770300 0.652000
0.000000 1.000000 0.652000
0.279500 1.000000 0.652000
0.563000 1.000000 0.652000
0.846500 1.000000 0.652000
1.000000 1.000000 0.652000
0.000000 0.000000 0.861000
0.279500 0.000000 0.861000
0.563000 0.000000 0.861000
0.846500 0.000000 0.861000
1.000000 0.000000 0.861000
0.000000 0.250100 0.861000
0.279500 0.250100 0.861000
0.563000 0.250100 0.861000
0.846500 0.250100 0.861000
1.000000 0.250100 0.861000
0.000000 0.510200 0.861000
0.279500 0.510200 0.861000
0.563000 0.510200 0.861000
0.846500 0.510200 0.861000
1.000000 0.510200 0.861000
0.000000 0.770300 0.861000
0.279500 0.770300 0.861000
0.563000 0.770300 0.861000
0.846500 0.770300 0.861000
1.000000 0.770300 0.861000
0.000000 1.000000 0.861000
0.279500 1.000000 0.861000
0.563000 1.000000 0.861000
0.846500 1.000000 0.861000
1.000000 1.000000 0.861000
