assets/luts/warm_vlog.cube
TITLE "Warm Vlog"
LUT_3D_SIZE 17
DOMAIN_MIN 0.0 0.0 0.0
DOMAIN_MAX 1.0 1.0 1.0
0.000000 0.000000 0.025000
0.066875 0.000000 0.025000
0.137750 0.000000 0.025000
0.208625 0.000000 0.025000
0.279500 0.000000 0.025000
0.350375 0.000000 0.025000
0.421250 0.000000 0.025000
0.492125 0.000000 0.025000
0.563000 0.000000 0.025000
0.633875 0.000000 0.025000
0.704750 0.000000 0.025000
0.775625 0.000000 0.025000
0.846500 0.000000 0.025000
0.917375 0.000000 0.025000
0.988250 0.000000 0.025000
1.000000 0.000000 0.025000
1.000000 0.000000 0.025000
0.000000 0.055025 0.025000
0.066875 0.055025 0.025000
0.137750 0.055025 0.025000
0.208625 0.055025 0.025000
0.279500 0.055025 0.025000
0.350375 0.055025 0.025000
0.421250 0.055025 0.025000
0.492125 0.055025 0.025000
0.563000 0.055025 0.025000
0.633875 0.055025 0.025000
0.704750 0.055025 0.025000
0.775625 0.055025 0.025000
0.846500 0.055025 0.025000
0.917375 0.055025 0.025000
0.988250 0.055025 0.025000
1.000000 0.055025 0.025000
1.000000 0.055025 0.025000
0.000000 0.120050 0.025000
0.066875 0.120050 0.025000
0.137750 0.120050 0.025000
0.208625 0.120050 0.025000
0.279500 0.120050 0.025000
0.350375 0.120050 0.025000
0.421250 0.120050 0.025000
0.492125 0.120050 0.025000
0.563000 0.120050 0.025000
0.633875 0.120050 0.025000
0.704750 0.120050 0.025000
0.775625 0.120050 0.025000
0.846500 0.120050 0.025000
0.917375 0.120050 0.025000
0.988250 0.120050 0.025000
1.000000 0.120050 0.025000
1.000000 0.120050 0.025000
0.000000 0.185075 0.025000
0.066875 0.185075 0.025000
0.137750 0.185075 0.025000
0.208625 0.185075 0.025000
0.279500 0.185075 0.025000
0.350375 0.185075 0.025000
0.421250 0.185075 0.025000
0.492125 0.185075 0.025000
0.563000 0.185075 0.025000
0.633875 0.185075 0.025000
0.704750 0.185075 0.025000
0.775625 0.185075 0.025000
0.846500 0.185075 0.025000
0.917375 0.185075 0.025000
0.988250 0.185075 0.025000
1.000000 0.185075 0.025000
1.000000 0.185075 0.025000
0.000000 0.250100 0.025000
0.066875 0.250100 0.025000
0.137750 0.250100 0.025000
0.208625 0.250100 0.025000
0.279500 0.250100 0.025000
0.350375 0.250100 0.025000
0.421250 0.250100 0.025000
0.492125 0.250100 0.025000
0.563000 0.250100 0.025000
0.633875 0.250100 0.025000
0.704750 0.250100 0.025000
0.775625 0.250100 0.025000
0.846500 0.250100 0.025000
0.917375 0.250100 0.025000
0.988250 0.250100 0.025000
1.000000 0.250100 0.025000
1.000000 0.250100 0.025000
0.000000 0.315125 0.025000
0.066875 0.315125 0.025000
0.137750 0.315125 0.025000
0.208625 0.315125 0.025000
0.279500 0.315125 0.025000
0.350375 0.315125 0.025000
0.421250 0.315125 0.025000
0.492125 0.315125 0.025000
0.563000 0.315125 0.025000
0.633875 0.315125 0.025000
0.704750 0.315125 0.025000
0.775625 0.315125 0.025000
0.846500 0.315125 0.025000
0.917375 0.315125 0.025000
0.988250 0.315125 0.025000
1.000000 0.315125 0.025000
1.000000 0.315125 0.025000
0.000000 0.380150 0.025000
0.066875 0.380150 0.025000
0.137750 0.380150 0.025000
0.208625 0.380150 0.025000
0.279500 0.380150 0.025000
0.350375 0.380150 0.025000
0.421250 0.380150 0.025000
0.492125 0.380150 0.025000
0.563000 0.380150 0.025000
0.633875 0.380150 0.025000
0.704750 0.380150 0.025000
0.775625 0.380150 0.025000
0.846500 0.380150 0.025000
0.917375 0.380150 0.025000
0.988250 0.380150 0.025000
1.000000 0.380150 0.025000
1.000000 0.380150 0.025000
0.000000 0.445175 0.025000
0.066875 0.445175 0.025000
0.137750 0.445175 0.025000
0.208625 0.445175 0.025000
0.279500 0.445175 0.025000
0.350375 0.445175 0.025000
0.421250 0.445175 0.025000
0.492125 0.445175 0.025000
0.563000 0.445175 0.025000
0.633875 0.445175 0.025000
0.704750 0.445175 0.025000
0.775625 0.445175 0.025000
0.846500 0.445175 0.025000
0.917375 0.445175 0.025000
0.988250 0.445175 0.025000
1.000000 0.445175 0.025000
1.000000 0.445175 0.025000
0.000000 0.510200 0.025000
0.066875 0.510200 0.025000
0.137750 0.510200 0.025000
0.208625 0.510200 0.025000
0.279500 0.510200 0.025000
0.350375 0.510200 0.025000
0.421250 0.510200 0.025000
0.492125 0.510200 0.025000
0.563000 0.510200 0.025000
0.633875 0.510200 0.025000
0.704750 0.510200 0.025000
0.775625 0.510200 0.025000
0.846500 0.510200 0.025000
0.917375 0.510200 0.025000
0.988250 0.510200 0.025000
1.000000 0.510200 0.025000
1.000000 0.510200 0.025000
0.000000 0.575225 0.025000
0.066875 0.575225 0.025000
0.137750 0.575225 0.025000
0.208625 0.575225 0.025000
0.279500 0.575225 0.025000
0.350375 0.575225 0.025000
0.421250 0.575225 0.025000
0.492125 0.575225 0.025000
0.563000 0.575225 0.025000
0.633875 0.575225 0.025000
0.704750 0.575225 0.025000
0.775625 0.575225 0.025000
0.846500 0.575225 0.025000
0.917375 0.575225 0.025000
0.988250 0.575225 0.025000
1.000000 0.575225 0.025000
1.000000 0.575225 0.025000
0.000000 0.640250 0.025000
0.066875 0.640250 0.025000
0.137750 0.640250 0.025000
0.208625 0.640250 0.025000
0.279500 0.640250 0.025000
0.350375 0.640250 0.025000
0.421250 0.640250 0.025000
0.492125 0.640250 0.025000
0.563000 0.640250 0.025000
0.633875 0.640250 0.025000
0.704750 0.640250 0.025000
0.775625 0.640250 0.025000
0.846500 0.640250 0.025000
0.917375 0.640250 0.025000
0.988250 0.640250 0.025000
1.000000 0.640250 0.025000
1.000000 0.640250 0.025000
0.000000 0.705275 0.025000
0.066875 0.705275 0.025000
0.137750 0.705275 0.025000
0.208625 0.705275 0.025000
0.279500 0.705275 0.025000
0.350375 0.705275 0.025000
0.421250 0.705275 0.025000
0.492125 0.705275 0.025000
0.563000 0.705275 0.025000
0.633875 0.705275 0.025000
0.704750 0.705275 0.025000
0.775625 0.705275 0.025000
0.846500 0.705275 0.025000
0.917375 0.705275 0.025000
0.988250 0.705275 0.025000
1.000000 0.705275 0.025000
1.000000 0.705275 0.025000
0.000000 0.770300 0.025000
0.066875 0.770300 0.025000
0.137750 0.770300 0.025000
0.208625 0.770300 0.025000
0.279500 0.770300 0.025000
0.350375 0.770300 0.025000
0.421250 0.770300 0.025000
0.492125 0.770300 0.025000
0.563000 0.770300 0.025000
0.633875 0.770300 0.025000
0.704750 0.770300 0.025000
0.775625 0.770300 0.025000
0.846500 0.770300 0.025000
0.917375 0.770300 0.025000
0.988250 0.770300 0.025000
1.000000 0.770300 0.025000
1.000000 0.770300 0.025000
0.000000 0.835325 0.025000
0.066875 0.835325 0.025000
0.137750 0.835325 0.025000
0.208625 0.835325 0.025000
0.279500 0.835325 0.025000
0.350375 0.835325 0.025000
0.421250 0.835325 0.025000
0.492125 0.835325 0.025000
0.563000 0.835325 0.025000
0.633875 0.835325 0.025000
0.704750 0.835325 0.025000
0.775625 0.835325 0.025000
0.846500 0.835325 0.025000
0.917375 0.835325 0.025000
0.988250 0.835325 0.025000
1.000000 0.835325 0.025000
1.000000 0.835325 0.025000
0.000000 0.900350 0.025000
0.066875 0.900350 0.025000
0.137750 0.900350 0.025000
0.208625 0.900350 0.025000
0.279500 0.900350 0.025000
0.350375 0.900350 0.025000
0.421250 0.900350 0.025000
0.492125 0.900350 0.025000
0.563000 0.900350 0.025000
0.633875 0.900350 0.025000
0.704750 0.900350 0.025000
0.775625 0.900350 0.025000
0.846500 0.900350 0.025000
0.917375 0.900350 0.025000
0.988250 0.900350 0.025000
1.000000 0.900350 0.025000
1.000000 0.900350 0.025000
0.000000 0.965375 0.025000
0.066875 0.965375 0.025000
0.137750 0.965375 0.025000
0.208625 0.965375 0.025000
0.279500 0.965375 0.025000
0.350375 0.965375 0.025000
0.421250 0.965375 0.025000
0.492125 0.965375 0.025000
0.563000 0.965375 0.025000
0.633875 0.965375 0.025000
0.704750 0.965375 0.025000
0.775625 0.965375 0.025000
0.846500 0.965375 0.025000
0.917375 0.965375 0.025000
0.988250 0.965375 0.025000
1.000000 0.965375 0.025000
1.000000 0.965375 0.025000
0.000000 1.000000 0.025000
0.066875 1.000000 0.025000
0.137750 1.000000 0.025000
0.208625 1.000000 0.025000
0.279500 1.000000 0.025000
0.350375 1.000000 0.025000
0.421250 1.000000 0.025000
0.492125 1.000000 0.025000
0.563000 1.000000 0.025000
0.633875 1.000000 0.025000
0.704750 1.000000 0.025000
0.775625 1.000000 0.025000
0.846500 1.000000 0.025000
0.917375 1.000000 0.025000
0.988250 1.000000 0.025000
1.000000 1.000000 0.025000
1.000000 1.000000 0.025000
0.000000 0.000000 0.077250
0.066875 0.000000 0.077250
0.137750 0.000000 0.077250
0.208625 0.000000 0.077250
0.279500 0.000000 0.077250
0.350375 0.000000 0.077250
0.421250 0.000000 0.077250
0.492125 0.000000 0.077250
0.563000 0.000000 0.077250
0.633875 0.000000 0.077250
0.704750 0.000000 0.077250
0.775625 0.000000 0.077250
0.846500 0.000000 0.077250
0.917375 0.000000 0.077250
0.988250 0.000000 0.077250
1.000000 0.000000 0.077250
1.000000 0.000000 0.077250
0.000000 0.055025 0.077250
0.066875 0.055025 0.077250
0.137750 0.055025 0.077250
0.208625 0.055025 0.077250
0.279500 0.055025 0.077250
0.350375 0.055025 0.077250
0.421250 0.055025 0.077250
0.492125 0.055025 0.077250
0.563000 0.055025 0.077250
0.633875 0.055025 0.077250
0.704750 0.055025 0.077250
0.775625 0.055025 0.077250
0.846500 0.055025 0.077250
0.917375 0.055025 0.077250
0.988250 0.055025 0.077250
1.000000 0.055025 0.077250
1.000000 0.055025 0.077250
0.000000 0.120050 0.077250
0.066875 0.120050 0.077250
0.137750 0.120050 0.077250
0.208625 0.120050 0.077250
0.279500 0.120050 0.077250
0.350375 0.120050 0.077250
0.421250 0.120050 0.077250
0.492125 0.120050 0.077250
0.563000 0.120050 0.077250
0.633875 0.120050 0.077250
0.704750 0.120050 0.077250
0.775625 0.120050 0.077250
0.846500 0.120050 0.077250
0.917375 0.120050 0.077250
0.988250 0.120050 0.077250
1.000000 0.120050 0.077250
1.000000 0.120050 0.077250
0.000000 0.185075 0.077250
0.066875 0.185075 0.077250
0.137750 0.185075 0.077250
0.208625 0.185075 0.077250
0.279500 0.185075 0.077250
0.350375 0.185075 0.077250
0.421250 0.185075 0.077250
0.492125 0.185075 0.077250
0.563000 0.185075 0.077250
0.633875 0.185075 0.077250
0.704750 0.185075 0.077250
0.775625 0.185075 0.077250
0.846500 0.185075 0.077250
0.917375 0.185075 0.077250
0.988250 0.185075 0.077250
1.000000 0.185075 0.077250
1.000000 0.185075 0.077250
0.000000 0.250100 0.077250
0.066875 0.250100 0.077250
0.137750 0.250100 0.077250
0.208625 0.250100 0.077250
0.279500 0.250100 0.077250
0.350375 0.250100 0.077250
0.421250 0.250100 0.077250
0.492125 0.250100 0.077250
0.563000 0.250100 0.077250
0.633875 0.250100 0.077250
0.704750 0.250100 0.077250
0.775625 0.250100 0.077250
0.846500 0.250100 0.077250
0.917375 0.250100 0.077250
0.988250 0.250100 0.077250
1.000000 0.250100 0.077250
1.000000 0.250100 0.077250
0.000000 0.315125 0.077250
0.066875 0.315125 0.077250
0.137750 0.315125 0.077250
0.208625 0.315125 0.077250
0.279500 0.315125 0.077250
0.350375 0.315125 0.077250
0.421250 0.315125 0.077250
0.492125 0.315125 0.077250
0.563000 0.315125 0.077250
0.633875 0.315125 0.077250
0.704750 0.315125 0.077250
0.775625 0.315125 0.077250
0.846500 0.315125 0.077250
0.917375 0.315125 0.077250
0.988250 0.315125 0.077250
1.000000 0.315125 0.077250
1.000000 0.315125 0.077250
0.000000 0.380150 0.077250
0.066875 0.380150 0.077250
0.137750 0.380150 0.077250
0.208625 0.380150 0.077250
0.279500 0.380150 0.077250
0.350375 0.380150 0.077250
0.421250 0.380150 0.077250
0.492125 0.380150 0.077250
0.563000 0.380150 0.077250
0.633875 0.380150 0.077250
0.704750 0.380150 0.077250
0.775625 0.380150 0.077250
0.846500 0.380150 0.077250
0.917375 0.380150 0.077250
0.988250 0.380150 0.077250
1.000000 0.380150 0.077250
1.000000 0.380150 0.077250
0.000000 0.445175 0.077250
0.066875 0.445175 0.077250
0.137750 0.445175 0.077250
0.208625 0.445175 0.077250
0.279500 0.445175 0.077250
0.350375 0.445175 0.077250
0.421250 0.445175 0.077250
0.492125 0.445175 0.077250
0.563000 0.445175 0.077250
0.633875 0.445175 0.077250
0.704750 0.445175 0.077250
0.775625 0.445175 0.077250
0.846500 0.445175 0.077250
0.917375 0.445175 0.077250
0.988250 0.445175 0.077250
1.000000 0.445175 0.077250
1.000000 0.445175 0.077250
0.000000 0.510200 0.077250
0.066875 0.510200 0.077250
0.137750 0.510200 0.077250
0.208625 0.510200 0.077250
0.279500 0.510200 0.077250
0.350375 0.510200 0.077250
0.421250 0.510200 0.077250
0.492125 0.510200 0.077250
0.563000 0.510200 0.077250
0.633875 0.510200 0.077250
0.704750 0.510200 0.077250
0.775625 0.510200 0.077250
0.846500 0.510200 0.077250
0.917375 0.510200 0.077250
0.988250 0.510200 0.077250
1.000000 0.510200 0.077250
1.000000 0.510200 0.077250
0.000000 0.575225 0.077250
0.066875 0.575225 0.077250
0.137750 0.575225 0.077250
0.208625 0.575225 0.077250
0.279500 0.575225 0.077250
0.350375 0.575225 0.077250
0.421250 0.575225 0.077250
0.492125 0.575225 0.077250
0.563000 0.575225 0.077250
0.633875 0.575225 0.077250
0.704750 0.575225 0.077250
0.775625 0.575225 0.077250
0.846500 0.575225 0.077250
0.917375 0.575225 0.077250
0.988250 0.575225 0.077250
1.000000 0.575225 0.077250
1.000000 0.575225 0.077250
0.000000 0.640250 0.077250
0.066875 0.640250 0.077250
0.137750 0.640250 0.077250
0.208625 0.640250 0.077250
0.279500 0.640250 0.077250
0.350375 0.640250 0.077250
0.421250 0.640250 0.077250
0.492125 0.640250 0.077250
0.563000 0.640250 0.077250
0.633875 0.640250 0.077250
0.704750 0.640250 0.077250
0.775625 0.640250 0.077250
0.846500 0.640250 0.077250
0.917375 0.640250 0.077250
0.988250 0.640250 0.077250
1.000000 0.640250 0.077250
1.000000 0.640250 0.077250
0.000000 0.705275 0.077250
0.066875 0.705275 0.077250
0.137750 0.705275 0.077250
0.208625 0.705275 0.077250
0.279500 0.705275 0.077250
0.350375 0.705275 0.077250
0.421250 0.705275 0.077250
0.492125 0.705275 0.077250
0.563000 0.705275 0.077250
0.633875 0.705275 0.077250
0.704750 0.705275 0.077250
0.775625 0.705275 0.077250
0.846500 0.705275 0.077250
0.917375 0.705275 0.077250
0.988250 0.705275 0.077250
1.000000 0.705275 0.077250
1.000000 0.705275 0.077250
0.000000 0.770300 0.077250
0.066875 0.770300 0.077250
0.137750 0.770300 0.077250
0.208625 0.770300 0.077250
0.279500 0.770300 0.077250
0.350375 0.770300 0.077250
0.421250 0.770300 0.077250
0.492125 0.770300 0.077250
0.563000 0.770300 0.077250
0.633875 0.770300 0.077250
0.704750 0.770300 0.077250
0.775625 0.770300 0.077250
0.846500 0.770300 0.077250
0.917375 0.770300 0.077250
0.988250 0.770300 0.077250
1.000000 0.770300 0.077250
1.000000 0.770300 0.077250
0.000000 0.835325 0.077250
0.066875 0.835325 0.077250
0.137750 0.835325 0.077250
0.208625 0.835325 0.077250
0.279500 0.835325 0.077250
0.350375 0.835325 0.077250
0.421250 0.835325 0.077250
0.492125 0.835325 0.077250
0.563000 0.835325 0.077250
0.633875 0.835325 0.077250
0.704750 0.835325 0.077250
0.775625 0.835325 0.077250
0.846500 0.835325 0.077250
0.917375 0.835325 0.077250
0.988250 0.835325 0.077250
1.000000 0.835325 0.077250
1.000000 0.835325 0.077250
0.000000 0.900350 0.077250
0.066875 0.900350 0.077250
0.137750 0.900350 0.077250
0.208625 0.900350 0.077250
0.279500 0.900350 0.077250
0.350375 0.900350 0.077250
0.421250 0.900350 0.077250
0.492125 0.900350 0.077250
0.563000 0.900350 0.077250
0.633875 0.900350 0.077250
0.704750 0.900350 0.077250
0.775625 0.900350 0.077250
0.846500 0.900350 0.077250
0.917375 0.900350 0.077250
0.988250 0.900350 0.077250
1.000000 0.900350 0.077250
1.000000 0.900350 0.077250
0.000000 0.965375 0.077250
0.066875 0.965375 0.077250
0.137750 0.965375 0.077250
0.208625 0.965375 0.077250
0.279500 0.965375 0.077250
0.350375 0.965375 0.077250
0.421250 0.965375 0.077250
0.492125 0.965375 0.077250
0.563000 0.965375 0.077250
0.633875 0.965375 0.077250
0.704750 0.965375 0.077250
0.775625 0.965375 0.077250
0.846500 0.965375 0.077250
0.917375 0.965375 0.077250
0.988250 0.965375 0.077250
1.000000 0.965375 0.077250
1.000000 0.965375 0.077250
0.000000 1.000000 0.077250
0.066875 1.000000 0.077250
0.137750 1.000000 0.077250
0.208625 1.000000 0.077250
0.279500 1.000000 0.077250
0.350375 1.000000 0.077250
0.421250 1.000000 0.077250
0.492125 1.000000 0.077250
0.563000 1.000000 0.077250
0.633875 1.000000 0.077250
0.704750 1.000000 0.077250
0.775625 1.000000 0.077250
0.846500 1.000000 0.077250
0.917375 1.000000 0.077250
0.988250 1.000000 0.077250
1.000000 1.000000 0.077250
1.000000 1.000000 0.077250
0.000000 0.000000 0.129500
0.066875 0.000000 0.129500
0.137750 0.000000 0.129500
0.208625 0.000000 0.129500
0.279500 0.000000 0.129500
0.350375 0.000000 0.129500
0.421250 0.000000 0.129500
0.492125 0.000000 0.129500
0.563000 0.000000 0.129500
0.633875 0.000000 0.129500
0.704750 0.000000 0.129500
0.775625 0.000000 0.129500
0.846500 0.000000 0.129500
0.917375 0.000000 0.129500
0.988250 0.000000 0.129500
1.000000 0.000000 0.129500
1.000000 0.000000 0.129500
0.000000 0.055025 0.129500
0.066875 0.055025 0.129500
0.137750 0.055025 0.129500
0.208625 0.055025 0.129500
0.279500 0.055025 0.129500
0.350375 0.055025 0.129500
0.421250 0.055025 0.129500
0.492125 0.055025 0.129500
0.563000 0.055025 0.129500
0.633875 0.055025 0.129500
0.704750 0.055025 0.129500
0.775625 0.055025 0.129500
0.846500 0.055025 0.129500
0.917375 0.055025 0.129500
0.988250 0.055025 0.129500
1.000000 0.055025 0.129500
1.000000 0.055025 0.129500
0.000000 0.120050 0.129500
0.066875 0.120050 0.129500
0.137750 0.120050 0.129500
0.208625 0.120050 0.129500
0.279500 0.120050 0.129500
0.350375 0.120050 0.129500
0.421250 0.120050 0.129500
0.492125 0.120050 0.129500
0.563000 0.120050 0.129500
0.633875 0.120050 0.129500
0.704750 0.120050 0.129500
0.775625 0.120050 0.129500
0.846500 0.120050 0.129500
0.917375 0.120050 0.129500
0.988250 0.120050 0.129500
1.000000 0.120050 0.129500
1.000000 0.120050 0.129500
0.000000 0.185075 0.129500
0.066875 0.185075 0.129500
0.137750 0.185075 0.129500
0.208625 0.185075 0.129500
0.279500 0.185075 0.129500
0.350375 0.185075 0.129500
0.421250 0.185075 0.129500
0.492125 0.185075 0.129500
0.563000 0.185075 0.129500
0.633875 0.185075 0.129500
0.704750 0.185075 0.129500
0.775625 0.185075 0.129500
0.846500 0.185075 0.129500
0.917375 0.185075 0.129500
0.988250 0.185075 0.129500
1.000000 0.185075 0.129500
1.000000 0.185075 0.129500
0.000000 0.250100 0.129500
0.066875 0.250100 0.129500
0.137750 0.250100 0.129500
0.208625 0.250100 0.129500
0.279500 0.250100 0.129500
0.350375 0.250100 0.129500
0.421250 0.250100 0.129500
0.492125 0.250100 0.129500
0.563000 0.250100 0.129500
0.633875 0.250100 0.129500
0.704750 0.250100 0.129500
0.775625 0.250100 0.129500
0.846500 0.250100 0.129500
0.917375 0.250100 0.129500
0.988250 0.250100 0.129500
1.000000 0.250100 0.129500
1.000000 0.250100 0.129500
0.000000 0.315125 0.129500
0.066875 0.315125 0.129500
0.137750 0.315125 0.129500
0.208625 0.315125 0.129500
0.279500 0.315125 0.129500
0.350375 0.315125 0.129500
0.421250 0.315125 0.129500
0.492125 0.315125 0.129500
0.563000 0.315125 0.129500
0.633875 0.315125 0.129500
0.704750 0.315125 0.129500
0.775625 0.315125 0.129500
0.846500 0.315125 0.129500
0.917375 0.315125 0.129500
0.988250 0.315125 0.129500
1.000000 0.315125 0.129500
1.000000 0.315125 0.129500
0.000000 0.380150 0.129500
0.066875 0.380150 0.129500
0.137750 0.380150 0.129500
0.208625 0.380150 0.129500
0.279500 0.380150 0.129500
0.350375 0.380150 0.129500
0.421250 0.380150 0.129500
0.492125 0.380150 0.129500
0.563000 0.380150 0.129500
0.633875 0.380150 0.129500
0.704750 0.380150 0.129500
0.775625 0.380150 0.129500
0.846500 0.380150 0.129500
0.917375 0.380150 0.129500
0.988250 0.380150 0.129500
1.000000 0.380150 0.129500
1.000000 0.380150 0.129500
0.000000 0.445175 0.129500
0.066875 0.445175 0.129500
0.137750 0.445175 0.129500
0.208625 0.445175 0.129500
0.279500 0.445175 0.129500
0.350375 0.445175 0.129500
0.421250 0.445175 0.129500
0.492125 0.445175 0.129500
0.563000 0.445175 0.129500
0.633875 0.445175 0.129500
0.704750 0.445175 0.129500
0.775625 0.445175 0.129500
0.846500 0.445175 0.129500
0.917375 0.445175 0.129500
0.988250 0.445175 0.129500
1.000000 0.445175 0.129500
1.000000 0.445175 0.129500
0.000000 0.510200 0.129500
0.066875 0.510200 0.129500
0.137750 0.510200 0.129500
0.208625 0.510200 0.129500
0.279500 0.510200 0.129500
0.350375 0.510200 0.129500
0.421250 0.510200 0.129500
0.492125 0.510200 0.129500
0.563000 0.510200 0.129500
0.633875 0.510200 0.129500
0.704750 0.510200 0.129500
0.775625 0.510200 0.129500
0.846500 0.510200 0.129500
0.917375 0.510200 0.129500
0.988250 0.510200 0.129500
1.000000 0.510200 0.129500
1.000000 0.510200 0.129500
0.000000 0.575225 0.129500
0.066875 0.575225 0.129500
0.137750 0.575225 0.129500
0.208625 0.575225 0.129500
0.279500 0.575225 0.129500
0.350375 0.575225 0.129500
0.421250 0.575225 0.129500
0.492125 0.575225 0.129500
0.563000 0.575225 0.129500
0.633875 0.575225 0.129500
0.704750 0.575225 0.129500
0.775625 0.575225 0.129500
0.846500 0.575225 0.129500
0.917375 0.575225 0.129500
0.988250 0.575225 0.129500
1.000000 0.575225 0.129500
1.000000 0.575225 0.129500
0.000000 0.640250 0.129500
0.066875 0.640250 0.129500
0.137750 0.640250 0.129500
0.208625 0.640250 0.129500
0.279500 0.640250 0.129500
0.350375 0.640250 0.129500
0.421250 0.640250 0.129500
0.492125 0.640250 0.129500
0.563000 0.640250 0.129500
0.633875 0.640250 0.129500
0.704750 0.640250 0.129500
0.775625 0.640250 0.129500
0.846500 0.640250 0.129500
0.917375 0.640250 0.129500
0.988250 0.640250 0.129500
1.000000 0.640250 0.129500
1.000000 0.640250 0.129500
0.000000 0.705275 0.129500
0.066875 0.705275 0.129500
0.137750 0.705275 0.129500
0.208625 0.705275 0.129500
0.279500 0.705275 0.129500
0.350375 0.705275 0.129500
0.421250 0.705275 0.129500
0.492125 0.705275 0.129500
0.563000 0.705275 0.129500
0.633875 0.705275 0.129500
0.704750 0.705275 0.129500
0.775625 0.705275 0.129500
0.846500 0.705275 0.129500
0.917375 0.705275 0.129500
0.988250 0.705275 0.129500
1.000000 0.705275 0.129500
1.000000 0.705275 0.129500
0.000000 0.770300 0.129500
0.066875 0.770300 0.129500
0.137750 0.770300 0.129500
0.208625 0.770300 0.129500
0.279500 0.770300 0.129500
0.350375 0.770300 0.129500
0.421250 0.770300 0.129500
0.492125 0.770300 0.129500
0.563000 0.770300 0.129500
0.633875 0.770300 0.129500
0.704750 0.770300 0.129500
0.775625 0.770300 0.129500
0.846500 0.770300 0.129500
0.917375 0.770300 0.129500
0.988250 0.770300 0.129500
1.000000 0.770300 0.129500
1.000000 0.770300 0.129500
0.000000 0.835325 0.129500
0.066875 0.835325 0.129500
0.137750 0.835325 0.129500
0.208625 0.835325 0.129500
0.279500 0.835325 0.129500
0.350375 0.835325 0.129500
0.421250 0.835325 0.129500
0.492125 0.835325 0.129500
0.563000 0.835325 0.129500
0.633875 0.835325 0.129500
0.704750 0.835325 0.129500
0.775625 0.835325 0.129500
0.846500 0.835325 0.129500
0.917375 0.835325 0.129500
0.988250 0.835325 0.129500
1.000000 0.835325 0.129500
1.000000 0.835325 0.129500
0.000000 0.900350 0.129500
0.066875 0.900350 0.129500
0.137750 0.900350 0.129500
0.208625 0.900350 0.129500
0.279500 0.900350 0.129500
0.350375 0.900350 0.129500
0.421250 0.900350 0.129500
0.492125 0.900350 0.129500
0.563000 0.900350 0.129500
0.633875 0.900350 0.129500
0.704750 0.900350 0.129500
0.775625 0.900350 0.129500
0.846500 0.900350 0.129500
0.917375 0.900350 0.129500
0.988250 0.900350 0.129500
1.000000 0.900350 0.129500
1.000000 0.900350 0.129500
0.000000 0.965375 0.129500
0.066875 0.965375 0.129500
0.137750 0.965375 0.129500
0.208625 0.965375 0.129500
0.279500 0.965375 0.129500
0.350375 0.965375 0.129500
0.421250 0.965375 0.129500
0.492125 0.965375 0.129500
0.563000 0.965375 0.129500
0.633875 0.965375 0.129500
0.704750 0.965375 0.129500
0.775625 0.965375 0.129500
0.846500 0.965375 0.129500
0.917375 0.965375 0.129500
0.988250 0.965375 0.129500
1.000000 0.965375 0.129500
1.000000 0.965375 0.129500
0.000000 1.000000 0.129500
0.066875 1.000000 0.129500
0.137750 1.000000 0.129500
0.208625 1.000000 0.129500
0.279500 1.000000 0.129500
0.350375 1.000000 0.129500
0.421250 1.000000 0.129500
0.492125 1.000000 0.129500
0.563000 1.000000 0.129500
0.633875 1.000000 0.129500
0.704750 1.000000 0.129500
0.775625 1.000000 0.129500
0.846500 1.000000 0.129500
0.917375 1.000000 0.129500
0.988250 1.000000 0.129500
1.000000 1.000000 0.129500
1.000000 1.000000 0.129500
0.000000 0.000000 0.181750
0.066875 0.000000 0.181750
0.137750 0.000000 0.181750
0.208625 0.000000 0.181750
0.279500 0.000000 0.181750
0.350375 0.000000 0.181750
0.421250 0.000000 0.181750
0.492125 0.000000 0.181750
0.563000 0.000000 0.181750
0.633875 0.000000 0.181750
0.704750 0.000000 0.181750
0.775625 0.000000 0.181750
0.846500 0.000000 0.181750
0.917375 0.000000 0.181750
0.988250 0.000000 0.181750
1.000000 0.000000 0.181750
1.000000 0.000000 0.181750
0.000000 0.055025 0.181750
